{"type":"map","version":"1.10","tiledversion":"1.11.0","orientation":"orthogonal","renderorder":"right-down","infinite":false,"width":144,"height":96,"tilewidth":32,"tileheight":32,"nextlayerid":22,"nextobjectid":110,"tilesets":[{"firstgid":1,"name":"terrain.grass","type":"tileset","version":"1.10","tiledversion":"1.11.0","image":"period32/terrain.grass.png","imagewidth":256,"imageheight":768,"tilewidth":32,"tileheight":32,"tilecount":192,"columns":8,"margin":0,"spacing":0,"wangsets":[{"name":"terrain.grass","type":"mixed","tile":-1,"colors":[{"name":"terrain.grass","color":"#ff0000","tile":-1,"probability":1}],"wangtiles":[{"tileid":0,"wangid":[0,0,0,0,0,0,0,0]},{"tileid":1,"wangid":[1,0,0,0,0,0,0,0]},{"tileid":2,"wangid":[0,0,1,0,0,0,0,0]},{"tileid":3,"wangid":[1,0,1,0,0,0,0,0]},{"tileid":4,"wangid":[1,1,1,0,0,0,0,0]},{"tileid":5,"wangid":[0,0,0,0,1,0,0,0]},{"tileid":6,"wangid":[1,0,0,0,1,0,0,0]},{"tileid":7,"wangid":[0,0,1,0,1,0,0,0]},{"tileid":8,"wangid":[1,0,1,0,1,0,0,0]},{"tileid":9,"wangid":[1,1,1,0,1,0,0,0]},{"tileid":10,"wangid":[0,0,1,1,1,0,0,0]},{"tileid":11,"wangid":[1,0,1,1,1,0,0,0]},{"tileid":12,"wangid":[1,1,1,1,1,0,0,0]},{"tileid":13,"wangid":[0,0,0,0,0,0,1,0]},{"tileid":14,"wangid":[1,0,0,0,0,0,1,0]},{"tileid":15,"wangid":[0,0,1,0,0,0,1,0]},{"tileid":16,"wangid":[1,0,1,0,0,0,1,0]},{"tileid":17,"wangid":[1,1,1,0,0,0,1,0]},{"tileid":18,"wangid":[0,0,0,0,1,0,1,0]},{"tileid":19,"wangid":[1,0,0,0,1,0,1,0]},{"tileid":20,"wangid":[0,0,1,0,1,0,1,0]},{"tileid":21,"wangid":[1,0,1,0,1,0,1,0]},{"tileid":22,"wangid":[1,1,1,0,1,0,1,0]},{"tileid":23,"wangid":[0,0,1,1,1,0,1,0]},{"tileid":24,"wangid":[1,0,1,1,1,0,1,0]},{"tileid":25,"wangid":[1,1,1,1,1,0,1,0]},{"tileid":26,"wangid":[0,0,0,0,1,1,1,0]},{"tileid":27,"wangid":[1,0,0,0,1,1,1,0]},{"tileid":28,"wangid":[0,0,1,0,1,1,1,0]},{"tileid":29,"wangid":[1,0,1,0,1,1,1,0]},{"tileid":30,"wangid":[1,1,1,0,1,1,1,0]},{"tileid":31,"wangid":[0,0,1,1,1,1,1,0]},{"tileid":32,"wangid":[1,0,1,1,1,1,1,0]},{"tileid":33,"wangid":[1,1,1,1,1,1,1,0]},{"tileid":34,"wangid":[1,0,0,0,0,0,1,1]},{"tileid":35,"wangid":[1,0,1,0,0,0,1,1]},{"tileid":36,"wangid":[1,1,1,0,0,0,1,1]},{"tileid":37,"wangid":[1,0,0,0,1,0,1,1]},{"tileid":38,"wangid":[1,0,1,0,1,0,1,1]},{"tileid":39,"wangid":[1,1,1,0,1,0,1,1]},{"tileid":40,"wangid":[1,0,1,1,1,0,1,1]},{"tileid":41,"wangid":[1,1,1,1,1,0,1,1]},{"tileid":42,"wangid":[1,0,0,0,1,1,1,1]},{"tileid":43,"wangid":[1,0,1,0,1,1,1,1]},{"tileid":44,"wangid":[1,1,1,0,1,1,1,1]},{"tileid":45,"wangid":[1,0,1,1,1,1,1,1]},{"tileid":46,"wangid":[1,1,1,1,1,1,1,1]}]}]},{"firstgid":193,"name":"terrain.tallgrass","type":"tileset","version":"1.10","tiledversion":"1.11.0","image":"period32/terrain.tallgrass.png","imagewidth":256,"imageheight":768,"tilewidth":32,"tileheight":32,"tilecount":192,"columns":8,"margin":0,"spacing":0,"wangsets":[{"name":"terrain.tallgrass","type":"mixed","tile":-1,"colors":[{"name":"terrain.tallgrass","color":"#ff0000","tile":-1,"probability":1}],"wangtiles":[{"tileid":0,"wangid":[0,0,0,0,0,0,0,0]},{"tileid":1,"wangid":[1,0,0,0,0,0,0,0]},{"tileid":2,"wangid":[0,0,1,0,0,0,0,0]},{"tileid":3,"wangid":[1,0,1,0,0,0,0,0]},{"tileid":4,"wangid":[1,1,1,0,0,0,0,0]},{"tileid":5,"wangid":[0,0,0,0,1,0,0,0]},{"tileid":6,"wangid":[1,0,0,0,1,0,0,0]},{"tileid":7,"wangid":[0,0,1,0,1,0,0,0]},{"tileid":8,"wangid":[1,0,1,0,1,0,0,0]},{"tileid":9,"wangid":[1,1,1,0,1,0,0,0]},{"tileid":10,"wangid":[0,0,1,1,1,0,0,0]},{"tileid":11,"wangid":[1,0,1,1,1,0,0,0]},{"tileid":12,"wangid":[1,1,1,1,1,0,0,0]},{"tileid":13,"wangid":[0,0,0,0,0,0,1,0]},{"tileid":14,"wangid":[1,0,0,0,0,0,1,0]},{"tileid":15,"wangid":[0,0,1,0,0,0,1,0]},{"tileid":16,"wangid":[1,0,1,0,0,0,1,0]},{"tileid":17,"wangid":[1,1,1,0,0,0,1,0]},{"tileid":18,"wangid":[0,0,0,0,1,0,1,0]},{"tileid":19,"wangid":[1,0,0,0,1,0,1,0]},{"tileid":20,"wangid":[0,0,1,0,1,0,1,0]},{"tileid":21,"wangid":[1,0,1,0,1,0,1,0]},{"tileid":22,"wangid":[1,1,1,0,1,0,1,0]},{"tileid":23,"wangid":[0,0,1,1,1,0,1,0]},{"tileid":24,"wangid":[1,0,1,1,1,0,1,0]},{"tileid":25,"wangid":[1,1,1,1,1,0,1,0]},{"tileid":26,"wangid":[0,0,0,0,1,1,1,0]},{"tileid":27,"wangid":[1,0,0,0,1,1,1,0]},{"tileid":28,"wangid":[0,0,1,0,1,1,1,0]},{"tileid":29,"wangid":[1,0,1,0,1,1,1,0]},{"tileid":30,"wangid":[1,1,1,0,1,1,1,0]},{"tileid":31,"wangid":[0,0,1,1,1,1,1,0]},{"tileid":32,"wangid":[1,0,1,1,1,1,1,0]},{"tileid":33,"wangid":[1,1,1,1,1,1,1,0]},{"tileid":34,"wangid":[1,0,0,0,0,0,1,1]},{"tileid":35,"wangid":[1,0,1,0,0,0,1,1]},{"tileid":36,"wangid":[1,1,1,0,0,0,1,1]},{"tileid":37,"wangid":[1,0,0,0,1,0,1,1]},{"tileid":38,"wangid":[1,0,1,0,1,0,1,1]},{"tileid":39,"wangid":[1,1,1,0,1,0,1,1]},{"tileid":40,"wangid":[1,0,1,1,1,0,1,1]},{"tileid":41,"wangid":[1,1,1,1,1,0,1,1]},{"tileid":42,"wangid":[1,0,0,0,1,1,1,1]},{"tileid":43,"wangid":[1,0,1,0,1,1,1,1]},{"tileid":44,"wangid":[1,1,1,0,1,1,1,1]},{"tileid":45,"wangid":[1,0,1,1,1,1,1,1]},{"tileid":46,"wangid":[1,1,1,1,1,1,1,1]}]}]},{"firstgid":385,"name":"terrain.scrub","type":"tileset","version":"1.10","tiledversion":"1.11.0","image":"period32/terrain.scrub.png","imagewidth":256,"imageheight":768,"tilewidth":32,"tileheight":32,"tilecount":192,"columns":8,"margin":0,"spacing":0,"wangsets":[{"name":"terrain.scrub","type":"mixed","tile":-1,"colors":[{"name":"terrain.scrub","color":"#ff0000","tile":-1,"probability":1}],"wangtiles":[{"tileid":0,"wangid":[0,0,0,0,0,0,0,0]},{"tileid":1,"wangid":[1,0,0,0,0,0,0,0]},{"tileid":2,"wangid":[0,0,1,0,0,0,0,0]},{"tileid":3,"wangid":[1,0,1,0,0,0,0,0]},{"tileid":4,"wangid":[1,1,1,0,0,0,0,0]},{"tileid":5,"wangid":[0,0,0,0,1,0,0,0]},{"tileid":6,"wangid":[1,0,0,0,1,0,0,0]},{"tileid":7,"wangid":[0,0,1,0,1,0,0,0]},{"tileid":8,"wangid":[1,0,1,0,1,0,0,0]},{"tileid":9,"wangid":[1,1,1,0,1,0,0,0]},{"tileid":10,"wangid":[0,0,1,1,1,0,0,0]},{"tileid":11,"wangid":[1,0,1,1,1,0,0,0]},{"tileid":12,"wangid":[1,1,1,1,1,0,0,0]},{"tileid":13,"wangid":[0,0,0,0,0,0,1,0]},{"tileid":14,"wangid":[1,0,0,0,0,0,1,0]},{"tileid":15,"wangid":[0,0,1,0,0,0,1,0]},{"tileid":16,"wangid":[1,0,1,0,0,0,1,0]},{"tileid":17,"wangid":[1,1,1,0,0,0,1,0]},{"tileid":18,"wangid":[0,0,0,0,1,0,1,0]},{"tileid":19,"wangid":[1,0,0,0,1,0,1,0]},{"tileid":20,"wangid":[0,0,1,0,1,0,1,0]},{"tileid":21,"wangid":[1,0,1,0,1,0,1,0]},{"tileid":22,"wangid":[1,1,1,0,1,0,1,0]},{"tileid":23,"wangid":[0,0,1,1,1,0,1,0]},{"tileid":24,"wangid":[1,0,1,1,1,0,1,0]},{"tileid":25,"wangid":[1,1,1,1,1,0,1,0]},{"tileid":26,"wangid":[0,0,0,0,1,1,1,0]},{"tileid":27,"wangid":[1,0,0,0,1,1,1,0]},{"tileid":28,"wangid":[0,0,1,0,1,1,1,0]},{"tileid":29,"wangid":[1,0,1,0,1,1,1,0]},{"tileid":30,"wangid":[1,1,1,0,1,1,1,0]},{"tileid":31,"wangid":[0,0,1,1,1,1,1,0]},{"tileid":32,"wangid":[1,0,1,1,1,1,1,0]},{"tileid":33,"wangid":[1,1,1,1,1,1,1,0]},{"tileid":34,"wangid":[1,0,0,0,0,0,1,1]},{"tileid":35,"wangid":[1,0,1,0,0,0,1,1]},{"tileid":36,"wangid":[1,1,1,0,0,0,1,1]},{"tileid":37,"wangid":[1,0,0,0,1,0,1,1]},{"tileid":38,"wangid":[1,0,1,0,1,0,1,1]},{"tileid":39,"wangid":[1,1,1,0,1,0,1,1]},{"tileid":40,"wangid":[1,0,1,1,1,0,1,1]},{"tileid":41,"wangid":[1,1,1,1,1,0,1,1]},{"tileid":42,"wangid":[1,0,0,0,1,1,1,1]},{"tileid":43,"wangid":[1,0,1,0,1,1,1,1]},{"tileid":44,"wangid":[1,1,1,0,1,1,1,1]},{"tileid":45,"wangid":[1,0,1,1,1,1,1,1]},{"tileid":46,"wangid":[1,1,1,1,1,1,1,1]}]}]},{"firstgid":577,"name":"terrain.loess","type":"tileset","version":"1.10","tiledversion":"1.11.0","image":"period32/terrain.loess.png","imagewidth":256,"imageheight":768,"tilewidth":32,"tileheight":32,"tilecount":192,"columns":8,"margin":0,"spacing":0,"wangsets":[{"name":"terrain.loess","type":"mixed","tile":-1,"colors":[{"name":"terrain.loess","color":"#ff0000","tile":-1,"probability":1}],"wangtiles":[{"tileid":0,"wangid":[0,0,0,0,0,0,0,0]},{"tileid":1,"wangid":[1,0,0,0,0,0,0,0]},{"tileid":2,"wangid":[0,0,1,0,0,0,0,0]},{"tileid":3,"wangid":[1,0,1,0,0,0,0,0]},{"tileid":4,"wangid":[1,1,1,0,0,0,0,0]},{"tileid":5,"wangid":[0,0,0,0,1,0,0,0]},{"tileid":6,"wangid":[1,0,0,0,1,0,0,0]},{"tileid":7,"wangid":[0,0,1,0,1,0,0,0]},{"tileid":8,"wangid":[1,0,1,0,1,0,0,0]},{"tileid":9,"wangid":[1,1,1,0,1,0,0,0]},{"tileid":10,"wangid":[0,0,1,1,1,0,0,0]},{"tileid":11,"wangid":[1,0,1,1,1,0,0,0]},{"tileid":12,"wangid":[1,1,1,1,1,0,0,0]},{"tileid":13,"wangid":[0,0,0,0,0,0,1,0]},{"tileid":14,"wangid":[1,0,0,0,0,0,1,0]},{"tileid":15,"wangid":[0,0,1,0,0,0,1,0]},{"tileid":16,"wangid":[1,0,1,0,0,0,1,0]},{"tileid":17,"wangid":[1,1,1,0,0,0,1,0]},{"tileid":18,"wangid":[0,0,0,0,1,0,1,0]},{"tileid":19,"wangid":[1,0,0,0,1,0,1,0]},{"tileid":20,"wangid":[0,0,1,0,1,0,1,0]},{"tileid":21,"wangid":[1,0,1,0,1,0,1,0]},{"tileid":22,"wangid":[1,1,1,0,1,0,1,0]},{"tileid":23,"wangid":[0,0,1,1,1,0,1,0]},{"tileid":24,"wangid":[1,0,1,1,1,0,1,0]},{"tileid":25,"wangid":[1,1,1,1,1,0,1,0]},{"tileid":26,"wangid":[0,0,0,0,1,1,1,0]},{"tileid":27,"wangid":[1,0,0,0,1,1,1,0]},{"tileid":28,"wangid":[0,0,1,0,1,1,1,0]},{"tileid":29,"wangid":[1,0,1,0,1,1,1,0]},{"tileid":30,"wangid":[1,1,1,0,1,1,1,0]},{"tileid":31,"wangid":[0,0,1,1,1,1,1,0]},{"tileid":32,"wangid":[1,0,1,1,1,1,1,0]},{"tileid":33,"wangid":[1,1,1,1,1,1,1,0]},{"tileid":34,"wangid":[1,0,0,0,0,0,1,1]},{"tileid":35,"wangid":[1,0,1,0,0,0,1,1]},{"tileid":36,"wangid":[1,1,1,0,0,0,1,1]},{"tileid":37,"wangid":[1,0,0,0,1,0,1,1]},{"tileid":38,"wangid":[1,0,1,0,1,0,1,1]},{"tileid":39,"wangid":[1,1,1,0,1,0,1,1]},{"tileid":40,"wangid":[1,0,1,1,1,0,1,1]},{"tileid":41,"wangid":[1,1,1,1,1,0,1,1]},{"tileid":42,"wangid":[1,0,0,0,1,1,1,1]},{"tileid":43,"wangid":[1,0,1,0,1,1,1,1]},{"tileid":44,"wangid":[1,1,1,0,1,1,1,1]},{"tileid":45,"wangid":[1,0,1,1,1,1,1,1]},{"tileid":46,"wangid":[1,1,1,1,1,1,1,1]}]}]},{"firstgid":769,"name":"terrain.steppe","type":"tileset","version":"1.10","tiledversion":"1.11.0","image":"period32/terrain.steppe.png","imagewidth":256,"imageheight":768,"tilewidth":32,"tileheight":32,"tilecount":192,"columns":8,"margin":0,"spacing":0,"wangsets":[{"name":"terrain.steppe","type":"mixed","tile":-1,"colors":[{"name":"terrain.steppe","color":"#ff0000","tile":-1,"probability":1}],"wangtiles":[{"tileid":0,"wangid":[0,0,0,0,0,0,0,0]},{"tileid":1,"wangid":[1,0,0,0,0,0,0,0]},{"tileid":2,"wangid":[0,0,1,0,0,0,0,0]},{"tileid":3,"wangid":[1,0,1,0,0,0,0,0]},{"tileid":4,"wangid":[1,1,1,0,0,0,0,0]},{"tileid":5,"wangid":[0,0,0,0,1,0,0,0]},{"tileid":6,"wangid":[1,0,0,0,1,0,0,0]},{"tileid":7,"wangid":[0,0,1,0,1,0,0,0]},{"tileid":8,"wangid":[1,0,1,0,1,0,0,0]},{"tileid":9,"wangid":[1,1,1,0,1,0,0,0]},{"tileid":10,"wangid":[0,0,1,1,1,0,0,0]},{"tileid":11,"wangid":[1,0,1,1,1,0,0,0]},{"tileid":12,"wangid":[1,1,1,1,1,0,0,0]},{"tileid":13,"wangid":[0,0,0,0,0,0,1,0]},{"tileid":14,"wangid":[1,0,0,0,0,0,1,0]},{"tileid":15,"wangid":[0,0,1,0,0,0,1,0]},{"tileid":16,"wangid":[1,0,1,0,0,0,1,0]},{"tileid":17,"wangid":[1,1,1,0,0,0,1,0]},{"tileid":18,"wangid":[0,0,0,0,1,0,1,0]},{"tileid":19,"wangid":[1,0,0,0,1,0,1,0]},{"tileid":20,"wangid":[0,0,1,0,1,0,1,0]},{"tileid":21,"wangid":[1,0,1,0,1,0,1,0]},{"tileid":22,"wangid":[1,1,1,0,1,0,1,0]},{"tileid":23,"wangid":[0,0,1,1,1,0,1,0]},{"tileid":24,"wangid":[1,0,1,1,1,0,1,0]},{"tileid":25,"wangid":[1,1,1,1,1,0,1,0]},{"tileid":26,"wangid":[0,0,0,0,1,1,1,0]},{"tileid":27,"wangid":[1,0,0,0,1,1,1,0]},{"tileid":28,"wangid":[0,0,1,0,1,1,1,0]},{"tileid":29,"wangid":[1,0,1,0,1,1,1,0]},{"tileid":30,"wangid":[1,1,1,0,1,1,1,0]},{"tileid":31,"wangid":[0,0,1,1,1,1,1,0]},{"tileid":32,"wangid":[1,0,1,1,1,1,1,0]},{"tileid":33,"wangid":[1,1,1,1,1,1,1,0]},{"tileid":34,"wangid":[1,0,0,0,0,0,1,1]},{"tileid":35,"wangid":[1,0,1,0,0,0,1,1]},{"tileid":36,"wangid":[1,1,1,0,0,0,1,1]},{"tileid":37,"wangid":[1,0,0,0,1,0,1,1]},{"tileid":38,"wangid":[1,0,1,0,1,0,1,1]},{"tileid":39,"wangid":[1,1,1,0,1,0,1,1]},{"tileid":40,"wangid":[1,0,1,1,1,0,1,1]},{"tileid":41,"wangid":[1,1,1,1,1,0,1,1]},{"tileid":42,"wangid":[1,0,0,0,1,1,1,1]},{"tileid":43,"wangid":[1,0,1,0,1,1,1,1]},{"tileid":44,"wangid":[1,1,1,0,1,1,1,1]},{"tileid":45,"wangid":[1,0,1,1,1,1,1,1]},{"tileid":46,"wangid":[1,1,1,1,1,1,1,1]}]}]},{"firstgid":961,"name":"terrain.road","type":"tileset","version":"1.10","tiledversion":"1.11.0","image":"period32/terrain.road.png","imagewidth":256,"imageheight":768,"tilewidth":32,"tileheight":32,"tilecount":192,"columns":8,"margin":0,"spacing":0,"wangsets":[{"name":"terrain.road","type":"mixed","tile":-1,"colors":[{"name":"terrain.road","color":"#ff0000","tile":-1,"probability":1}],"wangtiles":[{"tileid":0,"wangid":[0,0,0,0,0,0,0,0]},{"tileid":1,"wangid":[1,0,0,0,0,0,0,0]},{"tileid":2,"wangid":[0,0,1,0,0,0,0,0]},{"tileid":3,"wangid":[1,0,1,0,0,0,0,0]},{"tileid":4,"wangid":[1,1,1,0,0,0,0,0]},{"tileid":5,"wangid":[0,0,0,0,1,0,0,0]},{"tileid":6,"wangid":[1,0,0,0,1,0,0,0]},{"tileid":7,"wangid":[0,0,1,0,1,0,0,0]},{"tileid":8,"wangid":[1,0,1,0,1,0,0,0]},{"tileid":9,"wangid":[1,1,1,0,1,0,0,0]},{"tileid":10,"wangid":[0,0,1,1,1,0,0,0]},{"tileid":11,"wangid":[1,0,1,1,1,0,0,0]},{"tileid":12,"wangid":[1,1,1,1,1,0,0,0]},{"tileid":13,"wangid":[0,0,0,0,0,0,1,0]},{"tileid":14,"wangid":[1,0,0,0,0,0,1,0]},{"tileid":15,"wangid":[0,0,1,0,0,0,1,0]},{"tileid":16,"wangid":[1,0,1,0,0,0,1,0]},{"tileid":17,"wangid":[1,1,1,0,0,0,1,0]},{"tileid":18,"wangid":[0,0,0,0,1,0,1,0]},{"tileid":19,"wangid":[1,0,0,0,1,0,1,0]},{"tileid":20,"wangid":[0,0,1,0,1,0,1,0]},{"tileid":21,"wangid":[1,0,1,0,1,0,1,0]},{"tileid":22,"wangid":[1,1,1,0,1,0,1,0]},{"tileid":23,"wangid":[0,0,1,1,1,0,1,0]},{"tileid":24,"wangid":[1,0,1,1,1,0,1,0]},{"tileid":25,"wangid":[1,1,1,1,1,0,1,0]},{"tileid":26,"wangid":[0,0,0,0,1,1,1,0]},{"tileid":27,"wangid":[1,0,0,0,1,1,1,0]},{"tileid":28,"wangid":[0,0,1,0,1,1,1,0]},{"tileid":29,"wangid":[1,0,1,0,1,1,1,0]},{"tileid":30,"wangid":[1,1,1,0,1,1,1,0]},{"tileid":31,"wangid":[0,0,1,1,1,1,1,0]},{"tileid":32,"wangid":[1,0,1,1,1,1,1,0]},{"tileid":33,"wangid":[1,1,1,1,1,1,1,0]},{"tileid":34,"wangid":[1,0,0,0,0,0,1,1]},{"tileid":35,"wangid":[1,0,1,0,0,0,1,1]},{"tileid":36,"wangid":[1,1,1,0,0,0,1,1]},{"tileid":37,"wangid":[1,0,0,0,1,0,1,1]},{"tileid":38,"wangid":[1,0,1,0,1,0,1,1]},{"tileid":39,"wangid":[1,1,1,0,1,0,1,1]},{"tileid":40,"wangid":[1,0,1,1,1,0,1,1]},{"tileid":41,"wangid":[1,1,1,1,1,0,1,1]},{"tileid":42,"wangid":[1,0,0,0,1,1,1,1]},{"tileid":43,"wangid":[1,0,1,0,1,1,1,1]},{"tileid":44,"wangid":[1,1,1,0,1,1,1,1]},{"tileid":45,"wangid":[1,0,1,1,1,1,1,1]},{"tileid":46,"wangid":[1,1,1,1,1,1,1,1]}]}]},{"firstgid":1153,"name":"terrain.cobble","type":"tileset","version":"1.10","tiledversion":"1.11.0","image":"period32/terrain.cobble.png","imagewidth":256,"imageheight":768,"tilewidth":32,"tileheight":32,"tilecount":192,"columns":8,"margin":0,"spacing":0,"wangsets":[{"name":"terrain.cobble","type":"mixed","tile":-1,"colors":[{"name":"terrain.cobble","color":"#ff0000","tile":-1,"probability":1}],"wangtiles":[{"tileid":0,"wangid":[0,0,0,0,0,0,0,0]},{"tileid":1,"wangid":[1,0,0,0,0,0,0,0]},{"tileid":2,"wangid":[0,0,1,0,0,0,0,0]},{"tileid":3,"wangid":[1,0,1,0,0,0,0,0]},{"tileid":4,"wangid":[1,1,1,0,0,0,0,0]},{"tileid":5,"wangid":[0,0,0,0,1,0,0,0]},{"tileid":6,"wangid":[1,0,0,0,1,0,0,0]},{"tileid":7,"wangid":[0,0,1,0,1,0,0,0]},{"tileid":8,"wangid":[1,0,1,0,1,0,0,0]},{"tileid":9,"wangid":[1,1,1,0,1,0,0,0]},{"tileid":10,"wangid":[0,0,1,1,1,0,0,0]},{"tileid":11,"wangid":[1,0,1,1,1,0,0,0]},{"tileid":12,"wangid":[1,1,1,1,1,0,0,0]},{"tileid":13,"wangid":[0,0,0,0,0,0,1,0]},{"tileid":14,"wangid":[1,0,0,0,0,0,1,0]},{"tileid":15,"wangid":[0,0,1,0,0,0,1,0]},{"tileid":16,"wangid":[1,0,1,0,0,0,1,0]},{"tileid":17,"wangid":[1,1,1,0,0,0,1,0]},{"tileid":18,"wangid":[0,0,0,0,1,0,1,0]},{"tileid":19,"wangid":[1,0,0,0,1,0,1,0]},{"tileid":20,"wangid":[0,0,1,0,1,0,1,0]},{"tileid":21,"wangid":[1,0,1,0,1,0,1,0]},{"tileid":22,"wangid":[1,1,1,0,1,0,1,0]},{"tileid":23,"wangid":[0,0,1,1,1,0,1,0]},{"tileid":24,"wangid":[1,0,1,1,1,0,1,0]},{"tileid":25,"wangid":[1,1,1,1,1,0,1,0]},{"tileid":26,"wangid":[0,0,0,0,1,1,1,0]},{"tileid":27,"wangid":[1,0,0,0,1,1,1,0]},{"tileid":28,"wangid":[0,0,1,0,1,1,1,0]},{"tileid":29,"wangid":[1,0,1,0,1,1,1,0]},{"tileid":30,"wangid":[1,1,1,0,1,1,1,0]},{"tileid":31,"wangid":[0,0,1,1,1,1,1,0]},{"tileid":32,"wangid":[1,0,1,1,1,1,1,0]},{"tileid":33,"wangid":[1,1,1,1,1,1,1,0]},{"tileid":34,"wangid":[1,0,0,0,0,0,1,1]},{"tileid":35,"wangid":[1,0,1,0,0,0,1,1]},{"tileid":36,"wangid":[1,1,1,0,0,0,1,1]},{"tileid":37,"wangid":[1,0,0,0,1,0,1,1]},{"tileid":38,"wangid":[1,0,1,0,1,0,1,1]},{"tileid":39,"wangid":[1,1,1,0,1,0,1,1]},{"tileid":40,"wangid":[1,0,1,1,1,0,1,1]},{"tileid":41,"wangid":[1,1,1,1,1,0,1,1]},{"tileid":42,"wangid":[1,0,0,0,1,1,1,1]},{"tileid":43,"wangid":[1,0,1,0,1,1,1,1]},{"tileid":44,"wangid":[1,1,1,0,1,1,1,1]},{"tileid":45,"wangid":[1,0,1,1,1,1,1,1]},{"tileid":46,"wangid":[1,1,1,1,1,1,1,1]}]}]},{"firstgid":1345,"name":"terrain.wall","type":"tileset","version":"1.10","tiledversion":"1.11.0","image":"period32/terrain.wall.png","imagewidth":256,"imageheight":768,"tilewidth":32,"tileheight":32,"tilecount":192,"columns":8,"margin":0,"spacing":0,"wangsets":[{"name":"terrain.wall","type":"mixed","tile":-1,"colors":[{"name":"terrain.wall","color":"#ff0000","tile":-1,"probability":1}],"wangtiles":[{"tileid":0,"wangid":[0,0,0,0,0,0,0,0]},{"tileid":1,"wangid":[1,0,0,0,0,0,0,0]},{"tileid":2,"wangid":[0,0,1,0,0,0,0,0]},{"tileid":3,"wangid":[1,0,1,0,0,0,0,0]},{"tileid":4,"wangid":[1,1,1,0,0,0,0,0]},{"tileid":5,"wangid":[0,0,0,0,1,0,0,0]},{"tileid":6,"wangid":[1,0,0,0,1,0,0,0]},{"tileid":7,"wangid":[0,0,1,0,1,0,0,0]},{"tileid":8,"wangid":[1,0,1,0,1,0,0,0]},{"tileid":9,"wangid":[1,1,1,0,1,0,0,0]},{"tileid":10,"wangid":[0,0,1,1,1,0,0,0]},{"tileid":11,"wangid":[1,0,1,1,1,0,0,0]},{"tileid":12,"wangid":[1,1,1,1,1,0,0,0]},{"tileid":13,"wangid":[0,0,0,0,0,0,1,0]},{"tileid":14,"wangid":[1,0,0,0,0,0,1,0]},{"tileid":15,"wangid":[0,0,1,0,0,0,1,0]},{"tileid":16,"wangid":[1,0,1,0,0,0,1,0]},{"tileid":17,"wangid":[1,1,1,0,0,0,1,0]},{"tileid":18,"wangid":[0,0,0,0,1,0,1,0]},{"tileid":19,"wangid":[1,0,0,0,1,0,1,0]},{"tileid":20,"wangid":[0,0,1,0,1,0,1,0]},{"tileid":21,"wangid":[1,0,1,0,1,0,1,0]},{"tileid":22,"wangid":[1,1,1,0,1,0,1,0]},{"tileid":23,"wangid":[0,0,1,1,1,0,1,0]},{"tileid":24,"wangid":[1,0,1,1,1,0,1,0]},{"tileid":25,"wangid":[1,1,1,1,1,0,1,0]},{"tileid":26,"wangid":[0,0,0,0,1,1,1,0]},{"tileid":27,"wangid":[1,0,0,0,1,1,1,0]},{"tileid":28,"wangid":[0,0,1,0,1,1,1,0]},{"tileid":29,"wangid":[1,0,1,0,1,1,1,0]},{"tileid":30,"wangid":[1,1,1,0,1,1,1,0]},{"tileid":31,"wangid":[0,0,1,1,1,1,1,0]},{"tileid":32,"wangid":[1,0,1,1,1,1,1,0]},{"tileid":33,"wangid":[1,1,1,1,1,1,1,0]},{"tileid":34,"wangid":[1,0,0,0,0,0,1,1]},{"tileid":35,"wangid":[1,0,1,0,0,0,1,1]},{"tileid":36,"wangid":[1,1,1,0,0,0,1,1]},{"tileid":37,"wangid":[1,0,0,0,1,0,1,1]},{"tileid":38,"wangid":[1,0,1,0,1,0,1,1]},{"tileid":39,"wangid":[1,1,1,0,1,0,1,1]},{"tileid":40,"wangid":[1,0,1,1,1,0,1,1]},{"tileid":41,"wangid":[1,1,1,1,1,0,1,1]},{"tileid":42,"wangid":[1,0,0,0,1,1,1,1]},{"tileid":43,"wangid":[1,0,1,0,1,1,1,1]},{"tileid":44,"wangid":[1,1,1,0,1,1,1,1]},{"tileid":45,"wangid":[1,0,1,1,1,1,1,1]},{"tileid":46,"wangid":[1,1,1,1,1,1,1,1]}]}]},{"firstgid":1537,"name":"terrain.forest","type":"tileset","version":"1.10","tiledversion":"1.11.0","image":"period32/terrain.forest.png","imagewidth":256,"imageheight":768,"tilewidth":32,"tileheight":32,"tilecount":192,"columns":8,"margin":0,"spacing":0,"wangsets":[{"name":"terrain.forest","type":"mixed","tile":-1,"colors":[{"name":"terrain.forest","color":"#ff0000","tile":-1,"probability":1}],"wangtiles":[{"tileid":0,"wangid":[0,0,0,0,0,0,0,0]},{"tileid":1,"wangid":[1,0,0,0,0,0,0,0]},{"tileid":2,"wangid":[0,0,1,0,0,0,0,0]},{"tileid":3,"wangid":[1,0,1,0,0,0,0,0]},{"tileid":4,"wangid":[1,1,1,0,0,0,0,0]},{"tileid":5,"wangid":[0,0,0,0,1,0,0,0]},{"tileid":6,"wangid":[1,0,0,0,1,0,0,0]},{"tileid":7,"wangid":[0,0,1,0,1,0,0,0]},{"tileid":8,"wangid":[1,0,1,0,1,0,0,0]},{"tileid":9,"wangid":[1,1,1,0,1,0,0,0]},{"tileid":10,"wangid":[0,0,1,1,1,0,0,0]},{"tileid":11,"wangid":[1,0,1,1,1,0,0,0]},{"tileid":12,"wangid":[1,1,1,1,1,0,0,0]},{"tileid":13,"wangid":[0,0,0,0,0,0,1,0]},{"tileid":14,"wangid":[1,0,0,0,0,0,1,0]},{"tileid":15,"wangid":[0,0,1,0,0,0,1,0]},{"tileid":16,"wangid":[1,0,1,0,0,0,1,0]},{"tileid":17,"wangid":[1,1,1,0,0,0,1,0]},{"tileid":18,"wangid":[0,0,0,0,1,0,1,0]},{"tileid":19,"wangid":[1,0,0,0,1,0,1,0]},{"tileid":20,"wangid":[0,0,1,0,1,0,1,0]},{"tileid":21,"wangid":[1,0,1,0,1,0,1,0]},{"tileid":22,"wangid":[1,1,1,0,1,0,1,0]},{"tileid":23,"wangid":[0,0,1,1,1,0,1,0]},{"tileid":24,"wangid":[1,0,1,1,1,0,1,0]},{"tileid":25,"wangid":[1,1,1,1,1,0,1,0]},{"tileid":26,"wangid":[0,0,0,0,1,1,1,0]},{"tileid":27,"wangid":[1,0,0,0,1,1,1,0]},{"tileid":28,"wangid":[0,0,1,0,1,1,1,0]},{"tileid":29,"wangid":[1,0,1,0,1,1,1,0]},{"tileid":30,"wangid":[1,1,1,0,1,1,1,0]},{"tileid":31,"wangid":[0,0,1,1,1,1,1,0]},{"tileid":32,"wangid":[1,0,1,1,1,1,1,0]},{"tileid":33,"wangid":[1,1,1,1,1,1,1,0]},{"tileid":34,"wangid":[1,0,0,0,0,0,1,1]},{"tileid":35,"wangid":[1,0,1,0,0,0,1,1]},{"tileid":36,"wangid":[1,1,1,0,0,0,1,1]},{"tileid":37,"wangid":[1,0,0,0,1,0,1,1]},{"tileid":38,"wangid":[1,0,1,0,1,0,1,1]},{"tileid":39,"wangid":[1,1,1,0,1,0,1,1]},{"tileid":40,"wangid":[1,0,1,1,1,0,1,1]},{"tileid":41,"wangid":[1,1,1,1,1,0,1,1]},{"tileid":42,"wangid":[1,0,0,0,1,1,1,1]},{"tileid":43,"wangid":[1,0,1,0,1,1,1,1]},{"tileid":44,"wangid":[1,1,1,0,1,1,1,1]},{"tileid":45,"wangid":[1,0,1,1,1,1,1,1]},{"tileid":46,"wangid":[1,1,1,1,1,1,1,1]}]}]},{"firstgid":1729,"name":"terrain.bamboo","type":"tileset","version":"1.10","tiledversion":"1.11.0","image":"period32/terrain.bamboo.png","imagewidth":256,"imageheight":768,"tilewidth":32,"tileheight":32,"tilecount":192,"columns":8,"margin":0,"spacing":0,"wangsets":[{"name":"terrain.bamboo","type":"mixed","tile":-1,"colors":[{"name":"terrain.bamboo","color":"#ff0000","tile":-1,"probability":1}],"wangtiles":[{"tileid":0,"wangid":[0,0,0,0,0,0,0,0]},{"tileid":1,"wangid":[1,0,0,0,0,0,0,0]},{"tileid":2,"wangid":[0,0,1,0,0,0,0,0]},{"tileid":3,"wangid":[1,0,1,0,0,0,0,0]},{"tileid":4,"wangid":[1,1,1,0,0,0,0,0]},{"tileid":5,"wangid":[0,0,0,0,1,0,0,0]},{"tileid":6,"wangid":[1,0,0,0,1,0,0,0]},{"tileid":7,"wangid":[0,0,1,0,1,0,0,0]},{"tileid":8,"wangid":[1,0,1,0,1,0,0,0]},{"tileid":9,"wangid":[1,1,1,0,1,0,0,0]},{"tileid":10,"wangid":[0,0,1,1,1,0,0,0]},{"tileid":11,"wangid":[1,0,1,1,1,0,0,0]},{"tileid":12,"wangid":[1,1,1,1,1,0,0,0]},{"tileid":13,"wangid":[0,0,0,0,0,0,1,0]},{"tileid":14,"wangid":[1,0,0,0,0,0,1,0]},{"tileid":15,"wangid":[0,0,1,0,0,0,1,0]},{"tileid":16,"wangid":[1,0,1,0,0,0,1,0]},{"tileid":17,"wangid":[1,1,1,0,0,0,1,0]},{"tileid":18,"wangid":[0,0,0,0,1,0,1,0]},{"tileid":19,"wangid":[1,0,0,0,1,0,1,0]},{"tileid":20,"wangid":[0,0,1,0,1,0,1,0]},{"tileid":21,"wangid":[1,0,1,0,1,0,1,0]},{"tileid":22,"wangid":[1,1,1,0,1,0,1,0]},{"tileid":23,"wangid":[0,0,1,1,1,0,1,0]},{"tileid":24,"wangid":[1,0,1,1,1,0,1,0]},{"tileid":25,"wangid":[1,1,1,1,1,0,1,0]},{"tileid":26,"wangid":[0,0,0,0,1,1,1,0]},{"tileid":27,"wangid":[1,0,0,0,1,1,1,0]},{"tileid":28,"wangid":[0,0,1,0,1,1,1,0]},{"tileid":29,"wangid":[1,0,1,0,1,1,1,0]},{"tileid":30,"wangid":[1,1,1,0,1,1,1,0]},{"tileid":31,"wangid":[0,0,1,1,1,1,1,0]},{"tileid":32,"wangid":[1,0,1,1,1,1,1,0]},{"tileid":33,"wangid":[1,1,1,1,1,1,1,0]},{"tileid":34,"wangid":[1,0,0,0,0,0,1,1]},{"tileid":35,"wangid":[1,0,1,0,0,0,1,1]},{"tileid":36,"wangid":[1,1,1,0,0,0,1,1]},{"tileid":37,"wangid":[1,0,0,0,1,0,1,1]},{"tileid":38,"wangid":[1,0,1,0,1,0,1,1]},{"tileid":39,"wangid":[1,1,1,0,1,0,1,1]},{"tileid":40,"wangid":[1,0,1,1,1,0,1,1]},{"tileid":41,"wangid":[1,1,1,1,1,0,1,1]},{"tileid":42,"wangid":[1,0,0,0,1,1,1,1]},{"tileid":43,"wangid":[1,0,1,0,1,1,1,1]},{"tileid":44,"wangid":[1,1,1,0,1,1,1,1]},{"tileid":45,"wangid":[1,0,1,1,1,1,1,1]},{"tileid":46,"wangid":[1,1,1,1,1,1,1,1]}]}]},{"firstgid":1921,"name":"terrain.hills","type":"tileset","version":"1.10","tiledversion":"1.11.0","image":"period32/terrain.hills.png","imagewidth":256,"imageheight":768,"tilewidth":32,"tileheight":32,"tilecount":192,"columns":8,"margin":0,"spacing":0,"wangsets":[{"name":"terrain.hills","type":"mixed","tile":-1,"colors":[{"name":"terrain.hills","color":"#ff0000","tile":-1,"probability":1}],"wangtiles":[{"tileid":0,"wangid":[0,0,0,0,0,0,0,0]},{"tileid":1,"wangid":[1,0,0,0,0,0,0,0]},{"tileid":2,"wangid":[0,0,1,0,0,0,0,0]},{"tileid":3,"wangid":[1,0,1,0,0,0,0,0]},{"tileid":4,"wangid":[1,1,1,0,0,0,0,0]},{"tileid":5,"wangid":[0,0,0,0,1,0,0,0]},{"tileid":6,"wangid":[1,0,0,0,1,0,0,0]},{"tileid":7,"wangid":[0,0,1,0,1,0,0,0]},{"tileid":8,"wangid":[1,0,1,0,1,0,0,0]},{"tileid":9,"wangid":[1,1,1,0,1,0,0,0]},{"tileid":10,"wangid":[0,0,1,1,1,0,0,0]},{"tileid":11,"wangid":[1,0,1,1,1,0,0,0]},{"tileid":12,"wangid":[1,1,1,1,1,0,0,0]},{"tileid":13,"wangid":[0,0,0,0,0,0,1,0]},{"tileid":14,"wangid":[1,0,0,0,0,0,1,0]},{"tileid":15,"wangid":[0,0,1,0,0,0,1,0]},{"tileid":16,"wangid":[1,0,1,0,0,0,1,0]},{"tileid":17,"wangid":[1,1,1,0,0,0,1,0]},{"tileid":18,"wangid":[0,0,0,0,1,0,1,0]},{"tileid":19,"wangid":[1,0,0,0,1,0,1,0]},{"tileid":20,"wangid":[0,0,1,0,1,0,1,0]},{"tileid":21,"wangid":[1,0,1,0,1,0,1,0]},{"tileid":22,"wangid":[1,1,1,0,1,0,1,0]},{"tileid":23,"wangid":[0,0,1,1,1,0,1,0]},{"tileid":24,"wangid":[1,0,1,1,1,0,1,0]},{"tileid":25,"wangid":[1,1,1,1,1,0,1,0]},{"tileid":26,"wangid":[0,0,0,0,1,1,1,0]},{"tileid":27,"wangid":[1,0,0,0,1,1,1,0]},{"tileid":28,"wangid":[0,0,1,0,1,1,1,0]},{"tileid":29,"wangid":[1,0,1,0,1,1,1,0]},{"tileid":30,"wangid":[1,1,1,0,1,1,1,0]},{"tileid":31,"wangid":[0,0,1,1,1,1,1,0]},{"tileid":32,"wangid":[1,0,1,1,1,1,1,0]},{"tileid":33,"wangid":[1,1,1,1,1,1,1,0]},{"tileid":34,"wangid":[1,0,0,0,0,0,1,1]},{"tileid":35,"wangid":[1,0,1,0,0,0,1,1]},{"tileid":36,"wangid":[1,1,1,0,0,0,1,1]},{"tileid":37,"wangid":[1,0,0,0,1,0,1,1]},{"tileid":38,"wangid":[1,0,1,0,1,0,1,1]},{"tileid":39,"wangid":[1,1,1,0,1,0,1,1]},{"tileid":40,"wangid":[1,0,1,1,1,0,1,1]},{"tileid":41,"wangid":[1,1,1,1,1,0,1,1]},{"tileid":42,"wangid":[1,0,0,0,1,1,1,1]},{"tileid":43,"wangid":[1,0,1,0,1,1,1,1]},{"tileid":44,"wangid":[1,1,1,0,1,1,1,1]},{"tileid":45,"wangid":[1,0,1,1,1,1,1,1]},{"tileid":46,"wangid":[1,1,1,1,1,1,1,1]}]}]},{"firstgid":2113,"name":"terrain.mountain","type":"tileset","version":"1.10","tiledversion":"1.11.0","image":"period32/terrain.mountain.png","imagewidth":256,"imageheight":768,"tilewidth":32,"tileheight":32,"tilecount":192,"columns":8,"margin":0,"spacing":0,"wangsets":[{"name":"terrain.mountain","type":"mixed","tile":-1,"colors":[{"name":"terrain.mountain","color":"#ff0000","tile":-1,"probability":1}],"wangtiles":[{"tileid":0,"wangid":[0,0,0,0,0,0,0,0]},{"tileid":1,"wangid":[1,0,0,0,0,0,0,0]},{"tileid":2,"wangid":[0,0,1,0,0,0,0,0]},{"tileid":3,"wangid":[1,0,1,0,0,0,0,0]},{"tileid":4,"wangid":[1,1,1,0,0,0,0,0]},{"tileid":5,"wangid":[0,0,0,0,1,0,0,0]},{"tileid":6,"wangid":[1,0,0,0,1,0,0,0]},{"tileid":7,"wangid":[0,0,1,0,1,0,0,0]},{"tileid":8,"wangid":[1,0,1,0,1,0,0,0]},{"tileid":9,"wangid":[1,1,1,0,1,0,0,0]},{"tileid":10,"wangid":[0,0,1,1,1,0,0,0]},{"tileid":11,"wangid":[1,0,1,1,1,0,0,0]},{"tileid":12,"wangid":[1,1,1,1,1,0,0,0]},{"tileid":13,"wangid":[0,0,0,0,0,0,1,0]},{"tileid":14,"wangid":[1,0,0,0,0,0,1,0]},{"tileid":15,"wangid":[0,0,1,0,0,0,1,0]},{"tileid":16,"wangid":[1,0,1,0,0,0,1,0]},{"tileid":17,"wangid":[1,1,1,0,0,0,1,0]},{"tileid":18,"wangid":[0,0,0,0,1,0,1,0]},{"tileid":19,"wangid":[1,0,0,0,1,0,1,0]},{"tileid":20,"wangid":[0,0,1,0,1,0,1,0]},{"tileid":21,"wangid":[1,0,1,0,1,0,1,0]},{"tileid":22,"wangid":[1,1,1,0,1,0,1,0]},{"tileid":23,"wangid":[0,0,1,1,1,0,1,0]},{"tileid":24,"wangid":[1,0,1,1,1,0,1,0]},{"tileid":25,"wangid":[1,1,1,1,1,0,1,0]},{"tileid":26,"wangid":[0,0,0,0,1,1,1,0]},{"tileid":27,"wangid":[1,0,0,0,1,1,1,0]},{"tileid":28,"wangid":[0,0,1,0,1,1,1,0]},{"tileid":29,"wangid":[1,0,1,0,1,1,1,0]},{"tileid":30,"wangid":[1,1,1,0,1,1,1,0]},{"tileid":31,"wangid":[0,0,1,1,1,1,1,0]},{"tileid":32,"wangid":[1,0,1,1,1,1,1,0]},{"tileid":33,"wangid":[1,1,1,1,1,1,1,0]},{"tileid":34,"wangid":[1,0,0,0,0,0,1,1]},{"tileid":35,"wangid":[1,0,1,0,0,0,1,1]},{"tileid":36,"wangid":[1,1,1,0,0,0,1,1]},{"tileid":37,"wangid":[1,0,0,0,1,0,1,1]},{"tileid":38,"wangid":[1,0,1,0,1,0,1,1]},{"tileid":39,"wangid":[1,1,1,0,1,0,1,1]},{"tileid":40,"wangid":[1,0,1,1,1,0,1,1]},{"tileid":41,"wangid":[1,1,1,1,1,0,1,1]},{"tileid":42,"wangid":[1,0,0,0,1,1,1,1]},{"tileid":43,"wangid":[1,0,1,0,1,1,1,1]},{"tileid":44,"wangid":[1,1,1,0,1,1,1,1]},{"tileid":45,"wangid":[1,0,1,1,1,1,1,1]},{"tileid":46,"wangid":[1,1,1,1,1,1,1,1]}]}]},{"firstgid":2305,"name":"terrain.qinling","type":"tileset","version":"1.10","tiledversion":"1.11.0","image":"period32/terrain.qinling.png","imagewidth":256,"imageheight":768,"tilewidth":32,"tileheight":32,"tilecount":192,"columns":8,"margin":0,"spacing":0,"wangsets":[{"name":"terrain.qinling","type":"mixed","tile":-1,"colors":[{"name":"terrain.qinling","color":"#ff0000","tile":-1,"probability":1}],"wangtiles":[{"tileid":0,"wangid":[0,0,0,0,0,0,0,0]},{"tileid":1,"wangid":[1,0,0,0,0,0,0,0]},{"tileid":2,"wangid":[0,0,1,0,0,0,0,0]},{"tileid":3,"wangid":[1,0,1,0,0,0,0,0]},{"tileid":4,"wangid":[1,1,1,0,0,0,0,0]},{"tileid":5,"wangid":[0,0,0,0,1,0,0,0]},{"tileid":6,"wangid":[1,0,0,0,1,0,0,0]},{"tileid":7,"wangid":[0,0,1,0,1,0,0,0]},{"tileid":8,"wangid":[1,0,1,0,1,0,0,0]},{"tileid":9,"wangid":[1,1,1,0,1,0,0,0]},{"tileid":10,"wangid":[0,0,1,1,1,0,0,0]},{"tileid":11,"wangid":[1,0,1,1,1,0,0,0]},{"tileid":12,"wangid":[1,1,1,1,1,0,0,0]},{"tileid":13,"wangid":[0,0,0,0,0,0,1,0]},{"tileid":14,"wangid":[1,0,0,0,0,0,1,0]},{"tileid":15,"wangid":[0,0,1,0,0,0,1,0]},{"tileid":16,"wangid":[1,0,1,0,0,0,1,0]},{"tileid":17,"wangid":[1,1,1,0,0,0,1,0]},{"tileid":18,"wangid":[0,0,0,0,1,0,1,0]},{"tileid":19,"wangid":[1,0,0,0,1,0,1,0]},{"tileid":20,"wangid":[0,0,1,0,1,0,1,0]},{"tileid":21,"wangid":[1,0,1,0,1,0,1,0]},{"tileid":22,"wangid":[1,1,1,0,1,0,1,0]},{"tileid":23,"wangid":[0,0,1,1,1,0,1,0]},{"tileid":24,"wangid":[1,0,1,1,1,0,1,0]},{"tileid":25,"wangid":[1,1,1,1,1,0,1,0]},{"tileid":26,"wangid":[0,0,0,0,1,1,1,0]},{"tileid":27,"wangid":[1,0,0,0,1,1,1,0]},{"tileid":28,"wangid":[0,0,1,0,1,1,1,0]},{"tileid":29,"wangid":[1,0,1,0,1,1,1,0]},{"tileid":30,"wangid":[1,1,1,0,1,1,1,0]},{"tileid":31,"wangid":[0,0,1,1,1,1,1,0]},{"tileid":32,"wangid":[1,0,1,1,1,1,1,0]},{"tileid":33,"wangid":[1,1,1,1,1,1,1,0]},{"tileid":34,"wangid":[1,0,0,0,0,0,1,1]},{"tileid":35,"wangid":[1,0,1,0,0,0,1,1]},{"tileid":36,"wangid":[1,1,1,0,0,0,1,1]},{"tileid":37,"wangid":[1,0,0,0,1,0,1,1]},{"tileid":38,"wangid":[1,0,1,0,1,0,1,1]},{"tileid":39,"wangid":[1,1,1,0,1,0,1,1]},{"tileid":40,"wangid":[1,0,1,1,1,0,1,1]},{"tileid":41,"wangid":[1,1,1,1,1,0,1,1]},{"tileid":42,"wangid":[1,0,0,0,1,1,1,1]},{"tileid":43,"wangid":[1,0,1,0,1,1,1,1]},{"tileid":44,"wangid":[1,1,1,0,1,1,1,1]},{"tileid":45,"wangid":[1,0,1,1,1,1,1,1]},{"tileid":46,"wangid":[1,1,1,1,1,1,1,1]}]}]},{"firstgid":2497,"name":"terrain.taihang","type":"tileset","version":"1.10","tiledversion":"1.11.0","image":"period32/terrain.taihang.png","imagewidth":256,"imageheight":768,"tilewidth":32,"tileheight":32,"tilecount":192,"columns":8,"margin":0,"spacing":0,"wangsets":[{"name":"terrain.taihang","type":"mixed","tile":-1,"colors":[{"name":"terrain.taihang","color":"#ff0000","tile":-1,"probability":1}],"wangtiles":[{"tileid":0,"wangid":[0,0,0,0,0,0,0,0]},{"tileid":1,"wangid":[1,0,0,0,0,0,0,0]},{"tileid":2,"wangid":[0,0,1,0,0,0,0,0]},{"tileid":3,"wangid":[1,0,1,0,0,0,0,0]},{"tileid":4,"wangid":[1,1,1,0,0,0,0,0]},{"tileid":5,"wangid":[0,0,0,0,1,0,0,0]},{"tileid":6,"wangid":[1,0,0,0,1,0,0,0]},{"tileid":7,"wangid":[0,0,1,0,1,0,0,0]},{"tileid":8,"wangid":[1,0,1,0,1,0,0,0]},{"tileid":9,"wangid":[1,1,1,0,1,0,0,0]},{"tileid":10,"wangid":[0,0,1,1,1,0,0,0]},{"tileid":11,"wangid":[1,0,1,1,1,0,0,0]},{"tileid":12,"wangid":[1,1,1,1,1,0,0,0]},{"tileid":13,"wangid":[0,0,0,0,0,0,1,0]},{"tileid":14,"wangid":[1,0,0,0,0,0,1,0]},{"tileid":15,"wangid":[0,0,1,0,0,0,1,0]},{"tileid":16,"wangid":[1,0,1,0,0,0,1,0]},{"tileid":17,"wangid":[1,1,1,0,0,0,1,0]},{"tileid":18,"wangid":[0,0,0,0,1,0,1,0]},{"tileid":19,"wangid":[1,0,0,0,1,0,1,0]},{"tileid":20,"wangid":[0,0,1,0,1,0,1,0]},{"tileid":21,"wangid":[1,0,1,0,1,0,1,0]},{"tileid":22,"wangid":[1,1,1,0,1,0,1,0]},{"tileid":23,"wangid":[0,0,1,1,1,0,1,0]},{"tileid":24,"wangid":[1,0,1,1,1,0,1,0]},{"tileid":25,"wangid":[1,1,1,1,1,0,1,0]},{"tileid":26,"wangid":[0,0,0,0,1,1,1,0]},{"tileid":27,"wangid":[1,0,0,0,1,1,1,0]},{"tileid":28,"wangid":[0,0,1,0,1,1,1,0]},{"tileid":29,"wangid":[1,0,1,0,1,1,1,0]},{"tileid":30,"wangid":[1,1,1,0,1,1,1,0]},{"tileid":31,"wangid":[0,0,1,1,1,1,1,0]},{"tileid":32,"wangid":[1,0,1,1,1,1,1,0]},{"tileid":33,"wangid":[1,1,1,1,1,1,1,0]},{"tileid":34,"wangid":[1,0,0,0,0,0,1,1]},{"tileid":35,"wangid":[1,0,1,0,0,0,1,1]},{"tileid":36,"wangid":[1,1,1,0,0,0,1,1]},{"tileid":37,"wangid":[1,0,0,0,1,0,1,1]},{"tileid":38,"wangid":[1,0,1,0,1,0,1,1]},{"tileid":39,"wangid":[1,1,1,0,1,0,1,1]},{"tileid":40,"wangid":[1,0,1,1,1,0,1,1]},{"tileid":41,"wangid":[1,1,1,1,1,0,1,1]},{"tileid":42,"wangid":[1,0,0,0,1,1,1,1]},{"tileid":43,"wangid":[1,0,1,0,1,1,1,1]},{"tileid":44,"wangid":[1,1,1,0,1,1,1,1]},{"tileid":45,"wangid":[1,0,1,1,1,1,1,1]},{"tileid":46,"wangid":[1,1,1,1,1,1,1,1]}]}]},{"firstgid":2689,"name":"terrain.luliang","type":"tileset","version":"1.10","tiledversion":"1.11.0","image":"period32/terrain.luliang.png","imagewidth":256,"imageheight":768,"tilewidth":32,"tileheight":32,"tilecount":192,"columns":8,"margin":0,"spacing":0,"wangsets":[{"name":"terrain.luliang","type":"mixed","tile":-1,"colors":[{"name":"terrain.luliang","color":"#ff0000","tile":-1,"probability":1}],"wangtiles":[{"tileid":0,"wangid":[0,0,0,0,0,0,0,0]},{"tileid":1,"wangid":[1,0,0,0,0,0,0,0]},{"tileid":2,"wangid":[0,0,1,0,0,0,0,0]},{"tileid":3,"wangid":[1,0,1,0,0,0,0,0]},{"tileid":4,"wangid":[1,1,1,0,0,0,0,0]},{"tileid":5,"wangid":[0,0,0,0,1,0,0,0]},{"tileid":6,"wangid":[1,0,0,0,1,0,0,0]},{"tileid":7,"wangid":[0,0,1,0,1,0,0,0]},{"tileid":8,"wangid":[1,0,1,0,1,0,0,0]},{"tileid":9,"wangid":[1,1,1,0,1,0,0,0]},{"tileid":10,"wangid":[0,0,1,1,1,0,0,0]},{"tileid":11,"wangid":[1,0,1,1,1,0,0,0]},{"tileid":12,"wangid":[1,1,1,1,1,0,0,0]},{"tileid":13,"wangid":[0,0,0,0,0,0,1,0]},{"tileid":14,"wangid":[1,0,0,0,0,0,1,0]},{"tileid":15,"wangid":[0,0,1,0,0,0,1,0]},{"tileid":16,"wangid":[1,0,1,0,0,0,1,0]},{"tileid":17,"wangid":[1,1,1,0,0,0,1,0]},{"tileid":18,"wangid":[0,0,0,0,1,0,1,0]},{"tileid":19,"wangid":[1,0,0,0,1,0,1,0]},{"tileid":20,"wangid":[0,0,1,0,1,0,1,0]},{"tileid":21,"wangid":[1,0,1,0,1,0,1,0]},{"tileid":22,"wangid":[1,1,1,0,1,0,1,0]},{"tileid":23,"wangid":[0,0,1,1,1,0,1,0]},{"tileid":24,"wangid":[1,0,1,1,1,0,1,0]},{"tileid":25,"wangid":[1,1,1,1,1,0,1,0]},{"tileid":26,"wangid":[0,0,0,0,1,1,1,0]},{"tileid":27,"wangid":[1,0,0,0,1,1,1,0]},{"tileid":28,"wangid":[0,0,1,0,1,1,1,0]},{"tileid":29,"wangid":[1,0,1,0,1,1,1,0]},{"tileid":30,"wangid":[1,1,1,0,1,1,1,0]},{"tileid":31,"wangid":[0,0,1,1,1,1,1,0]},{"tileid":32,"wangid":[1,0,1,1,1,1,1,0]},{"tileid":33,"wangid":[1,1,1,1,1,1,1,0]},{"tileid":34,"wangid":[1,0,0,0,0,0,1,1]},{"tileid":35,"wangid":[1,0,1,0,0,0,1,1]},{"tileid":36,"wangid":[1,1,1,0,0,0,1,1]},{"tileid":37,"wangid":[1,0,0,0,1,0,1,1]},{"tileid":38,"wangid":[1,0,1,0,1,0,1,1]},{"tileid":39,"wangid":[1,1,1,0,1,0,1,1]},{"tileid":40,"wangid":[1,0,1,1,1,0,1,1]},{"tileid":41,"wangid":[1,1,1,1,1,0,1,1]},{"tileid":42,"wangid":[1,0,0,0,1,1,1,1]},{"tileid":43,"wangid":[1,0,1,0,1,1,1,1]},{"tileid":44,"wangid":[1,1,1,0,1,1,1,1]},{"tileid":45,"wangid":[1,0,1,1,1,1,1,1]},{"tileid":46,"wangid":[1,1,1,1,1,1,1,1]}]}]},{"firstgid":2881,"name":"terrain.shu","type":"tileset","version":"1.10","tiledversion":"1.11.0","image":"period32/terrain.shu.png","imagewidth":256,"imageheight":768,"tilewidth":32,"tileheight":32,"tilecount":192,"columns":8,"margin":0,"spacing":0,"wangsets":[{"name":"terrain.shu","type":"mixed","tile":-1,"colors":[{"name":"terrain.shu","color":"#ff0000","tile":-1,"probability":1}],"wangtiles":[{"tileid":0,"wangid":[0,0,0,0,0,0,0,0]},{"tileid":1,"wangid":[1,0,0,0,0,0,0,0]},{"tileid":2,"wangid":[0,0,1,0,0,0,0,0]},{"tileid":3,"wangid":[1,0,1,0,0,0,0,0]},{"tileid":4,"wangid":[1,1,1,0,0,0,0,0]},{"tileid":5,"wangid":[0,0,0,0,1,0,0,0]},{"tileid":6,"wangid":[1,0,0,0,1,0,0,0]},{"tileid":7,"wangid":[0,0,1,0,1,0,0,0]},{"tileid":8,"wangid":[1,0,1,0,1,0,0,0]},{"tileid":9,"wangid":[1,1,1,0,1,0,0,0]},{"tileid":10,"wangid":[0,0,1,1,1,0,0,0]},{"tileid":11,"wangid":[1,0,1,1,1,0,0,0]},{"tileid":12,"wangid":[1,1,1,1,1,0,0,0]},{"tileid":13,"wangid":[0,0,0,0,0,0,1,0]},{"tileid":14,"wangid":[1,0,0,0,0,0,1,0]},{"tileid":15,"wangid":[0,0,1,0,0,0,1,0]},{"tileid":16,"wangid":[1,0,1,0,0,0,1,0]},{"tileid":17,"wangid":[1,1,1,0,0,0,1,0]},{"tileid":18,"wangid":[0,0,0,0,1,0,1,0]},{"tileid":19,"wangid":[1,0,0,0,1,0,1,0]},{"tileid":20,"wangid":[0,0,1,0,1,0,1,0]},{"tileid":21,"wangid":[1,0,1,0,1,0,1,0]},{"tileid":22,"wangid":[1,1,1,0,1,0,1,0]},{"tileid":23,"wangid":[0,0,1,1,1,0,1,0]},{"tileid":24,"wangid":[1,0,1,1,1,0,1,0]},{"tileid":25,"wangid":[1,1,1,1,1,0,1,0]},{"tileid":26,"wangid":[0,0,0,0,1,1,1,0]},{"tileid":27,"wangid":[1,0,0,0,1,1,1,0]},{"tileid":28,"wangid":[0,0,1,0,1,1,1,0]},{"tileid":29,"wangid":[1,0,1,0,1,1,1,0]},{"tileid":30,"wangid":[1,1,1,0,1,1,1,0]},{"tileid":31,"wangid":[0,0,1,1,1,1,1,0]},{"tileid":32,"wangid":[1,0,1,1,1,1,1,0]},{"tileid":33,"wangid":[1,1,1,1,1,1,1,0]},{"tileid":34,"wangid":[1,0,0,0,0,0,1,1]},{"tileid":35,"wangid":[1,0,1,0,0,0,1,1]},{"tileid":36,"wangid":[1,1,1,0,0,0,1,1]},{"tileid":37,"wangid":[1,0,0,0,1,0,1,1]},{"tileid":38,"wangid":[1,0,1,0,1,0,1,1]},{"tileid":39,"wangid":[1,1,1,0,1,0,1,1]},{"tileid":40,"wangid":[1,0,1,1,1,0,1,1]},{"tileid":41,"wangid":[1,1,1,1,1,0,1,1]},{"tileid":42,"wangid":[1,0,0,0,1,1,1,1]},{"tileid":43,"wangid":[1,0,1,0,1,1,1,1]},{"tileid":44,"wangid":[1,1,1,0,1,1,1,1]},{"tileid":45,"wangid":[1,0,1,1,1,1,1,1]},{"tileid":46,"wangid":[1,1,1,1,1,1,1,1]}]}]},{"firstgid":3073,"name":"terrain.marsh","type":"tileset","version":"1.10","tiledversion":"1.11.0","image":"period32/terrain.marsh.png","imagewidth":256,"imageheight":768,"tilewidth":32,"tileheight":32,"tilecount":192,"columns":8,"margin":0,"spacing":0,"wangsets":[{"name":"terrain.marsh","type":"mixed","tile":-1,"colors":[{"name":"terrain.marsh","color":"#ff0000","tile":-1,"probability":1}],"wangtiles":[{"tileid":0,"wangid":[0,0,0,0,0,0,0,0]},{"tileid":1,"wangid":[1,0,0,0,0,0,0,0]},{"tileid":2,"wangid":[0,0,1,0,0,0,0,0]},{"tileid":3,"wangid":[1,0,1,0,0,0,0,0]},{"tileid":4,"wangid":[1,1,1,0,0,0,0,0]},{"tileid":5,"wangid":[0,0,0,0,1,0,0,0]},{"tileid":6,"wangid":[1,0,0,0,1,0,0,0]},{"tileid":7,"wangid":[0,0,1,0,1,0,0,0]},{"tileid":8,"wangid":[1,0,1,0,1,0,0,0]},{"tileid":9,"wangid":[1,1,1,0,1,0,0,0]},{"tileid":10,"wangid":[0,0,1,1,1,0,0,0]},{"tileid":11,"wangid":[1,0,1,1,1,0,0,0]},{"tileid":12,"wangid":[1,1,1,1,1,0,0,0]},{"tileid":13,"wangid":[0,0,0,0,0,0,1,0]},{"tileid":14,"wangid":[1,0,0,0,0,0,1,0]},{"tileid":15,"wangid":[0,0,1,0,0,0,1,0]},{"tileid":16,"wangid":[1,0,1,0,0,0,1,0]},{"tileid":17,"wangid":[1,1,1,0,0,0,1,0]},{"tileid":18,"wangid":[0,0,0,0,1,0,1,0]},{"tileid":19,"wangid":[1,0,0,0,1,0,1,0]},{"tileid":20,"wangid":[0,0,1,0,1,0,1,0]},{"tileid":21,"wangid":[1,0,1,0,1,0,1,0]},{"tileid":22,"wangid":[1,1,1,0,1,0,1,0]},{"tileid":23,"wangid":[0,0,1,1,1,0,1,0]},{"tileid":24,"wangid":[1,0,1,1,1,0,1,0]},{"tileid":25,"wangid":[1,1,1,1,1,0,1,0]},{"tileid":26,"wangid":[0,0,0,0,1,1,1,0]},{"tileid":27,"wangid":[1,0,0,0,1,1,1,0]},{"tileid":28,"wangid":[0,0,1,0,1,1,1,0]},{"tileid":29,"wangid":[1,0,1,0,1,1,1,0]},{"tileid":30,"wangid":[1,1,1,0,1,1,1,0]},{"tileid":31,"wangid":[0,0,1,1,1,1,1,0]},{"tileid":32,"wangid":[1,0,1,1,1,1,1,0]},{"tileid":33,"wangid":[1,1,1,1,1,1,1,0]},{"tileid":34,"wangid":[1,0,0,0,0,0,1,1]},{"tileid":35,"wangid":[1,0,1,0,0,0,1,1]},{"tileid":36,"wangid":[1,1,1,0,0,0,1,1]},{"tileid":37,"wangid":[1,0,0,0,1,0,1,1]},{"tileid":38,"wangid":[1,0,1,0,1,0,1,1]},{"tileid":39,"wangid":[1,1,1,0,1,0,1,1]},{"tileid":40,"wangid":[1,0,1,1,1,0,1,1]},{"tileid":41,"wangid":[1,1,1,1,1,0,1,1]},{"tileid":42,"wangid":[1,0,0,0,1,1,1,1]},{"tileid":43,"wangid":[1,0,1,0,1,1,1,1]},{"tileid":44,"wangid":[1,1,1,0,1,1,1,1]},{"tileid":45,"wangid":[1,0,1,1,1,1,1,1]},{"tileid":46,"wangid":[1,1,1,1,1,1,1,1]}]}]},{"firstgid":3265,"name":"terrain.field","type":"tileset","version":"1.10","tiledversion":"1.11.0","image":"period32/terrain.field.png","imagewidth":256,"imageheight":768,"tilewidth":32,"tileheight":32,"tilecount":192,"columns":8,"margin":0,"spacing":0,"wangsets":[{"name":"terrain.field","type":"mixed","tile":-1,"colors":[{"name":"terrain.field","color":"#ff0000","tile":-1,"probability":1}],"wangtiles":[{"tileid":0,"wangid":[0,0,0,0,0,0,0,0]},{"tileid":1,"wangid":[1,0,0,0,0,0,0,0]},{"tileid":2,"wangid":[0,0,1,0,0,0,0,0]},{"tileid":3,"wangid":[1,0,1,0,0,0,0,0]},{"tileid":4,"wangid":[1,1,1,0,0,0,0,0]},{"tileid":5,"wangid":[0,0,0,0,1,0,0,0]},{"tileid":6,"wangid":[1,0,0,0,1,0,0,0]},{"tileid":7,"wangid":[0,0,1,0,1,0,0,0]},{"tileid":8,"wangid":[1,0,1,0,1,0,0,0]},{"tileid":9,"wangid":[1,1,1,0,1,0,0,0]},{"tileid":10,"wangid":[0,0,1,1,1,0,0,0]},{"tileid":11,"wangid":[1,0,1,1,1,0,0,0]},{"tileid":12,"wangid":[1,1,1,1,1,0,0,0]},{"tileid":13,"wangid":[0,0,0,0,0,0,1,0]},{"tileid":14,"wangid":[1,0,0,0,0,0,1,0]},{"tileid":15,"wangid":[0,0,1,0,0,0,1,0]},{"tileid":16,"wangid":[1,0,1,0,0,0,1,0]},{"tileid":17,"wangid":[1,1,1,0,0,0,1,0]},{"tileid":18,"wangid":[0,0,0,0,1,0,1,0]},{"tileid":19,"wangid":[1,0,0,0,1,0,1,0]},{"tileid":20,"wangid":[0,0,1,0,1,0,1,0]},{"tileid":21,"wangid":[1,0,1,0,1,0,1,0]},{"tileid":22,"wangid":[1,1,1,0,1,0,1,0]},{"tileid":23,"wangid":[0,0,1,1,1,0,1,0]},{"tileid":24,"wangid":[1,0,1,1,1,0,1,0]},{"tileid":25,"wangid":[1,1,1,1,1,0,1,0]},{"tileid":26,"wangid":[0,0,0,0,1,1,1,0]},{"tileid":27,"wangid":[1,0,0,0,1,1,1,0]},{"tileid":28,"wangid":[0,0,1,0,1,1,1,0]},{"tileid":29,"wangid":[1,0,1,0,1,1,1,0]},{"tileid":30,"wangid":[1,1,1,0,1,1,1,0]},{"tileid":31,"wangid":[0,0,1,1,1,1,1,0]},{"tileid":32,"wangid":[1,0,1,1,1,1,1,0]},{"tileid":33,"wangid":[1,1,1,1,1,1,1,0]},{"tileid":34,"wangid":[1,0,0,0,0,0,1,1]},{"tileid":35,"wangid":[1,0,1,0,0,0,1,1]},{"tileid":36,"wangid":[1,1,1,0,0,0,1,1]},{"tileid":37,"wangid":[1,0,0,0,1,0,1,1]},{"tileid":38,"wangid":[1,0,1,0,1,0,1,1]},{"tileid":39,"wangid":[1,1,1,0,1,0,1,1]},{"tileid":40,"wangid":[1,0,1,1,1,0,1,1]},{"tileid":41,"wangid":[1,1,1,1,1,0,1,1]},{"tileid":42,"wangid":[1,0,0,0,1,1,1,1]},{"tileid":43,"wangid":[1,0,1,0,1,1,1,1]},{"tileid":44,"wangid":[1,1,1,0,1,1,1,1]},{"tileid":45,"wangid":[1,0,1,1,1,1,1,1]},{"tileid":46,"wangid":[1,1,1,1,1,1,1,1]}]}]},{"firstgid":3457,"name":"water.river","type":"tileset","version":"1.10","tiledversion":"1.11.0","image":"period32/water.river.png","imagewidth":256,"imageheight":576,"tilewidth":32,"tileheight":32,"tilecount":144,"columns":8,"margin":0,"spacing":0,"tiles":[{"id":0,"animation":[{"tileid":0,"duration":400},{"tileid":48,"duration":400},{"tileid":96,"duration":400}]},{"id":1,"animation":[{"tileid":1,"duration":400},{"tileid":49,"duration":400},{"tileid":97,"duration":400}]},{"id":2,"animation":[{"tileid":2,"duration":400},{"tileid":50,"duration":400},{"tileid":98,"duration":400}]},{"id":3,"animation":[{"tileid":3,"duration":400},{"tileid":51,"duration":400},{"tileid":99,"duration":400}]},{"id":4,"animation":[{"tileid":4,"duration":400},{"tileid":52,"duration":400},{"tileid":100,"duration":400}]},{"id":5,"animation":[{"tileid":5,"duration":400},{"tileid":53,"duration":400},{"tileid":101,"duration":400}]},{"id":6,"animation":[{"tileid":6,"duration":400},{"tileid":54,"duration":400},{"tileid":102,"duration":400}]},{"id":7,"animation":[{"tileid":7,"duration":400},{"tileid":55,"duration":400},{"tileid":103,"duration":400}]},{"id":8,"animation":[{"tileid":8,"duration":400},{"tileid":56,"duration":400},{"tileid":104,"duration":400}]},{"id":9,"animation":[{"tileid":9,"duration":400},{"tileid":57,"duration":400},{"tileid":105,"duration":400}]},{"id":10,"animation":[{"tileid":10,"duration":400},{"tileid":58,"duration":400},{"tileid":106,"duration":400}]},{"id":11,"animation":[{"tileid":11,"duration":400},{"tileid":59,"duration":400},{"tileid":107,"duration":400}]},{"id":12,"animation":[{"tileid":12,"duration":400},{"tileid":60,"duration":400},{"tileid":108,"duration":400}]},{"id":13,"animation":[{"tileid":13,"duration":400},{"tileid":61,"duration":400},{"tileid":109,"duration":400}]},{"id":14,"animation":[{"tileid":14,"duration":400},{"tileid":62,"duration":400},{"tileid":110,"duration":400}]},{"id":15,"animation":[{"tileid":15,"duration":400},{"tileid":63,"duration":400},{"tileid":111,"duration":400}]},{"id":16,"animation":[{"tileid":16,"duration":400},{"tileid":64,"duration":400},{"tileid":112,"duration":400}]},{"id":17,"animation":[{"tileid":17,"duration":400},{"tileid":65,"duration":400},{"tileid":113,"duration":400}]},{"id":18,"animation":[{"tileid":18,"duration":400},{"tileid":66,"duration":400},{"tileid":114,"duration":400}]},{"id":19,"animation":[{"tileid":19,"duration":400},{"tileid":67,"duration":400},{"tileid":115,"duration":400}]},{"id":20,"animation":[{"tileid":20,"duration":400},{"tileid":68,"duration":400},{"tileid":116,"duration":400}]},{"id":21,"animation":[{"tileid":21,"duration":400},{"tileid":69,"duration":400},{"tileid":117,"duration":400}]},{"id":22,"animation":[{"tileid":22,"duration":400},{"tileid":70,"duration":400},{"tileid":118,"duration":400}]},{"id":23,"animation":[{"tileid":23,"duration":400},{"tileid":71,"duration":400},{"tileid":119,"duration":400}]},{"id":24,"animation":[{"tileid":24,"duration":400},{"tileid":72,"duration":400},{"tileid":120,"duration":400}]},{"id":25,"animation":[{"tileid":25,"duration":400},{"tileid":73,"duration":400},{"tileid":121,"duration":400}]},{"id":26,"animation":[{"tileid":26,"duration":400},{"tileid":74,"duration":400},{"tileid":122,"duration":400}]},{"id":27,"animation":[{"tileid":27,"duration":400},{"tileid":75,"duration":400},{"tileid":123,"duration":400}]},{"id":28,"animation":[{"tileid":28,"duration":400},{"tileid":76,"duration":400},{"tileid":124,"duration":400}]},{"id":29,"animation":[{"tileid":29,"duration":400},{"tileid":77,"duration":400},{"tileid":125,"duration":400}]},{"id":30,"animation":[{"tileid":30,"duration":400},{"tileid":78,"duration":400},{"tileid":126,"duration":400}]},{"id":31,"animation":[{"tileid":31,"duration":400},{"tileid":79,"duration":400},{"tileid":127,"duration":400}]},{"id":32,"animation":[{"tileid":32,"duration":400},{"tileid":80,"duration":400},{"tileid":128,"duration":400}]},{"id":33,"animation":[{"tileid":33,"duration":400},{"tileid":81,"duration":400},{"tileid":129,"duration":400}]},{"id":34,"animation":[{"tileid":34,"duration":400},{"tileid":82,"duration":400},{"tileid":130,"duration":400}]},{"id":35,"animation":[{"tileid":35,"duration":400},{"tileid":83,"duration":400},{"tileid":131,"duration":400}]},{"id":36,"animation":[{"tileid":36,"duration":400},{"tileid":84,"duration":400},{"tileid":132,"duration":400}]},{"id":37,"animation":[{"tileid":37,"duration":400},{"tileid":85,"duration":400},{"tileid":133,"duration":400}]},{"id":38,"animation":[{"tileid":38,"duration":400},{"tileid":86,"duration":400},{"tileid":134,"duration":400}]},{"id":39,"animation":[{"tileid":39,"duration":400},{"tileid":87,"duration":400},{"tileid":135,"duration":400}]},{"id":40,"animation":[{"tileid":40,"duration":400},{"tileid":88,"duration":400},{"tileid":136,"duration":400}]},{"id":41,"animation":[{"tileid":41,"duration":400},{"tileid":89,"duration":400},{"tileid":137,"duration":400}]},{"id":42,"animation":[{"tileid":42,"duration":400},{"tileid":90,"duration":400},{"tileid":138,"duration":400}]},{"id":43,"animation":[{"tileid":43,"duration":400},{"tileid":91,"duration":400},{"tileid":139,"duration":400}]},{"id":44,"animation":[{"tileid":44,"duration":400},{"tileid":92,"duration":400},{"tileid":140,"duration":400}]},{"id":45,"animation":[{"tileid":45,"duration":400},{"tileid":93,"duration":400},{"tileid":141,"duration":400}]},{"id":46,"animation":[{"tileid":46,"duration":400},{"tileid":94,"duration":400},{"tileid":142,"duration":400}]}],"wangsets":[{"name":"water.river","type":"mixed","tile":-1,"colors":[{"name":"water.river","color":"#ff0000","tile":-1,"probability":1}],"wangtiles":[{"tileid":0,"wangid":[0,0,0,0,0,0,0,0]},{"tileid":1,"wangid":[1,0,0,0,0,0,0,0]},{"tileid":2,"wangid":[0,0,1,0,0,0,0,0]},{"tileid":3,"wangid":[1,0,1,0,0,0,0,0]},{"tileid":4,"wangid":[1,1,1,0,0,0,0,0]},{"tileid":5,"wangid":[0,0,0,0,1,0,0,0]},{"tileid":6,"wangid":[1,0,0,0,1,0,0,0]},{"tileid":7,"wangid":[0,0,1,0,1,0,0,0]},{"tileid":8,"wangid":[1,0,1,0,1,0,0,0]},{"tileid":9,"wangid":[1,1,1,0,1,0,0,0]},{"tileid":10,"wangid":[0,0,1,1,1,0,0,0]},{"tileid":11,"wangid":[1,0,1,1,1,0,0,0]},{"tileid":12,"wangid":[1,1,1,1,1,0,0,0]},{"tileid":13,"wangid":[0,0,0,0,0,0,1,0]},{"tileid":14,"wangid":[1,0,0,0,0,0,1,0]},{"tileid":15,"wangid":[0,0,1,0,0,0,1,0]},{"tileid":16,"wangid":[1,0,1,0,0,0,1,0]},{"tileid":17,"wangid":[1,1,1,0,0,0,1,0]},{"tileid":18,"wangid":[0,0,0,0,1,0,1,0]},{"tileid":19,"wangid":[1,0,0,0,1,0,1,0]},{"tileid":20,"wangid":[0,0,1,0,1,0,1,0]},{"tileid":21,"wangid":[1,0,1,0,1,0,1,0]},{"tileid":22,"wangid":[1,1,1,0,1,0,1,0]},{"tileid":23,"wangid":[0,0,1,1,1,0,1,0]},{"tileid":24,"wangid":[1,0,1,1,1,0,1,0]},{"tileid":25,"wangid":[1,1,1,1,1,0,1,0]},{"tileid":26,"wangid":[0,0,0,0,1,1,1,0]},{"tileid":27,"wangid":[1,0,0,0,1,1,1,0]},{"tileid":28,"wangid":[0,0,1,0,1,1,1,0]},{"tileid":29,"wangid":[1,0,1,0,1,1,1,0]},{"tileid":30,"wangid":[1,1,1,0,1,1,1,0]},{"tileid":31,"wangid":[0,0,1,1,1,1,1,0]},{"tileid":32,"wangid":[1,0,1,1,1,1,1,0]},{"tileid":33,"wangid":[1,1,1,1,1,1,1,0]},{"tileid":34,"wangid":[1,0,0,0,0,0,1,1]},{"tileid":35,"wangid":[1,0,1,0,0,0,1,1]},{"tileid":36,"wangid":[1,1,1,0,0,0,1,1]},{"tileid":37,"wangid":[1,0,0,0,1,0,1,1]},{"tileid":38,"wangid":[1,0,1,0,1,0,1,1]},{"tileid":39,"wangid":[1,1,1,0,1,0,1,1]},{"tileid":40,"wangid":[1,0,1,1,1,0,1,1]},{"tileid":41,"wangid":[1,1,1,1,1,0,1,1]},{"tileid":42,"wangid":[1,0,0,0,1,1,1,1]},{"tileid":43,"wangid":[1,0,1,0,1,1,1,1]},{"tileid":44,"wangid":[1,1,1,0,1,1,1,1]},{"tileid":45,"wangid":[1,0,1,1,1,1,1,1]},{"tileid":46,"wangid":[1,1,1,1,1,1,1,1]}]}]},{"firstgid":3601,"name":"water.sea","type":"tileset","version":"1.10","tiledversion":"1.11.0","image":"period32/water.sea.png","imagewidth":256,"imageheight":576,"tilewidth":32,"tileheight":32,"tilecount":144,"columns":8,"margin":0,"spacing":0,"tiles":[{"id":0,"animation":[{"tileid":0,"duration":400},{"tileid":48,"duration":400},{"tileid":96,"duration":400}]},{"id":1,"animation":[{"tileid":1,"duration":400},{"tileid":49,"duration":400},{"tileid":97,"duration":400}]},{"id":2,"animation":[{"tileid":2,"duration":400},{"tileid":50,"duration":400},{"tileid":98,"duration":400}]},{"id":3,"animation":[{"tileid":3,"duration":400},{"tileid":51,"duration":400},{"tileid":99,"duration":400}]},{"id":4,"animation":[{"tileid":4,"duration":400},{"tileid":52,"duration":400},{"tileid":100,"duration":400}]},{"id":5,"animation":[{"tileid":5,"duration":400},{"tileid":53,"duration":400},{"tileid":101,"duration":400}]},{"id":6,"animation":[{"tileid":6,"duration":400},{"tileid":54,"duration":400},{"tileid":102,"duration":400}]},{"id":7,"animation":[{"tileid":7,"duration":400},{"tileid":55,"duration":400},{"tileid":103,"duration":400}]},{"id":8,"animation":[{"tileid":8,"duration":400},{"tileid":56,"duration":400},{"tileid":104,"duration":400}]},{"id":9,"animation":[{"tileid":9,"duration":400},{"tileid":57,"duration":400},{"tileid":105,"duration":400}]},{"id":10,"animation":[{"tileid":10,"duration":400},{"tileid":58,"duration":400},{"tileid":106,"duration":400}]},{"id":11,"animation":[{"tileid":11,"duration":400},{"tileid":59,"duration":400},{"tileid":107,"duration":400}]},{"id":12,"animation":[{"tileid":12,"duration":400},{"tileid":60,"duration":400},{"tileid":108,"duration":400}]},{"id":13,"animation":[{"tileid":13,"duration":400},{"tileid":61,"duration":400},{"tileid":109,"duration":400}]},{"id":14,"animation":[{"tileid":14,"duration":400},{"tileid":62,"duration":400},{"tileid":110,"duration":400}]},{"id":15,"animation":[{"tileid":15,"duration":400},{"tileid":63,"duration":400},{"tileid":111,"duration":400}]},{"id":16,"animation":[{"tileid":16,"duration":400},{"tileid":64,"duration":400},{"tileid":112,"duration":400}]},{"id":17,"animation":[{"tileid":17,"duration":400},{"tileid":65,"duration":400},{"tileid":113,"duration":400}]},{"id":18,"animation":[{"tileid":18,"duration":400},{"tileid":66,"duration":400},{"tileid":114,"duration":400}]},{"id":19,"animation":[{"tileid":19,"duration":400},{"tileid":67,"duration":400},{"tileid":115,"duration":400}]},{"id":20,"animation":[{"tileid":20,"duration":400},{"tileid":68,"duration":400},{"tileid":116,"duration":400}]},{"id":21,"animation":[{"tileid":21,"duration":400},{"tileid":69,"duration":400},{"tileid":117,"duration":400}]},{"id":22,"animation":[{"tileid":22,"duration":400},{"tileid":70,"duration":400},{"tileid":118,"duration":400}]},{"id":23,"animation":[{"tileid":23,"duration":400},{"tileid":71,"duration":400},{"tileid":119,"duration":400}]},{"id":24,"animation":[{"tileid":24,"duration":400},{"tileid":72,"duration":400},{"tileid":120,"duration":400}]},{"id":25,"animation":[{"tileid":25,"duration":400},{"tileid":73,"duration":400},{"tileid":121,"duration":400}]},{"id":26,"animation":[{"tileid":26,"duration":400},{"tileid":74,"duration":400},{"tileid":122,"duration":400}]},{"id":27,"animation":[{"tileid":27,"duration":400},{"tileid":75,"duration":400},{"tileid":123,"duration":400}]},{"id":28,"animation":[{"tileid":28,"duration":400},{"tileid":76,"duration":400},{"tileid":124,"duration":400}]},{"id":29,"animation":[{"tileid":29,"duration":400},{"tileid":77,"duration":400},{"tileid":125,"duration":400}]},{"id":30,"animation":[{"tileid":30,"duration":400},{"tileid":78,"duration":400},{"tileid":126,"duration":400}]},{"id":31,"animation":[{"tileid":31,"duration":400},{"tileid":79,"duration":400},{"tileid":127,"duration":400}]},{"id":32,"animation":[{"tileid":32,"duration":400},{"tileid":80,"duration":400},{"tileid":128,"duration":400}]},{"id":33,"animation":[{"tileid":33,"duration":400},{"tileid":81,"duration":400},{"tileid":129,"duration":400}]},{"id":34,"animation":[{"tileid":34,"duration":400},{"tileid":82,"duration":400},{"tileid":130,"duration":400}]},{"id":35,"animation":[{"tileid":35,"duration":400},{"tileid":83,"duration":400},{"tileid":131,"duration":400}]},{"id":36,"animation":[{"tileid":36,"duration":400},{"tileid":84,"duration":400},{"tileid":132,"duration":400}]},{"id":37,"animation":[{"tileid":37,"duration":400},{"tileid":85,"duration":400},{"tileid":133,"duration":400}]},{"id":38,"animation":[{"tileid":38,"duration":400},{"tileid":86,"duration":400},{"tileid":134,"duration":400}]},{"id":39,"animation":[{"tileid":39,"duration":400},{"tileid":87,"duration":400},{"tileid":135,"duration":400}]},{"id":40,"animation":[{"tileid":40,"duration":400},{"tileid":88,"duration":400},{"tileid":136,"duration":400}]},{"id":41,"animation":[{"tileid":41,"duration":400},{"tileid":89,"duration":400},{"tileid":137,"duration":400}]},{"id":42,"animation":[{"tileid":42,"duration":400},{"tileid":90,"duration":400},{"tileid":138,"duration":400}]},{"id":43,"animation":[{"tileid":43,"duration":400},{"tileid":91,"duration":400},{"tileid":139,"duration":400}]},{"id":44,"animation":[{"tileid":44,"duration":400},{"tileid":92,"duration":400},{"tileid":140,"duration":400}]},{"id":45,"animation":[{"tileid":45,"duration":400},{"tileid":93,"duration":400},{"tileid":141,"duration":400}]},{"id":46,"animation":[{"tileid":46,"duration":400},{"tileid":94,"duration":400},{"tileid":142,"duration":400}]}],"wangsets":[{"name":"water.sea","type":"mixed","tile":-1,"colors":[{"name":"water.sea","color":"#ff0000","tile":-1,"probability":1}],"wangtiles":[{"tileid":0,"wangid":[0,0,0,0,0,0,0,0]},{"tileid":1,"wangid":[1,0,0,0,0,0,0,0]},{"tileid":2,"wangid":[0,0,1,0,0,0,0,0]},{"tileid":3,"wangid":[1,0,1,0,0,0,0,0]},{"tileid":4,"wangid":[1,1,1,0,0,0,0,0]},{"tileid":5,"wangid":[0,0,0,0,1,0,0,0]},{"tileid":6,"wangid":[1,0,0,0,1,0,0,0]},{"tileid":7,"wangid":[0,0,1,0,1,0,0,0]},{"tileid":8,"wangid":[1,0,1,0,1,0,0,0]},{"tileid":9,"wangid":[1,1,1,0,1,0,0,0]},{"tileid":10,"wangid":[0,0,1,1,1,0,0,0]},{"tileid":11,"wangid":[1,0,1,1,1,0,0,0]},{"tileid":12,"wangid":[1,1,1,1,1,0,0,0]},{"tileid":13,"wangid":[0,0,0,0,0,0,1,0]},{"tileid":14,"wangid":[1,0,0,0,0,0,1,0]},{"tileid":15,"wangid":[0,0,1,0,0,0,1,0]},{"tileid":16,"wangid":[1,0,1,0,0,0,1,0]},{"tileid":17,"wangid":[1,1,1,0,0,0,1,0]},{"tileid":18,"wangid":[0,0,0,0,1,0,1,0]},{"tileid":19,"wangid":[1,0,0,0,1,0,1,0]},{"tileid":20,"wangid":[0,0,1,0,1,0,1,0]},{"tileid":21,"wangid":[1,0,1,0,1,0,1,0]},{"tileid":22,"wangid":[1,1,1,0,1,0,1,0]},{"tileid":23,"wangid":[0,0,1,1,1,0,1,0]},{"tileid":24,"wangid":[1,0,1,1,1,0,1,0]},{"tileid":25,"wangid":[1,1,1,1,1,0,1,0]},{"tileid":26,"wangid":[0,0,0,0,1,1,1,0]},{"tileid":27,"wangid":[1,0,0,0,1,1,1,0]},{"tileid":28,"wangid":[0,0,1,0,1,1,1,0]},{"tileid":29,"wangid":[1,0,1,0,1,1,1,0]},{"tileid":30,"wangid":[1,1,1,0,1,1,1,0]},{"tileid":31,"wangid":[0,0,1,1,1,1,1,0]},{"tileid":32,"wangid":[1,0,1,1,1,1,1,0]},{"tileid":33,"wangid":[1,1,1,1,1,1,1,0]},{"tileid":34,"wangid":[1,0,0,0,0,0,1,1]},{"tileid":35,"wangid":[1,0,1,0,0,0,1,1]},{"tileid":36,"wangid":[1,1,1,0,0,0,1,1]},{"tileid":37,"wangid":[1,0,0,0,1,0,1,1]},{"tileid":38,"wangid":[1,0,1,0,1,0,1,1]},{"tileid":39,"wangid":[1,1,1,0,1,0,1,1]},{"tileid":40,"wangid":[1,0,1,1,1,0,1,1]},{"tileid":41,"wangid":[1,1,1,1,1,0,1,1]},{"tileid":42,"wangid":[1,0,0,0,1,1,1,1]},{"tileid":43,"wangid":[1,0,1,0,1,1,1,1]},{"tileid":44,"wangid":[1,1,1,0,1,1,1,1]},{"tileid":45,"wangid":[1,0,1,1,1,1,1,1]},{"tileid":46,"wangid":[1,1,1,1,1,1,1,1]}]}]},{"firstgid":3745,"name":"terrain.tallgrass@marsh","type":"tileset","version":"1.10","tiledversion":"1.11.0","image":"period32/terrain.tallgrass@marsh.png","imagewidth":256,"imageheight":192,"tilewidth":32,"tileheight":32,"tilecount":48,"columns":8,"margin":0,"spacing":0,"wangsets":[{"name":"terrain.tallgrass@marsh","type":"mixed","tile":-1,"colors":[{"name":"terrain.tallgrass@marsh","color":"#ff0000","tile":-1,"probability":1}],"wangtiles":[{"tileid":0,"wangid":[0,0,0,0,0,0,0,0]},{"tileid":1,"wangid":[1,0,0,0,0,0,0,0]},{"tileid":2,"wangid":[0,0,1,0,0,0,0,0]},{"tileid":3,"wangid":[1,0,1,0,0,0,0,0]},{"tileid":4,"wangid":[1,1,1,0,0,0,0,0]},{"tileid":5,"wangid":[0,0,0,0,1,0,0,0]},{"tileid":6,"wangid":[1,0,0,0,1,0,0,0]},{"tileid":7,"wangid":[0,0,1,0,1,0,0,0]},{"tileid":8,"wangid":[1,0,1,0,1,0,0,0]},{"tileid":9,"wangid":[1,1,1,0,1,0,0,0]},{"tileid":10,"wangid":[0,0,1,1,1,0,0,0]},{"tileid":11,"wangid":[1,0,1,1,1,0,0,0]},{"tileid":12,"wangid":[1,1,1,1,1,0,0,0]},{"tileid":13,"wangid":[0,0,0,0,0,0,1,0]},{"tileid":14,"wangid":[1,0,0,0,0,0,1,0]},{"tileid":15,"wangid":[0,0,1,0,0,0,1,0]},{"tileid":16,"wangid":[1,0,1,0,0,0,1,0]},{"tileid":17,"wangid":[1,1,1,0,0,0,1,0]},{"tileid":18,"wangid":[0,0,0,0,1,0,1,0]},{"tileid":19,"wangid":[1,0,0,0,1,0,1,0]},{"tileid":20,"wangid":[0,0,1,0,1,0,1,0]},{"tileid":21,"wangid":[1,0,1,0,1,0,1,0]},{"tileid":22,"wangid":[1,1,1,0,1,0,1,0]},{"tileid":23,"wangid":[0,0,1,1,1,0,1,0]},{"tileid":24,"wangid":[1,0,1,1,1,0,1,0]},{"tileid":25,"wangid":[1,1,1,1,1,0,1,0]},{"tileid":26,"wangid":[0,0,0,0,1,1,1,0]},{"tileid":27,"wangid":[1,0,0,0,1,1,1,0]},{"tileid":28,"wangid":[0,0,1,0,1,1,1,0]},{"tileid":29,"wangid":[1,0,1,0,1,1,1,0]},{"tileid":30,"wangid":[1,1,1,0,1,1,1,0]},{"tileid":31,"wangid":[0,0,1,1,1,1,1,0]},{"tileid":32,"wangid":[1,0,1,1,1,1,1,0]},{"tileid":33,"wangid":[1,1,1,1,1,1,1,0]},{"tileid":34,"wangid":[1,0,0,0,0,0,1,1]},{"tileid":35,"wangid":[1,0,1,0,0,0,1,1]},{"tileid":36,"wangid":[1,1,1,0,0,0,1,1]},{"tileid":37,"wangid":[1,0,0,0,1,0,1,1]},{"tileid":38,"wangid":[1,0,1,0,1,0,1,1]},{"tileid":39,"wangid":[1,1,1,0,1,0,1,1]},{"tileid":40,"wangid":[1,0,1,1,1,0,1,1]},{"tileid":41,"wangid":[1,1,1,1,1,0,1,1]},{"tileid":42,"wangid":[1,0,0,0,1,1,1,1]},{"tileid":43,"wangid":[1,0,1,0,1,1,1,1]},{"tileid":44,"wangid":[1,1,1,0,1,1,1,1]},{"tileid":45,"wangid":[1,0,1,1,1,1,1,1]},{"tileid":46,"wangid":[1,1,1,1,1,1,1,1]}]}]},{"firstgid":3793,"name":"terrain.scrub@tallgrass","type":"tileset","version":"1.10","tiledversion":"1.11.0","image":"period32/terrain.scrub@tallgrass.png","imagewidth":256,"imageheight":192,"tilewidth":32,"tileheight":32,"tilecount":48,"columns":8,"margin":0,"spacing":0,"wangsets":[{"name":"terrain.scrub@tallgrass","type":"mixed","tile":-1,"colors":[{"name":"terrain.scrub@tallgrass","color":"#ff0000","tile":-1,"probability":1}],"wangtiles":[{"tileid":0,"wangid":[0,0,0,0,0,0,0,0]},{"tileid":1,"wangid":[1,0,0,0,0,0,0,0]},{"tileid":2,"wangid":[0,0,1,0,0,0,0,0]},{"tileid":3,"wangid":[1,0,1,0,0,0,0,0]},{"tileid":4,"wangid":[1,1,1,0,0,0,0,0]},{"tileid":5,"wangid":[0,0,0,0,1,0,0,0]},{"tileid":6,"wangid":[1,0,0,0,1,0,0,0]},{"tileid":7,"wangid":[0,0,1,0,1,0,0,0]},{"tileid":8,"wangid":[1,0,1,0,1,0,0,0]},{"tileid":9,"wangid":[1,1,1,0,1,0,0,0]},{"tileid":10,"wangid":[0,0,1,1,1,0,0,0]},{"tileid":11,"wangid":[1,0,1,1,1,0,0,0]},{"tileid":12,"wangid":[1,1,1,1,1,0,0,0]},{"tileid":13,"wangid":[0,0,0,0,0,0,1,0]},{"tileid":14,"wangid":[1,0,0,0,0,0,1,0]},{"tileid":15,"wangid":[0,0,1,0,0,0,1,0]},{"tileid":16,"wangid":[1,0,1,0,0,0,1,0]},{"tileid":17,"wangid":[1,1,1,0,0,0,1,0]},{"tileid":18,"wangid":[0,0,0,0,1,0,1,0]},{"tileid":19,"wangid":[1,0,0,0,1,0,1,0]},{"tileid":20,"wangid":[0,0,1,0,1,0,1,0]},{"tileid":21,"wangid":[1,0,1,0,1,0,1,0]},{"tileid":22,"wangid":[1,1,1,0,1,0,1,0]},{"tileid":23,"wangid":[0,0,1,1,1,0,1,0]},{"tileid":24,"wangid":[1,0,1,1,1,0,1,0]},{"tileid":25,"wangid":[1,1,1,1,1,0,1,0]},{"tileid":26,"wangid":[0,0,0,0,1,1,1,0]},{"tileid":27,"wangid":[1,0,0,0,1,1,1,0]},{"tileid":28,"wangid":[0,0,1,0,1,1,1,0]},{"tileid":29,"wangid":[1,0,1,0,1,1,1,0]},{"tileid":30,"wangid":[1,1,1,0,1,1,1,0]},{"tileid":31,"wangid":[0,0,1,1,1,1,1,0]},{"tileid":32,"wangid":[1,0,1,1,1,1,1,0]},{"tileid":33,"wangid":[1,1,1,1,1,1,1,0]},{"tileid":34,"wangid":[1,0,0,0,0,0,1,1]},{"tileid":35,"wangid":[1,0,1,0,0,0,1,1]},{"tileid":36,"wangid":[1,1,1,0,0,0,1,1]},{"tileid":37,"wangid":[1,0,0,0,1,0,1,1]},{"tileid":38,"wangid":[1,0,1,0,1,0,1,1]},{"tileid":39,"wangid":[1,1,1,0,1,0,1,1]},{"tileid":40,"wangid":[1,0,1,1,1,0,1,1]},{"tileid":41,"wangid":[1,1,1,1,1,0,1,1]},{"tileid":42,"wangid":[1,0,0,0,1,1,1,1]},{"tileid":43,"wangid":[1,0,1,0,1,1,1,1]},{"tileid":44,"wangid":[1,1,1,0,1,1,1,1]},{"tileid":45,"wangid":[1,0,1,1,1,1,1,1]},{"tileid":46,"wangid":[1,1,1,1,1,1,1,1]}]}]},{"firstgid":3841,"name":"terrain.loess@scrub","type":"tileset","version":"1.10","tiledversion":"1.11.0","image":"period32/terrain.loess@scrub.png","imagewidth":256,"imageheight":192,"tilewidth":32,"tileheight":32,"tilecount":48,"columns":8,"margin":0,"spacing":0,"wangsets":[{"name":"terrain.loess@scrub","type":"mixed","tile":-1,"colors":[{"name":"terrain.loess@scrub","color":"#ff0000","tile":-1,"probability":1}],"wangtiles":[{"tileid":0,"wangid":[0,0,0,0,0,0,0,0]},{"tileid":1,"wangid":[1,0,0,0,0,0,0,0]},{"tileid":2,"wangid":[0,0,1,0,0,0,0,0]},{"tileid":3,"wangid":[1,0,1,0,0,0,0,0]},{"tileid":4,"wangid":[1,1,1,0,0,0,0,0]},{"tileid":5,"wangid":[0,0,0,0,1,0,0,0]},{"tileid":6,"wangid":[1,0,0,0,1,0,0,0]},{"tileid":7,"wangid":[0,0,1,0,1,0,0,0]},{"tileid":8,"wangid":[1,0,1,0,1,0,0,0]},{"tileid":9,"wangid":[1,1,1,0,1,0,0,0]},{"tileid":10,"wangid":[0,0,1,1,1,0,0,0]},{"tileid":11,"wangid":[1,0,1,1,1,0,0,0]},{"tileid":12,"wangid":[1,1,1,1,1,0,0,0]},{"tileid":13,"wangid":[0,0,0,0,0,0,1,0]},{"tileid":14,"wangid":[1,0,0,0,0,0,1,0]},{"tileid":15,"wangid":[0,0,1,0,0,0,1,0]},{"tileid":16,"wangid":[1,0,1,0,0,0,1,0]},{"tileid":17,"wangid":[1,1,1,0,0,0,1,0]},{"tileid":18,"wangid":[0,0,0,0,1,0,1,0]},{"tileid":19,"wangid":[1,0,0,0,1,0,1,0]},{"tileid":20,"wangid":[0,0,1,0,1,0,1,0]},{"tileid":21,"wangid":[1,0,1,0,1,0,1,0]},{"tileid":22,"wangid":[1,1,1,0,1,0,1,0]},{"tileid":23,"wangid":[0,0,1,1,1,0,1,0]},{"tileid":24,"wangid":[1,0,1,1,1,0,1,0]},{"tileid":25,"wangid":[1,1,1,1,1,0,1,0]},{"tileid":26,"wangid":[0,0,0,0,1,1,1,0]},{"tileid":27,"wangid":[1,0,0,0,1,1,1,0]},{"tileid":28,"wangid":[0,0,1,0,1,1,1,0]},{"tileid":29,"wangid":[1,0,1,0,1,1,1,0]},{"tileid":30,"wangid":[1,1,1,0,1,1,1,0]},{"tileid":31,"wangid":[0,0,1,1,1,1,1,0]},{"tileid":32,"wangid":[1,0,1,1,1,1,1,0]},{"tileid":33,"wangid":[1,1,1,1,1,1,1,0]},{"tileid":34,"wangid":[1,0,0,0,0,0,1,1]},{"tileid":35,"wangid":[1,0,1,0,0,0,1,1]},{"tileid":36,"wangid":[1,1,1,0,0,0,1,1]},{"tileid":37,"wangid":[1,0,0,0,1,0,1,1]},{"tileid":38,"wangid":[1,0,1,0,1,0,1,1]},{"tileid":39,"wangid":[1,1,1,0,1,0,1,1]},{"tileid":40,"wangid":[1,0,1,1,1,0,1,1]},{"tileid":41,"wangid":[1,1,1,1,1,0,1,1]},{"tileid":42,"wangid":[1,0,0,0,1,1,1,1]},{"tileid":43,"wangid":[1,0,1,0,1,1,1,1]},{"tileid":44,"wangid":[1,1,1,0,1,1,1,1]},{"tileid":45,"wangid":[1,0,1,1,1,1,1,1]},{"tileid":46,"wangid":[1,1,1,1,1,1,1,1]}]}]},{"firstgid":3889,"name":"terrain.steppe@loess","type":"tileset","version":"1.10","tiledversion":"1.11.0","image":"period32/terrain.steppe@loess.png","imagewidth":256,"imageheight":192,"tilewidth":32,"tileheight":32,"tilecount":48,"columns":8,"margin":0,"spacing":0,"wangsets":[{"name":"terrain.steppe@loess","type":"mixed","tile":-1,"colors":[{"name":"terrain.steppe@loess","color":"#ff0000","tile":-1,"probability":1}],"wangtiles":[{"tileid":0,"wangid":[0,0,0,0,0,0,0,0]},{"tileid":1,"wangid":[1,0,0,0,0,0,0,0]},{"tileid":2,"wangid":[0,0,1,0,0,0,0,0]},{"tileid":3,"wangid":[1,0,1,0,0,0,0,0]},{"tileid":4,"wangid":[1,1,1,0,0,0,0,0]},{"tileid":5,"wangid":[0,0,0,0,1,0,0,0]},{"tileid":6,"wangid":[1,0,0,0,1,0,0,0]},{"tileid":7,"wangid":[0,0,1,0,1,0,0,0]},{"tileid":8,"wangid":[1,0,1,0,1,0,0,0]},{"tileid":9,"wangid":[1,1,1,0,1,0,0,0]},{"tileid":10,"wangid":[0,0,1,1,1,0,0,0]},{"tileid":11,"wangid":[1,0,1,1,1,0,0,0]},{"tileid":12,"wangid":[1,1,1,1,1,0,0,0]},{"tileid":13,"wangid":[0,0,0,0,0,0,1,0]},{"tileid":14,"wangid":[1,0,0,0,0,0,1,0]},{"tileid":15,"wangid":[0,0,1,0,0,0,1,0]},{"tileid":16,"wangid":[1,0,1,0,0,0,1,0]},{"tileid":17,"wangid":[1,1,1,0,0,0,1,0]},{"tileid":18,"wangid":[0,0,0,0,1,0,1,0]},{"tileid":19,"wangid":[1,0,0,0,1,0,1,0]},{"tileid":20,"wangid":[0,0,1,0,1,0,1,0]},{"tileid":21,"wangid":[1,0,1,0,1,0,1,0]},{"tileid":22,"wangid":[1,1,1,0,1,0,1,0]},{"tileid":23,"wangid":[0,0,1,1,1,0,1,0]},{"tileid":24,"wangid":[1,0,1,1,1,0,1,0]},{"tileid":25,"wangid":[1,1,1,1,1,0,1,0]},{"tileid":26,"wangid":[0,0,0,0,1,1,1,0]},{"tileid":27,"wangid":[1,0,0,0,1,1,1,0]},{"tileid":28,"wangid":[0,0,1,0,1,1,1,0]},{"tileid":29,"wangid":[1,0,1,0,1,1,1,0]},{"tileid":30,"wangid":[1,1,1,0,1,1,1,0]},{"tileid":31,"wangid":[0,0,1,1,1,1,1,0]},{"tileid":32,"wangid":[1,0,1,1,1,1,1,0]},{"tileid":33,"wangid":[1,1,1,1,1,1,1,0]},{"tileid":34,"wangid":[1,0,0,0,0,0,1,1]},{"tileid":35,"wangid":[1,0,1,0,0,0,1,1]},{"tileid":36,"wangid":[1,1,1,0,0,0,1,1]},{"tileid":37,"wangid":[1,0,0,0,1,0,1,1]},{"tileid":38,"wangid":[1,0,1,0,1,0,1,1]},{"tileid":39,"wangid":[1,1,1,0,1,0,1,1]},{"tileid":40,"wangid":[1,0,1,1,1,0,1,1]},{"tileid":41,"wangid":[1,1,1,1,1,0,1,1]},{"tileid":42,"wangid":[1,0,0,0,1,1,1,1]},{"tileid":43,"wangid":[1,0,1,0,1,1,1,1]},{"tileid":44,"wangid":[1,1,1,0,1,1,1,1]},{"tileid":45,"wangid":[1,0,1,1,1,1,1,1]},{"tileid":46,"wangid":[1,1,1,1,1,1,1,1]}]}]},{"firstgid":3937,"name":"terrain.field@tallgrass","type":"tileset","version":"1.10","tiledversion":"1.11.0","image":"period32/terrain.field@tallgrass.png","imagewidth":256,"imageheight":192,"tilewidth":32,"tileheight":32,"tilecount":48,"columns":8,"margin":0,"spacing":0,"wangsets":[{"name":"terrain.field@tallgrass","type":"mixed","tile":-1,"colors":[{"name":"terrain.field@tallgrass","color":"#ff0000","tile":-1,"probability":1}],"wangtiles":[{"tileid":0,"wangid":[0,0,0,0,0,0,0,0]},{"tileid":1,"wangid":[1,0,0,0,0,0,0,0]},{"tileid":2,"wangid":[0,0,1,0,0,0,0,0]},{"tileid":3,"wangid":[1,0,1,0,0,0,0,0]},{"tileid":4,"wangid":[1,1,1,0,0,0,0,0]},{"tileid":5,"wangid":[0,0,0,0,1,0,0,0]},{"tileid":6,"wangid":[1,0,0,0,1,0,0,0]},{"tileid":7,"wangid":[0,0,1,0,1,0,0,0]},{"tileid":8,"wangid":[1,0,1,0,1,0,0,0]},{"tileid":9,"wangid":[1,1,1,0,1,0,0,0]},{"tileid":10,"wangid":[0,0,1,1,1,0,0,0]},{"tileid":11,"wangid":[1,0,1,1,1,0,0,0]},{"tileid":12,"wangid":[1,1,1,1,1,0,0,0]},{"tileid":13,"wangid":[0,0,0,0,0,0,1,0]},{"tileid":14,"wangid":[1,0,0,0,0,0,1,0]},{"tileid":15,"wangid":[0,0,1,0,0,0,1,0]},{"tileid":16,"wangid":[1,0,1,0,0,0,1,0]},{"tileid":17,"wangid":[1,1,1,0,0,0,1,0]},{"tileid":18,"wangid":[0,0,0,0,1,0,1,0]},{"tileid":19,"wangid":[1,0,0,0,1,0,1,0]},{"tileid":20,"wangid":[0,0,1,0,1,0,1,0]},{"tileid":21,"wangid":[1,0,1,0,1,0,1,0]},{"tileid":22,"wangid":[1,1,1,0,1,0,1,0]},{"tileid":23,"wangid":[0,0,1,1,1,0,1,0]},{"tileid":24,"wangid":[1,0,1,1,1,0,1,0]},{"tileid":25,"wangid":[1,1,1,1,1,0,1,0]},{"tileid":26,"wangid":[0,0,0,0,1,1,1,0]},{"tileid":27,"wangid":[1,0,0,0,1,1,1,0]},{"tileid":28,"wangid":[0,0,1,0,1,1,1,0]},{"tileid":29,"wangid":[1,0,1,0,1,1,1,0]},{"tileid":30,"wangid":[1,1,1,0,1,1,1,0]},{"tileid":31,"wangid":[0,0,1,1,1,1,1,0]},{"tileid":32,"wangid":[1,0,1,1,1,1,1,0]},{"tileid":33,"wangid":[1,1,1,1,1,1,1,0]},{"tileid":34,"wangid":[1,0,0,0,0,0,1,1]},{"tileid":35,"wangid":[1,0,1,0,0,0,1,1]},{"tileid":36,"wangid":[1,1,1,0,0,0,1,1]},{"tileid":37,"wangid":[1,0,0,0,1,0,1,1]},{"tileid":38,"wangid":[1,0,1,0,1,0,1,1]},{"tileid":39,"wangid":[1,1,1,0,1,0,1,1]},{"tileid":40,"wangid":[1,0,1,1,1,0,1,1]},{"tileid":41,"wangid":[1,1,1,1,1,0,1,1]},{"tileid":42,"wangid":[1,0,0,0,1,1,1,1]},{"tileid":43,"wangid":[1,0,1,0,1,1,1,1]},{"tileid":44,"wangid":[1,1,1,0,1,1,1,1]},{"tileid":45,"wangid":[1,0,1,1,1,1,1,1]},{"tileid":46,"wangid":[1,1,1,1,1,1,1,1]}]}]},{"firstgid":3985,"name":"terrain.field@scrub","type":"tileset","version":"1.10","tiledversion":"1.11.0","image":"period32/terrain.field@scrub.png","imagewidth":256,"imageheight":192,"tilewidth":32,"tileheight":32,"tilecount":48,"columns":8,"margin":0,"spacing":0,"wangsets":[{"name":"terrain.field@scrub","type":"mixed","tile":-1,"colors":[{"name":"terrain.field@scrub","color":"#ff0000","tile":-1,"probability":1}],"wangtiles":[{"tileid":0,"wangid":[0,0,0,0,0,0,0,0]},{"tileid":1,"wangid":[1,0,0,0,0,0,0,0]},{"tileid":2,"wangid":[0,0,1,0,0,0,0,0]},{"tileid":3,"wangid":[1,0,1,0,0,0,0,0]},{"tileid":4,"wangid":[1,1,1,0,0,0,0,0]},{"tileid":5,"wangid":[0,0,0,0,1,0,0,0]},{"tileid":6,"wangid":[1,0,0,0,1,0,0,0]},{"tileid":7,"wangid":[0,0,1,0,1,0,0,0]},{"tileid":8,"wangid":[1,0,1,0,1,0,0,0]},{"tileid":9,"wangid":[1,1,1,0,1,0,0,0]},{"tileid":10,"wangid":[0,0,1,1,1,0,0,0]},{"tileid":11,"wangid":[1,0,1,1,1,0,0,0]},{"tileid":12,"wangid":[1,1,1,1,1,0,0,0]},{"tileid":13,"wangid":[0,0,0,0,0,0,1,0]},{"tileid":14,"wangid":[1,0,0,0,0,0,1,0]},{"tileid":15,"wangid":[0,0,1,0,0,0,1,0]},{"tileid":16,"wangid":[1,0,1,0,0,0,1,0]},{"tileid":17,"wangid":[1,1,1,0,0,0,1,0]},{"tileid":18,"wangid":[0,0,0,0,1,0,1,0]},{"tileid":19,"wangid":[1,0,0,0,1,0,1,0]},{"tileid":20,"wangid":[0,0,1,0,1,0,1,0]},{"tileid":21,"wangid":[1,0,1,0,1,0,1,0]},{"tileid":22,"wangid":[1,1,1,0,1,0,1,0]},{"tileid":23,"wangid":[0,0,1,1,1,0,1,0]},{"tileid":24,"wangid":[1,0,1,1,1,0,1,0]},{"tileid":25,"wangid":[1,1,1,1,1,0,1,0]},{"tileid":26,"wangid":[0,0,0,0,1,1,1,0]},{"tileid":27,"wangid":[1,0,0,0,1,1,1,0]},{"tileid":28,"wangid":[0,0,1,0,1,1,1,0]},{"tileid":29,"wangid":[1,0,1,0,1,1,1,0]},{"tileid":30,"wangid":[1,1,1,0,1,1,1,0]},{"tileid":31,"wangid":[0,0,1,1,1,1,1,0]},{"tileid":32,"wangid":[1,0,1,1,1,1,1,0]},{"tileid":33,"wangid":[1,1,1,1,1,1,1,0]},{"tileid":34,"wangid":[1,0,0,0,0,0,1,1]},{"tileid":35,"wangid":[1,0,1,0,0,0,1,1]},{"tileid":36,"wangid":[1,1,1,0,0,0,1,1]},{"tileid":37,"wangid":[1,0,0,0,1,0,1,1]},{"tileid":38,"wangid":[1,0,1,0,1,0,1,1]},{"tileid":39,"wangid":[1,1,1,0,1,0,1,1]},{"tileid":40,"wangid":[1,0,1,1,1,0,1,1]},{"tileid":41,"wangid":[1,1,1,1,1,0,1,1]},{"tileid":42,"wangid":[1,0,0,0,1,1,1,1]},{"tileid":43,"wangid":[1,0,1,0,1,1,1,1]},{"tileid":44,"wangid":[1,1,1,0,1,1,1,1]},{"tileid":45,"wangid":[1,0,1,1,1,1,1,1]},{"tileid":46,"wangid":[1,1,1,1,1,1,1,1]}]}]},{"firstgid":4033,"name":"terrain.forest@marsh","type":"tileset","version":"1.10","tiledversion":"1.11.0","image":"period32/terrain.forest@marsh.png","imagewidth":256,"imageheight":192,"tilewidth":32,"tileheight":32,"tilecount":48,"columns":8,"margin":0,"spacing":0,"wangsets":[{"name":"terrain.forest@marsh","type":"mixed","tile":-1,"colors":[{"name":"terrain.forest@marsh","color":"#ff0000","tile":-1,"probability":1}],"wangtiles":[{"tileid":0,"wangid":[0,0,0,0,0,0,0,0]},{"tileid":1,"wangid":[1,0,0,0,0,0,0,0]},{"tileid":2,"wangid":[0,0,1,0,0,0,0,0]},{"tileid":3,"wangid":[1,0,1,0,0,0,0,0]},{"tileid":4,"wangid":[1,1,1,0,0,0,0,0]},{"tileid":5,"wangid":[0,0,0,0,1,0,0,0]},{"tileid":6,"wangid":[1,0,0,0,1,0,0,0]},{"tileid":7,"wangid":[0,0,1,0,1,0,0,0]},{"tileid":8,"wangid":[1,0,1,0,1,0,0,0]},{"tileid":9,"wangid":[1,1,1,0,1,0,0,0]},{"tileid":10,"wangid":[0,0,1,1,1,0,0,0]},{"tileid":11,"wangid":[1,0,1,1,1,0,0,0]},{"tileid":12,"wangid":[1,1,1,1,1,0,0,0]},{"tileid":13,"wangid":[0,0,0,0,0,0,1,0]},{"tileid":14,"wangid":[1,0,0,0,0,0,1,0]},{"tileid":15,"wangid":[0,0,1,0,0,0,1,0]},{"tileid":16,"wangid":[1,0,1,0,0,0,1,0]},{"tileid":17,"wangid":[1,1,1,0,0,0,1,0]},{"tileid":18,"wangid":[0,0,0,0,1,0,1,0]},{"tileid":19,"wangid":[1,0,0,0,1,0,1,0]},{"tileid":20,"wangid":[0,0,1,0,1,0,1,0]},{"tileid":21,"wangid":[1,0,1,0,1,0,1,0]},{"tileid":22,"wangid":[1,1,1,0,1,0,1,0]},{"tileid":23,"wangid":[0,0,1,1,1,0,1,0]},{"tileid":24,"wangid":[1,0,1,1,1,0,1,0]},{"tileid":25,"wangid":[1,1,1,1,1,0,1,0]},{"tileid":26,"wangid":[0,0,0,0,1,1,1,0]},{"tileid":27,"wangid":[1,0,0,0,1,1,1,0]},{"tileid":28,"wangid":[0,0,1,0,1,1,1,0]},{"tileid":29,"wangid":[1,0,1,0,1,1,1,0]},{"tileid":30,"wangid":[1,1,1,0,1,1,1,0]},{"tileid":31,"wangid":[0,0,1,1,1,1,1,0]},{"tileid":32,"wangid":[1,0,1,1,1,1,1,0]},{"tileid":33,"wangid":[1,1,1,1,1,1,1,0]},{"tileid":34,"wangid":[1,0,0,0,0,0,1,1]},{"tileid":35,"wangid":[1,0,1,0,0,0,1,1]},{"tileid":36,"wangid":[1,1,1,0,0,0,1,1]},{"tileid":37,"wangid":[1,0,0,0,1,0,1,1]},{"tileid":38,"wangid":[1,0,1,0,1,0,1,1]},{"tileid":39,"wangid":[1,1,1,0,1,0,1,1]},{"tileid":40,"wangid":[1,0,1,1,1,0,1,1]},{"tileid":41,"wangid":[1,1,1,1,1,0,1,1]},{"tileid":42,"wangid":[1,0,0,0,1,1,1,1]},{"tileid":43,"wangid":[1,0,1,0,1,1,1,1]},{"tileid":44,"wangid":[1,1,1,0,1,1,1,1]},{"tileid":45,"wangid":[1,0,1,1,1,1,1,1]},{"tileid":46,"wangid":[1,1,1,1,1,1,1,1]}]}]},{"firstgid":4081,"name":"terrain.forest@tallgrass","type":"tileset","version":"1.10","tiledversion":"1.11.0","image":"period32/terrain.forest@tallgrass.png","imagewidth":256,"imageheight":192,"tilewidth":32,"tileheight":32,"tilecount":48,"columns":8,"margin":0,"spacing":0,"wangsets":[{"name":"terrain.forest@tallgrass","type":"mixed","tile":-1,"colors":[{"name":"terrain.forest@tallgrass","color":"#ff0000","tile":-1,"probability":1}],"wangtiles":[{"tileid":0,"wangid":[0,0,0,0,0,0,0,0]},{"tileid":1,"wangid":[1,0,0,0,0,0,0,0]},{"tileid":2,"wangid":[0,0,1,0,0,0,0,0]},{"tileid":3,"wangid":[1,0,1,0,0,0,0,0]},{"tileid":4,"wangid":[1,1,1,0,0,0,0,0]},{"tileid":5,"wangid":[0,0,0,0,1,0,0,0]},{"tileid":6,"wangid":[1,0,0,0,1,0,0,0]},{"tileid":7,"wangid":[0,0,1,0,1,0,0,0]},{"tileid":8,"wangid":[1,0,1,0,1,0,0,0]},{"tileid":9,"wangid":[1,1,1,0,1,0,0,0]},{"tileid":10,"wangid":[0,0,1,1,1,0,0,0]},{"tileid":11,"wangid":[1,0,1,1,1,0,0,0]},{"tileid":12,"wangid":[1,1,1,1,1,0,0,0]},{"tileid":13,"wangid":[0,0,0,0,0,0,1,0]},{"tileid":14,"wangid":[1,0,0,0,0,0,1,0]},{"tileid":15,"wangid":[0,0,1,0,0,0,1,0]},{"tileid":16,"wangid":[1,0,1,0,0,0,1,0]},{"tileid":17,"wangid":[1,1,1,0,0,0,1,0]},{"tileid":18,"wangid":[0,0,0,0,1,0,1,0]},{"tileid":19,"wangid":[1,0,0,0,1,0,1,0]},{"tileid":20,"wangid":[0,0,1,0,1,0,1,0]},{"tileid":21,"wangid":[1,0,1,0,1,0,1,0]},{"tileid":22,"wangid":[1,1,1,0,1,0,1,0]},{"tileid":23,"wangid":[0,0,1,1,1,0,1,0]},{"tileid":24,"wangid":[1,0,1,1,1,0,1,0]},{"tileid":25,"wangid":[1,1,1,1,1,0,1,0]},{"tileid":26,"wangid":[0,0,0,0,1,1,1,0]},{"tileid":27,"wangid":[1,0,0,0,1,1,1,0]},{"tileid":28,"wangid":[0,0,1,0,1,1,1,0]},{"tileid":29,"wangid":[1,0,1,0,1,1,1,0]},{"tileid":30,"wangid":[1,1,1,0,1,1,1,0]},{"tileid":31,"wangid":[0,0,1,1,1,1,1,0]},{"tileid":32,"wangid":[1,0,1,1,1,1,1,0]},{"tileid":33,"wangid":[1,1,1,1,1,1,1,0]},{"tileid":34,"wangid":[1,0,0,0,0,0,1,1]},{"tileid":35,"wangid":[1,0,1,0,0,0,1,1]},{"tileid":36,"wangid":[1,1,1,0,0,0,1,1]},{"tileid":37,"wangid":[1,0,0,0,1,0,1,1]},{"tileid":38,"wangid":[1,0,1,0,1,0,1,1]},{"tileid":39,"wangid":[1,1,1,0,1,0,1,1]},{"tileid":40,"wangid":[1,0,1,1,1,0,1,1]},{"tileid":41,"wangid":[1,1,1,1,1,0,1,1]},{"tileid":42,"wangid":[1,0,0,0,1,1,1,1]},{"tileid":43,"wangid":[1,0,1,0,1,1,1,1]},{"tileid":44,"wangid":[1,1,1,0,1,1,1,1]},{"tileid":45,"wangid":[1,0,1,1,1,1,1,1]},{"tileid":46,"wangid":[1,1,1,1,1,1,1,1]}]}]},{"firstgid":4129,"name":"terrain.bamboo@tallgrass","type":"tileset","version":"1.10","tiledversion":"1.11.0","image":"period32/terrain.bamboo@tallgrass.png","imagewidth":256,"imageheight":192,"tilewidth":32,"tileheight":32,"tilecount":48,"columns":8,"margin":0,"spacing":0,"wangsets":[{"name":"terrain.bamboo@tallgrass","type":"mixed","tile":-1,"colors":[{"name":"terrain.bamboo@tallgrass","color":"#ff0000","tile":-1,"probability":1}],"wangtiles":[{"tileid":0,"wangid":[0,0,0,0,0,0,0,0]},{"tileid":1,"wangid":[1,0,0,0,0,0,0,0]},{"tileid":2,"wangid":[0,0,1,0,0,0,0,0]},{"tileid":3,"wangid":[1,0,1,0,0,0,0,0]},{"tileid":4,"wangid":[1,1,1,0,0,0,0,0]},{"tileid":5,"wangid":[0,0,0,0,1,0,0,0]},{"tileid":6,"wangid":[1,0,0,0,1,0,0,0]},{"tileid":7,"wangid":[0,0,1,0,1,0,0,0]},{"tileid":8,"wangid":[1,0,1,0,1,0,0,0]},{"tileid":9,"wangid":[1,1,1,0,1,0,0,0]},{"tileid":10,"wangid":[0,0,1,1,1,0,0,0]},{"tileid":11,"wangid":[1,0,1,1,1,0,0,0]},{"tileid":12,"wangid":[1,1,1,1,1,0,0,0]},{"tileid":13,"wangid":[0,0,0,0,0,0,1,0]},{"tileid":14,"wangid":[1,0,0,0,0,0,1,0]},{"tileid":15,"wangid":[0,0,1,0,0,0,1,0]},{"tileid":16,"wangid":[1,0,1,0,0,0,1,0]},{"tileid":17,"wangid":[1,1,1,0,0,0,1,0]},{"tileid":18,"wangid":[0,0,0,0,1,0,1,0]},{"tileid":19,"wangid":[1,0,0,0,1,0,1,0]},{"tileid":20,"wangid":[0,0,1,0,1,0,1,0]},{"tileid":21,"wangid":[1,0,1,0,1,0,1,0]},{"tileid":22,"wangid":[1,1,1,0,1,0,1,0]},{"tileid":23,"wangid":[0,0,1,1,1,0,1,0]},{"tileid":24,"wangid":[1,0,1,1,1,0,1,0]},{"tileid":25,"wangid":[1,1,1,1,1,0,1,0]},{"tileid":26,"wangid":[0,0,0,0,1,1,1,0]},{"tileid":27,"wangid":[1,0,0,0,1,1,1,0]},{"tileid":28,"wangid":[0,0,1,0,1,1,1,0]},{"tileid":29,"wangid":[1,0,1,0,1,1,1,0]},{"tileid":30,"wangid":[1,1,1,0,1,1,1,0]},{"tileid":31,"wangid":[0,0,1,1,1,1,1,0]},{"tileid":32,"wangid":[1,0,1,1,1,1,1,0]},{"tileid":33,"wangid":[1,1,1,1,1,1,1,0]},{"tileid":34,"wangid":[1,0,0,0,0,0,1,1]},{"tileid":35,"wangid":[1,0,1,0,0,0,1,1]},{"tileid":36,"wangid":[1,1,1,0,0,0,1,1]},{"tileid":37,"wangid":[1,0,0,0,1,0,1,1]},{"tileid":38,"wangid":[1,0,1,0,1,0,1,1]},{"tileid":39,"wangid":[1,1,1,0,1,0,1,1]},{"tileid":40,"wangid":[1,0,1,1,1,0,1,1]},{"tileid":41,"wangid":[1,1,1,1,1,0,1,1]},{"tileid":42,"wangid":[1,0,0,0,1,1,1,1]},{"tileid":43,"wangid":[1,0,1,0,1,1,1,1]},{"tileid":44,"wangid":[1,1,1,0,1,1,1,1]},{"tileid":45,"wangid":[1,0,1,1,1,1,1,1]},{"tileid":46,"wangid":[1,1,1,1,1,1,1,1]}]}]},{"firstgid":4177,"name":"terrain.bamboo@forest","type":"tileset","version":"1.10","tiledversion":"1.11.0","image":"period32/terrain.bamboo@forest.png","imagewidth":256,"imageheight":192,"tilewidth":32,"tileheight":32,"tilecount":48,"columns":8,"margin":0,"spacing":0,"wangsets":[{"name":"terrain.bamboo@forest","type":"mixed","tile":-1,"colors":[{"name":"terrain.bamboo@forest","color":"#ff0000","tile":-1,"probability":1}],"wangtiles":[{"tileid":0,"wangid":[0,0,0,0,0,0,0,0]},{"tileid":1,"wangid":[1,0,0,0,0,0,0,0]},{"tileid":2,"wangid":[0,0,1,0,0,0,0,0]},{"tileid":3,"wangid":[1,0,1,0,0,0,0,0]},{"tileid":4,"wangid":[1,1,1,0,0,0,0,0]},{"tileid":5,"wangid":[0,0,0,0,1,0,0,0]},{"tileid":6,"wangid":[1,0,0,0,1,0,0,0]},{"tileid":7,"wangid":[0,0,1,0,1,0,0,0]},{"tileid":8,"wangid":[1,0,1,0,1,0,0,0]},{"tileid":9,"wangid":[1,1,1,0,1,0,0,0]},{"tileid":10,"wangid":[0,0,1,1,1,0,0,0]},{"tileid":11,"wangid":[1,0,1,1,1,0,0,0]},{"tileid":12,"wangid":[1,1,1,1,1,0,0,0]},{"tileid":13,"wangid":[0,0,0,0,0,0,1,0]},{"tileid":14,"wangid":[1,0,0,0,0,0,1,0]},{"tileid":15,"wangid":[0,0,1,0,0,0,1,0]},{"tileid":16,"wangid":[1,0,1,0,0,0,1,0]},{"tileid":17,"wangid":[1,1,1,0,0,0,1,0]},{"tileid":18,"wangid":[0,0,0,0,1,0,1,0]},{"tileid":19,"wangid":[1,0,0,0,1,0,1,0]},{"tileid":20,"wangid":[0,0,1,0,1,0,1,0]},{"tileid":21,"wangid":[1,0,1,0,1,0,1,0]},{"tileid":22,"wangid":[1,1,1,0,1,0,1,0]},{"tileid":23,"wangid":[0,0,1,1,1,0,1,0]},{"tileid":24,"wangid":[1,0,1,1,1,0,1,0]},{"tileid":25,"wangid":[1,1,1,1,1,0,1,0]},{"tileid":26,"wangid":[0,0,0,0,1,1,1,0]},{"tileid":27,"wangid":[1,0,0,0,1,1,1,0]},{"tileid":28,"wangid":[0,0,1,0,1,1,1,0]},{"tileid":29,"wangid":[1,0,1,0,1,1,1,0]},{"tileid":30,"wangid":[1,1,1,0,1,1,1,0]},{"tileid":31,"wangid":[0,0,1,1,1,1,1,0]},{"tileid":32,"wangid":[1,0,1,1,1,1,1,0]},{"tileid":33,"wangid":[1,1,1,1,1,1,1,0]},{"tileid":34,"wangid":[1,0,0,0,0,0,1,1]},{"tileid":35,"wangid":[1,0,1,0,0,0,1,1]},{"tileid":36,"wangid":[1,1,1,0,0,0,1,1]},{"tileid":37,"wangid":[1,0,0,0,1,0,1,1]},{"tileid":38,"wangid":[1,0,1,0,1,0,1,1]},{"tileid":39,"wangid":[1,1,1,0,1,0,1,1]},{"tileid":40,"wangid":[1,0,1,1,1,0,1,1]},{"tileid":41,"wangid":[1,1,1,1,1,0,1,1]},{"tileid":42,"wangid":[1,0,0,0,1,1,1,1]},{"tileid":43,"wangid":[1,0,1,0,1,1,1,1]},{"tileid":44,"wangid":[1,1,1,0,1,1,1,1]},{"tileid":45,"wangid":[1,0,1,1,1,1,1,1]},{"tileid":46,"wangid":[1,1,1,1,1,1,1,1]}]}]},{"firstgid":4225,"name":"terrain.hills@tallgrass","type":"tileset","version":"1.10","tiledversion":"1.11.0","image":"period32/terrain.hills@tallgrass.png","imagewidth":256,"imageheight":192,"tilewidth":32,"tileheight":32,"tilecount":48,"columns":8,"margin":0,"spacing":0,"wangsets":[{"name":"terrain.hills@tallgrass","type":"mixed","tile":-1,"colors":[{"name":"terrain.hills@tallgrass","color":"#ff0000","tile":-1,"probability":1}],"wangtiles":[{"tileid":0,"wangid":[0,0,0,0,0,0,0,0]},{"tileid":1,"wangid":[1,0,0,0,0,0,0,0]},{"tileid":2,"wangid":[0,0,1,0,0,0,0,0]},{"tileid":3,"wangid":[1,0,1,0,0,0,0,0]},{"tileid":4,"wangid":[1,1,1,0,0,0,0,0]},{"tileid":5,"wangid":[0,0,0,0,1,0,0,0]},{"tileid":6,"wangid":[1,0,0,0,1,0,0,0]},{"tileid":7,"wangid":[0,0,1,0,1,0,0,0]},{"tileid":8,"wangid":[1,0,1,0,1,0,0,0]},{"tileid":9,"wangid":[1,1,1,0,1,0,0,0]},{"tileid":10,"wangid":[0,0,1,1,1,0,0,0]},{"tileid":11,"wangid":[1,0,1,1,1,0,0,0]},{"tileid":12,"wangid":[1,1,1,1,1,0,0,0]},{"tileid":13,"wangid":[0,0,0,0,0,0,1,0]},{"tileid":14,"wangid":[1,0,0,0,0,0,1,0]},{"tileid":15,"wangid":[0,0,1,0,0,0,1,0]},{"tileid":16,"wangid":[1,0,1,0,0,0,1,0]},{"tileid":17,"wangid":[1,1,1,0,0,0,1,0]},{"tileid":18,"wangid":[0,0,0,0,1,0,1,0]},{"tileid":19,"wangid":[1,0,0,0,1,0,1,0]},{"tileid":20,"wangid":[0,0,1,0,1,0,1,0]},{"tileid":21,"wangid":[1,0,1,0,1,0,1,0]},{"tileid":22,"wangid":[1,1,1,0,1,0,1,0]},{"tileid":23,"wangid":[0,0,1,1,1,0,1,0]},{"tileid":24,"wangid":[1,0,1,1,1,0,1,0]},{"tileid":25,"wangid":[1,1,1,1,1,0,1,0]},{"tileid":26,"wangid":[0,0,0,0,1,1,1,0]},{"tileid":27,"wangid":[1,0,0,0,1,1,1,0]},{"tileid":28,"wangid":[0,0,1,0,1,1,1,0]},{"tileid":29,"wangid":[1,0,1,0,1,1,1,0]},{"tileid":30,"wangid":[1,1,1,0,1,1,1,0]},{"tileid":31,"wangid":[0,0,1,1,1,1,1,0]},{"tileid":32,"wangid":[1,0,1,1,1,1,1,0]},{"tileid":33,"wangid":[1,1,1,1,1,1,1,0]},{"tileid":34,"wangid":[1,0,0,0,0,0,1,1]},{"tileid":35,"wangid":[1,0,1,0,0,0,1,1]},{"tileid":36,"wangid":[1,1,1,0,0,0,1,1]},{"tileid":37,"wangid":[1,0,0,0,1,0,1,1]},{"tileid":38,"wangid":[1,0,1,0,1,0,1,1]},{"tileid":39,"wangid":[1,1,1,0,1,0,1,1]},{"tileid":40,"wangid":[1,0,1,1,1,0,1,1]},{"tileid":41,"wangid":[1,1,1,1,1,0,1,1]},{"tileid":42,"wangid":[1,0,0,0,1,1,1,1]},{"tileid":43,"wangid":[1,0,1,0,1,1,1,1]},{"tileid":44,"wangid":[1,1,1,0,1,1,1,1]},{"tileid":45,"wangid":[1,0,1,1,1,1,1,1]},{"tileid":46,"wangid":[1,1,1,1,1,1,1,1]}]}]},{"firstgid":4273,"name":"terrain.hills@forest","type":"tileset","version":"1.10","tiledversion":"1.11.0","image":"period32/terrain.hills@forest.png","imagewidth":256,"imageheight":192,"tilewidth":32,"tileheight":32,"tilecount":48,"columns":8,"margin":0,"spacing":0,"wangsets":[{"name":"terrain.hills@forest","type":"mixed","tile":-1,"colors":[{"name":"terrain.hills@forest","color":"#ff0000","tile":-1,"probability":1}],"wangtiles":[{"tileid":0,"wangid":[0,0,0,0,0,0,0,0]},{"tileid":1,"wangid":[1,0,0,0,0,0,0,0]},{"tileid":2,"wangid":[0,0,1,0,0,0,0,0]},{"tileid":3,"wangid":[1,0,1,0,0,0,0,0]},{"tileid":4,"wangid":[1,1,1,0,0,0,0,0]},{"tileid":5,"wangid":[0,0,0,0,1,0,0,0]},{"tileid":6,"wangid":[1,0,0,0,1,0,0,0]},{"tileid":7,"wangid":[0,0,1,0,1,0,0,0]},{"tileid":8,"wangid":[1,0,1,0,1,0,0,0]},{"tileid":9,"wangid":[1,1,1,0,1,0,0,0]},{"tileid":10,"wangid":[0,0,1,1,1,0,0,0]},{"tileid":11,"wangid":[1,0,1,1,1,0,0,0]},{"tileid":12,"wangid":[1,1,1,1,1,0,0,0]},{"tileid":13,"wangid":[0,0,0,0,0,0,1,0]},{"tileid":14,"wangid":[1,0,0,0,0,0,1,0]},{"tileid":15,"wangid":[0,0,1,0,0,0,1,0]},{"tileid":16,"wangid":[1,0,1,0,0,0,1,0]},{"tileid":17,"wangid":[1,1,1,0,0,0,1,0]},{"tileid":18,"wangid":[0,0,0,0,1,0,1,0]},{"tileid":19,"wangid":[1,0,0,0,1,0,1,0]},{"tileid":20,"wangid":[0,0,1,0,1,0,1,0]},{"tileid":21,"wangid":[1,0,1,0,1,0,1,0]},{"tileid":22,"wangid":[1,1,1,0,1,0,1,0]},{"tileid":23,"wangid":[0,0,1,1,1,0,1,0]},{"tileid":24,"wangid":[1,0,1,1,1,0,1,0]},{"tileid":25,"wangid":[1,1,1,1,1,0,1,0]},{"tileid":26,"wangid":[0,0,0,0,1,1,1,0]},{"tileid":27,"wangid":[1,0,0,0,1,1,1,0]},{"tileid":28,"wangid":[0,0,1,0,1,1,1,0]},{"tileid":29,"wangid":[1,0,1,0,1,1,1,0]},{"tileid":30,"wangid":[1,1,1,0,1,1,1,0]},{"tileid":31,"wangid":[0,0,1,1,1,1,1,0]},{"tileid":32,"wangid":[1,0,1,1,1,1,1,0]},{"tileid":33,"wangid":[1,1,1,1,1,1,1,0]},{"tileid":34,"wangid":[1,0,0,0,0,0,1,1]},{"tileid":35,"wangid":[1,0,1,0,0,0,1,1]},{"tileid":36,"wangid":[1,1,1,0,0,0,1,1]},{"tileid":37,"wangid":[1,0,0,0,1,0,1,1]},{"tileid":38,"wangid":[1,0,1,0,1,0,1,1]},{"tileid":39,"wangid":[1,1,1,0,1,0,1,1]},{"tileid":40,"wangid":[1,0,1,1,1,0,1,1]},{"tileid":41,"wangid":[1,1,1,1,1,0,1,1]},{"tileid":42,"wangid":[1,0,0,0,1,1,1,1]},{"tileid":43,"wangid":[1,0,1,0,1,1,1,1]},{"tileid":44,"wangid":[1,1,1,0,1,1,1,1]},{"tileid":45,"wangid":[1,0,1,1,1,1,1,1]},{"tileid":46,"wangid":[1,1,1,1,1,1,1,1]}]}]},{"firstgid":4321,"name":"terrain.hills@bamboo","type":"tileset","version":"1.10","tiledversion":"1.11.0","image":"period32/terrain.hills@bamboo.png","imagewidth":256,"imageheight":192,"tilewidth":32,"tileheight":32,"tilecount":48,"columns":8,"margin":0,"spacing":0,"wangsets":[{"name":"terrain.hills@bamboo","type":"mixed","tile":-1,"colors":[{"name":"terrain.hills@bamboo","color":"#ff0000","tile":-1,"probability":1}],"wangtiles":[{"tileid":0,"wangid":[0,0,0,0,0,0,0,0]},{"tileid":1,"wangid":[1,0,0,0,0,0,0,0]},{"tileid":2,"wangid":[0,0,1,0,0,0,0,0]},{"tileid":3,"wangid":[1,0,1,0,0,0,0,0]},{"tileid":4,"wangid":[1,1,1,0,0,0,0,0]},{"tileid":5,"wangid":[0,0,0,0,1,0,0,0]},{"tileid":6,"wangid":[1,0,0,0,1,0,0,0]},{"tileid":7,"wangid":[0,0,1,0,1,0,0,0]},{"tileid":8,"wangid":[1,0,1,0,1,0,0,0]},{"tileid":9,"wangid":[1,1,1,0,1,0,0,0]},{"tileid":10,"wangid":[0,0,1,1,1,0,0,0]},{"tileid":11,"wangid":[1,0,1,1,1,0,0,0]},{"tileid":12,"wangid":[1,1,1,1,1,0,0,0]},{"tileid":13,"wangid":[0,0,0,0,0,0,1,0]},{"tileid":14,"wangid":[1,0,0,0,0,0,1,0]},{"tileid":15,"wangid":[0,0,1,0,0,0,1,0]},{"tileid":16,"wangid":[1,0,1,0,0,0,1,0]},{"tileid":17,"wangid":[1,1,1,0,0,0,1,0]},{"tileid":18,"wangid":[0,0,0,0,1,0,1,0]},{"tileid":19,"wangid":[1,0,0,0,1,0,1,0]},{"tileid":20,"wangid":[0,0,1,0,1,0,1,0]},{"tileid":21,"wangid":[1,0,1,0,1,0,1,0]},{"tileid":22,"wangid":[1,1,1,0,1,0,1,0]},{"tileid":23,"wangid":[0,0,1,1,1,0,1,0]},{"tileid":24,"wangid":[1,0,1,1,1,0,1,0]},{"tileid":25,"wangid":[1,1,1,1,1,0,1,0]},{"tileid":26,"wangid":[0,0,0,0,1,1,1,0]},{"tileid":27,"wangid":[1,0,0,0,1,1,1,0]},{"tileid":28,"wangid":[0,0,1,0,1,1,1,0]},{"tileid":29,"wangid":[1,0,1,0,1,1,1,0]},{"tileid":30,"wangid":[1,1,1,0,1,1,1,0]},{"tileid":31,"wangid":[0,0,1,1,1,1,1,0]},{"tileid":32,"wangid":[1,0,1,1,1,1,1,0]},{"tileid":33,"wangid":[1,1,1,1,1,1,1,0]},{"tileid":34,"wangid":[1,0,0,0,0,0,1,1]},{"tileid":35,"wangid":[1,0,1,0,0,0,1,1]},{"tileid":36,"wangid":[1,1,1,0,0,0,1,1]},{"tileid":37,"wangid":[1,0,0,0,1,0,1,1]},{"tileid":38,"wangid":[1,0,1,0,1,0,1,1]},{"tileid":39,"wangid":[1,1,1,0,1,0,1,1]},{"tileid":40,"wangid":[1,0,1,1,1,0,1,1]},{"tileid":41,"wangid":[1,1,1,1,1,0,1,1]},{"tileid":42,"wangid":[1,0,0,0,1,1,1,1]},{"tileid":43,"wangid":[1,0,1,0,1,1,1,1]},{"tileid":44,"wangid":[1,1,1,0,1,1,1,1]},{"tileid":45,"wangid":[1,0,1,1,1,1,1,1]},{"tileid":46,"wangid":[1,1,1,1,1,1,1,1]}]}]},{"firstgid":4369,"name":"terrain.mountain@forest","type":"tileset","version":"1.10","tiledversion":"1.11.0","image":"period32/terrain.mountain@forest.png","imagewidth":256,"imageheight":192,"tilewidth":32,"tileheight":32,"tilecount":48,"columns":8,"margin":0,"spacing":0,"wangsets":[{"name":"terrain.mountain@forest","type":"mixed","tile":-1,"colors":[{"name":"terrain.mountain@forest","color":"#ff0000","tile":-1,"probability":1}],"wangtiles":[{"tileid":0,"wangid":[0,0,0,0,0,0,0,0]},{"tileid":1,"wangid":[1,0,0,0,0,0,0,0]},{"tileid":2,"wangid":[0,0,1,0,0,0,0,0]},{"tileid":3,"wangid":[1,0,1,0,0,0,0,0]},{"tileid":4,"wangid":[1,1,1,0,0,0,0,0]},{"tileid":5,"wangid":[0,0,0,0,1,0,0,0]},{"tileid":6,"wangid":[1,0,0,0,1,0,0,0]},{"tileid":7,"wangid":[0,0,1,0,1,0,0,0]},{"tileid":8,"wangid":[1,0,1,0,1,0,0,0]},{"tileid":9,"wangid":[1,1,1,0,1,0,0,0]},{"tileid":10,"wangid":[0,0,1,1,1,0,0,0]},{"tileid":11,"wangid":[1,0,1,1,1,0,0,0]},{"tileid":12,"wangid":[1,1,1,1,1,0,0,0]},{"tileid":13,"wangid":[0,0,0,0,0,0,1,0]},{"tileid":14,"wangid":[1,0,0,0,0,0,1,0]},{"tileid":15,"wangid":[0,0,1,0,0,0,1,0]},{"tileid":16,"wangid":[1,0,1,0,0,0,1,0]},{"tileid":17,"wangid":[1,1,1,0,0,0,1,0]},{"tileid":18,"wangid":[0,0,0,0,1,0,1,0]},{"tileid":19,"wangid":[1,0,0,0,1,0,1,0]},{"tileid":20,"wangid":[0,0,1,0,1,0,1,0]},{"tileid":21,"wangid":[1,0,1,0,1,0,1,0]},{"tileid":22,"wangid":[1,1,1,0,1,0,1,0]},{"tileid":23,"wangid":[0,0,1,1,1,0,1,0]},{"tileid":24,"wangid":[1,0,1,1,1,0,1,0]},{"tileid":25,"wangid":[1,1,1,1,1,0,1,0]},{"tileid":26,"wangid":[0,0,0,0,1,1,1,0]},{"tileid":27,"wangid":[1,0,0,0,1,1,1,0]},{"tileid":28,"wangid":[0,0,1,0,1,1,1,0]},{"tileid":29,"wangid":[1,0,1,0,1,1,1,0]},{"tileid":30,"wangid":[1,1,1,0,1,1,1,0]},{"tileid":31,"wangid":[0,0,1,1,1,1,1,0]},{"tileid":32,"wangid":[1,0,1,1,1,1,1,0]},{"tileid":33,"wangid":[1,1,1,1,1,1,1,0]},{"tileid":34,"wangid":[1,0,0,0,0,0,1,1]},{"tileid":35,"wangid":[1,0,1,0,0,0,1,1]},{"tileid":36,"wangid":[1,1,1,0,0,0,1,1]},{"tileid":37,"wangid":[1,0,0,0,1,0,1,1]},{"tileid":38,"wangid":[1,0,1,0,1,0,1,1]},{"tileid":39,"wangid":[1,1,1,0,1,0,1,1]},{"tileid":40,"wangid":[1,0,1,1,1,0,1,1]},{"tileid":41,"wangid":[1,1,1,1,1,0,1,1]},{"tileid":42,"wangid":[1,0,0,0,1,1,1,1]},{"tileid":43,"wangid":[1,0,1,0,1,1,1,1]},{"tileid":44,"wangid":[1,1,1,0,1,1,1,1]},{"tileid":45,"wangid":[1,0,1,1,1,1,1,1]},{"tileid":46,"wangid":[1,1,1,1,1,1,1,1]}]}]},{"firstgid":4417,"name":"terrain.mountain@bamboo","type":"tileset","version":"1.10","tiledversion":"1.11.0","image":"period32/terrain.mountain@bamboo.png","imagewidth":256,"imageheight":192,"tilewidth":32,"tileheight":32,"tilecount":48,"columns":8,"margin":0,"spacing":0,"wangsets":[{"name":"terrain.mountain@bamboo","type":"mixed","tile":-1,"colors":[{"name":"terrain.mountain@bamboo","color":"#ff0000","tile":-1,"probability":1}],"wangtiles":[{"tileid":0,"wangid":[0,0,0,0,0,0,0,0]},{"tileid":1,"wangid":[1,0,0,0,0,0,0,0]},{"tileid":2,"wangid":[0,0,1,0,0,0,0,0]},{"tileid":3,"wangid":[1,0,1,0,0,0,0,0]},{"tileid":4,"wangid":[1,1,1,0,0,0,0,0]},{"tileid":5,"wangid":[0,0,0,0,1,0,0,0]},{"tileid":6,"wangid":[1,0,0,0,1,0,0,0]},{"tileid":7,"wangid":[0,0,1,0,1,0,0,0]},{"tileid":8,"wangid":[1,0,1,0,1,0,0,0]},{"tileid":9,"wangid":[1,1,1,0,1,0,0,0]},{"tileid":10,"wangid":[0,0,1,1,1,0,0,0]},{"tileid":11,"wangid":[1,0,1,1,1,0,0,0]},{"tileid":12,"wangid":[1,1,1,1,1,0,0,0]},{"tileid":13,"wangid":[0,0,0,0,0,0,1,0]},{"tileid":14,"wangid":[1,0,0,0,0,0,1,0]},{"tileid":15,"wangid":[0,0,1,0,0,0,1,0]},{"tileid":16,"wangid":[1,0,1,0,0,0,1,0]},{"tileid":17,"wangid":[1,1,1,0,0,0,1,0]},{"tileid":18,"wangid":[0,0,0,0,1,0,1,0]},{"tileid":19,"wangid":[1,0,0,0,1,0,1,0]},{"tileid":20,"wangid":[0,0,1,0,1,0,1,0]},{"tileid":21,"wangid":[1,0,1,0,1,0,1,0]},{"tileid":22,"wangid":[1,1,1,0,1,0,1,0]},{"tileid":23,"wangid":[0,0,1,1,1,0,1,0]},{"tileid":24,"wangid":[1,0,1,1,1,0,1,0]},{"tileid":25,"wangid":[1,1,1,1,1,0,1,0]},{"tileid":26,"wangid":[0,0,0,0,1,1,1,0]},{"tileid":27,"wangid":[1,0,0,0,1,1,1,0]},{"tileid":28,"wangid":[0,0,1,0,1,1,1,0]},{"tileid":29,"wangid":[1,0,1,0,1,1,1,0]},{"tileid":30,"wangid":[1,1,1,0,1,1,1,0]},{"tileid":31,"wangid":[0,0,1,1,1,1,1,0]},{"tileid":32,"wangid":[1,0,1,1,1,1,1,0]},{"tileid":33,"wangid":[1,1,1,1,1,1,1,0]},{"tileid":34,"wangid":[1,0,0,0,0,0,1,1]},{"tileid":35,"wangid":[1,0,1,0,0,0,1,1]},{"tileid":36,"wangid":[1,1,1,0,0,0,1,1]},{"tileid":37,"wangid":[1,0,0,0,1,0,1,1]},{"tileid":38,"wangid":[1,0,1,0,1,0,1,1]},{"tileid":39,"wangid":[1,1,1,0,1,0,1,1]},{"tileid":40,"wangid":[1,0,1,1,1,0,1,1]},{"tileid":41,"wangid":[1,1,1,1,1,0,1,1]},{"tileid":42,"wangid":[1,0,0,0,1,1,1,1]},{"tileid":43,"wangid":[1,0,1,0,1,1,1,1]},{"tileid":44,"wangid":[1,1,1,0,1,1,1,1]},{"tileid":45,"wangid":[1,0,1,1,1,1,1,1]},{"tileid":46,"wangid":[1,1,1,1,1,1,1,1]}]}]},{"firstgid":4465,"name":"terrain.qinling@scrub","type":"tileset","version":"1.10","tiledversion":"1.11.0","image":"period32/terrain.qinling@scrub.png","imagewidth":256,"imageheight":192,"tilewidth":32,"tileheight":32,"tilecount":48,"columns":8,"margin":0,"spacing":0,"wangsets":[{"name":"terrain.qinling@scrub","type":"mixed","tile":-1,"colors":[{"name":"terrain.qinling@scrub","color":"#ff0000","tile":-1,"probability":1}],"wangtiles":[{"tileid":0,"wangid":[0,0,0,0,0,0,0,0]},{"tileid":1,"wangid":[1,0,0,0,0,0,0,0]},{"tileid":2,"wangid":[0,0,1,0,0,0,0,0]},{"tileid":3,"wangid":[1,0,1,0,0,0,0,0]},{"tileid":4,"wangid":[1,1,1,0,0,0,0,0]},{"tileid":5,"wangid":[0,0,0,0,1,0,0,0]},{"tileid":6,"wangid":[1,0,0,0,1,0,0,0]},{"tileid":7,"wangid":[0,0,1,0,1,0,0,0]},{"tileid":8,"wangid":[1,0,1,0,1,0,0,0]},{"tileid":9,"wangid":[1,1,1,0,1,0,0,0]},{"tileid":10,"wangid":[0,0,1,1,1,0,0,0]},{"tileid":11,"wangid":[1,0,1,1,1,0,0,0]},{"tileid":12,"wangid":[1,1,1,1,1,0,0,0]},{"tileid":13,"wangid":[0,0,0,0,0,0,1,0]},{"tileid":14,"wangid":[1,0,0,0,0,0,1,0]},{"tileid":15,"wangid":[0,0,1,0,0,0,1,0]},{"tileid":16,"wangid":[1,0,1,0,0,0,1,0]},{"tileid":17,"wangid":[1,1,1,0,0,0,1,0]},{"tileid":18,"wangid":[0,0,0,0,1,0,1,0]},{"tileid":19,"wangid":[1,0,0,0,1,0,1,0]},{"tileid":20,"wangid":[0,0,1,0,1,0,1,0]},{"tileid":21,"wangid":[1,0,1,0,1,0,1,0]},{"tileid":22,"wangid":[1,1,1,0,1,0,1,0]},{"tileid":23,"wangid":[0,0,1,1,1,0,1,0]},{"tileid":24,"wangid":[1,0,1,1,1,0,1,0]},{"tileid":25,"wangid":[1,1,1,1,1,0,1,0]},{"tileid":26,"wangid":[0,0,0,0,1,1,1,0]},{"tileid":27,"wangid":[1,0,0,0,1,1,1,0]},{"tileid":28,"wangid":[0,0,1,0,1,1,1,0]},{"tileid":29,"wangid":[1,0,1,0,1,1,1,0]},{"tileid":30,"wangid":[1,1,1,0,1,1,1,0]},{"tileid":31,"wangid":[0,0,1,1,1,1,1,0]},{"tileid":32,"wangid":[1,0,1,1,1,1,1,0]},{"tileid":33,"wangid":[1,1,1,1,1,1,1,0]},{"tileid":34,"wangid":[1,0,0,0,0,0,1,1]},{"tileid":35,"wangid":[1,0,1,0,0,0,1,1]},{"tileid":36,"wangid":[1,1,1,0,0,0,1,1]},{"tileid":37,"wangid":[1,0,0,0,1,0,1,1]},{"tileid":38,"wangid":[1,0,1,0,1,0,1,1]},{"tileid":39,"wangid":[1,1,1,0,1,0,1,1]},{"tileid":40,"wangid":[1,0,1,1,1,0,1,1]},{"tileid":41,"wangid":[1,1,1,1,1,0,1,1]},{"tileid":42,"wangid":[1,0,0,0,1,1,1,1]},{"tileid":43,"wangid":[1,0,1,0,1,1,1,1]},{"tileid":44,"wangid":[1,1,1,0,1,1,1,1]},{"tileid":45,"wangid":[1,0,1,1,1,1,1,1]},{"tileid":46,"wangid":[1,1,1,1,1,1,1,1]}]}]},{"firstgid":4513,"name":"terrain.qinling@forest","type":"tileset","version":"1.10","tiledversion":"1.11.0","image":"period32/terrain.qinling@forest.png","imagewidth":256,"imageheight":192,"tilewidth":32,"tileheight":32,"tilecount":48,"columns":8,"margin":0,"spacing":0,"wangsets":[{"name":"terrain.qinling@forest","type":"mixed","tile":-1,"colors":[{"name":"terrain.qinling@forest","color":"#ff0000","tile":-1,"probability":1}],"wangtiles":[{"tileid":0,"wangid":[0,0,0,0,0,0,0,0]},{"tileid":1,"wangid":[1,0,0,0,0,0,0,0]},{"tileid":2,"wangid":[0,0,1,0,0,0,0,0]},{"tileid":3,"wangid":[1,0,1,0,0,0,0,0]},{"tileid":4,"wangid":[1,1,1,0,0,0,0,0]},{"tileid":5,"wangid":[0,0,0,0,1,0,0,0]},{"tileid":6,"wangid":[1,0,0,0,1,0,0,0]},{"tileid":7,"wangid":[0,0,1,0,1,0,0,0]},{"tileid":8,"wangid":[1,0,1,0,1,0,0,0]},{"tileid":9,"wangid":[1,1,1,0,1,0,0,0]},{"tileid":10,"wangid":[0,0,1,1,1,0,0,0]},{"tileid":11,"wangid":[1,0,1,1,1,0,0,0]},{"tileid":12,"wangid":[1,1,1,1,1,0,0,0]},{"tileid":13,"wangid":[0,0,0,0,0,0,1,0]},{"tileid":14,"wangid":[1,0,0,0,0,0,1,0]},{"tileid":15,"wangid":[0,0,1,0,0,0,1,0]},{"tileid":16,"wangid":[1,0,1,0,0,0,1,0]},{"tileid":17,"wangid":[1,1,1,0,0,0,1,0]},{"tileid":18,"wangid":[0,0,0,0,1,0,1,0]},{"tileid":19,"wangid":[1,0,0,0,1,0,1,0]},{"tileid":20,"wangid":[0,0,1,0,1,0,1,0]},{"tileid":21,"wangid":[1,0,1,0,1,0,1,0]},{"tileid":22,"wangid":[1,1,1,0,1,0,1,0]},{"tileid":23,"wangid":[0,0,1,1,1,0,1,0]},{"tileid":24,"wangid":[1,0,1,1,1,0,1,0]},{"tileid":25,"wangid":[1,1,1,1,1,0,1,0]},{"tileid":26,"wangid":[0,0,0,0,1,1,1,0]},{"tileid":27,"wangid":[1,0,0,0,1,1,1,0]},{"tileid":28,"wangid":[0,0,1,0,1,1,1,0]},{"tileid":29,"wangid":[1,0,1,0,1,1,1,0]},{"tileid":30,"wangid":[1,1,1,0,1,1,1,0]},{"tileid":31,"wangid":[0,0,1,1,1,1,1,0]},{"tileid":32,"wangid":[1,0,1,1,1,1,1,0]},{"tileid":33,"wangid":[1,1,1,1,1,1,1,0]},{"tileid":34,"wangid":[1,0,0,0,0,0,1,1]},{"tileid":35,"wangid":[1,0,1,0,0,0,1,1]},{"tileid":36,"wangid":[1,1,1,0,0,0,1,1]},{"tileid":37,"wangid":[1,0,0,0,1,0,1,1]},{"tileid":38,"wangid":[1,0,1,0,1,0,1,1]},{"tileid":39,"wangid":[1,1,1,0,1,0,1,1]},{"tileid":40,"wangid":[1,0,1,1,1,0,1,1]},{"tileid":41,"wangid":[1,1,1,1,1,0,1,1]},{"tileid":42,"wangid":[1,0,0,0,1,1,1,1]},{"tileid":43,"wangid":[1,0,1,0,1,1,1,1]},{"tileid":44,"wangid":[1,1,1,0,1,1,1,1]},{"tileid":45,"wangid":[1,0,1,1,1,1,1,1]},{"tileid":46,"wangid":[1,1,1,1,1,1,1,1]}]}]},{"firstgid":4561,"name":"terrain.taihang@scrub","type":"tileset","version":"1.10","tiledversion":"1.11.0","image":"period32/terrain.taihang@scrub.png","imagewidth":256,"imageheight":192,"tilewidth":32,"tileheight":32,"tilecount":48,"columns":8,"margin":0,"spacing":0,"wangsets":[{"name":"terrain.taihang@scrub","type":"mixed","tile":-1,"colors":[{"name":"terrain.taihang@scrub","color":"#ff0000","tile":-1,"probability":1}],"wangtiles":[{"tileid":0,"wangid":[0,0,0,0,0,0,0,0]},{"tileid":1,"wangid":[1,0,0,0,0,0,0,0]},{"tileid":2,"wangid":[0,0,1,0,0,0,0,0]},{"tileid":3,"wangid":[1,0,1,0,0,0,0,0]},{"tileid":4,"wangid":[1,1,1,0,0,0,0,0]},{"tileid":5,"wangid":[0,0,0,0,1,0,0,0]},{"tileid":6,"wangid":[1,0,0,0,1,0,0,0]},{"tileid":7,"wangid":[0,0,1,0,1,0,0,0]},{"tileid":8,"wangid":[1,0,1,0,1,0,0,0]},{"tileid":9,"wangid":[1,1,1,0,1,0,0,0]},{"tileid":10,"wangid":[0,0,1,1,1,0,0,0]},{"tileid":11,"wangid":[1,0,1,1,1,0,0,0]},{"tileid":12,"wangid":[1,1,1,1,1,0,0,0]},{"tileid":13,"wangid":[0,0,0,0,0,0,1,0]},{"tileid":14,"wangid":[1,0,0,0,0,0,1,0]},{"tileid":15,"wangid":[0,0,1,0,0,0,1,0]},{"tileid":16,"wangid":[1,0,1,0,0,0,1,0]},{"tileid":17,"wangid":[1,1,1,0,0,0,1,0]},{"tileid":18,"wangid":[0,0,0,0,1,0,1,0]},{"tileid":19,"wangid":[1,0,0,0,1,0,1,0]},{"tileid":20,"wangid":[0,0,1,0,1,0,1,0]},{"tileid":21,"wangid":[1,0,1,0,1,0,1,0]},{"tileid":22,"wangid":[1,1,1,0,1,0,1,0]},{"tileid":23,"wangid":[0,0,1,1,1,0,1,0]},{"tileid":24,"wangid":[1,0,1,1,1,0,1,0]},{"tileid":25,"wangid":[1,1,1,1,1,0,1,0]},{"tileid":26,"wangid":[0,0,0,0,1,1,1,0]},{"tileid":27,"wangid":[1,0,0,0,1,1,1,0]},{"tileid":28,"wangid":[0,0,1,0,1,1,1,0]},{"tileid":29,"wangid":[1,0,1,0,1,1,1,0]},{"tileid":30,"wangid":[1,1,1,0,1,1,1,0]},{"tileid":31,"wangid":[0,0,1,1,1,1,1,0]},{"tileid":32,"wangid":[1,0,1,1,1,1,1,0]},{"tileid":33,"wangid":[1,1,1,1,1,1,1,0]},{"tileid":34,"wangid":[1,0,0,0,0,0,1,1]},{"tileid":35,"wangid":[1,0,1,0,0,0,1,1]},{"tileid":36,"wangid":[1,1,1,0,0,0,1,1]},{"tileid":37,"wangid":[1,0,0,0,1,0,1,1]},{"tileid":38,"wangid":[1,0,1,0,1,0,1,1]},{"tileid":39,"wangid":[1,1,1,0,1,0,1,1]},{"tileid":40,"wangid":[1,0,1,1,1,0,1,1]},{"tileid":41,"wangid":[1,1,1,1,1,0,1,1]},{"tileid":42,"wangid":[1,0,0,0,1,1,1,1]},{"tileid":43,"wangid":[1,0,1,0,1,1,1,1]},{"tileid":44,"wangid":[1,1,1,0,1,1,1,1]},{"tileid":45,"wangid":[1,0,1,1,1,1,1,1]},{"tileid":46,"wangid":[1,1,1,1,1,1,1,1]}]}]},{"firstgid":4609,"name":"terrain.shu@tallgrass","type":"tileset","version":"1.10","tiledversion":"1.11.0","image":"period32/terrain.shu@tallgrass.png","imagewidth":256,"imageheight":192,"tilewidth":32,"tileheight":32,"tilecount":48,"columns":8,"margin":0,"spacing":0,"wangsets":[{"name":"terrain.shu@tallgrass","type":"mixed","tile":-1,"colors":[{"name":"terrain.shu@tallgrass","color":"#ff0000","tile":-1,"probability":1}],"wangtiles":[{"tileid":0,"wangid":[0,0,0,0,0,0,0,0]},{"tileid":1,"wangid":[1,0,0,0,0,0,0,0]},{"tileid":2,"wangid":[0,0,1,0,0,0,0,0]},{"tileid":3,"wangid":[1,0,1,0,0,0,0,0]},{"tileid":4,"wangid":[1,1,1,0,0,0,0,0]},{"tileid":5,"wangid":[0,0,0,0,1,0,0,0]},{"tileid":6,"wangid":[1,0,0,0,1,0,0,0]},{"tileid":7,"wangid":[0,0,1,0,1,0,0,0]},{"tileid":8,"wangid":[1,0,1,0,1,0,0,0]},{"tileid":9,"wangid":[1,1,1,0,1,0,0,0]},{"tileid":10,"wangid":[0,0,1,1,1,0,0,0]},{"tileid":11,"wangid":[1,0,1,1,1,0,0,0]},{"tileid":12,"wangid":[1,1,1,1,1,0,0,0]},{"tileid":13,"wangid":[0,0,0,0,0,0,1,0]},{"tileid":14,"wangid":[1,0,0,0,0,0,1,0]},{"tileid":15,"wangid":[0,0,1,0,0,0,1,0]},{"tileid":16,"wangid":[1,0,1,0,0,0,1,0]},{"tileid":17,"wangid":[1,1,1,0,0,0,1,0]},{"tileid":18,"wangid":[0,0,0,0,1,0,1,0]},{"tileid":19,"wangid":[1,0,0,0,1,0,1,0]},{"tileid":20,"wangid":[0,0,1,0,1,0,1,0]},{"tileid":21,"wangid":[1,0,1,0,1,0,1,0]},{"tileid":22,"wangid":[1,1,1,0,1,0,1,0]},{"tileid":23,"wangid":[0,0,1,1,1,0,1,0]},{"tileid":24,"wangid":[1,0,1,1,1,0,1,0]},{"tileid":25,"wangid":[1,1,1,1,1,0,1,0]},{"tileid":26,"wangid":[0,0,0,0,1,1,1,0]},{"tileid":27,"wangid":[1,0,0,0,1,1,1,0]},{"tileid":28,"wangid":[0,0,1,0,1,1,1,0]},{"tileid":29,"wangid":[1,0,1,0,1,1,1,0]},{"tileid":30,"wangid":[1,1,1,0,1,1,1,0]},{"tileid":31,"wangid":[0,0,1,1,1,1,1,0]},{"tileid":32,"wangid":[1,0,1,1,1,1,1,0]},{"tileid":33,"wangid":[1,1,1,1,1,1,1,0]},{"tileid":34,"wangid":[1,0,0,0,0,0,1,1]},{"tileid":35,"wangid":[1,0,1,0,0,0,1,1]},{"tileid":36,"wangid":[1,1,1,0,0,0,1,1]},{"tileid":37,"wangid":[1,0,0,0,1,0,1,1]},{"tileid":38,"wangid":[1,0,1,0,1,0,1,1]},{"tileid":39,"wangid":[1,1,1,0,1,0,1,1]},{"tileid":40,"wangid":[1,0,1,1,1,0,1,1]},{"tileid":41,"wangid":[1,1,1,1,1,0,1,1]},{"tileid":42,"wangid":[1,0,0,0,1,1,1,1]},{"tileid":43,"wangid":[1,0,1,0,1,1,1,1]},{"tileid":44,"wangid":[1,1,1,0,1,1,1,1]},{"tileid":45,"wangid":[1,0,1,1,1,1,1,1]},{"tileid":46,"wangid":[1,1,1,1,1,1,1,1]}]}]},{"firstgid":4657,"name":"terrain.shu@forest","type":"tileset","version":"1.10","tiledversion":"1.11.0","image":"period32/terrain.shu@forest.png","imagewidth":256,"imageheight":192,"tilewidth":32,"tileheight":32,"tilecount":48,"columns":8,"margin":0,"spacing":0,"wangsets":[{"name":"terrain.shu@forest","type":"mixed","tile":-1,"colors":[{"name":"terrain.shu@forest","color":"#ff0000","tile":-1,"probability":1}],"wangtiles":[{"tileid":0,"wangid":[0,0,0,0,0,0,0,0]},{"tileid":1,"wangid":[1,0,0,0,0,0,0,0]},{"tileid":2,"wangid":[0,0,1,0,0,0,0,0]},{"tileid":3,"wangid":[1,0,1,0,0,0,0,0]},{"tileid":4,"wangid":[1,1,1,0,0,0,0,0]},{"tileid":5,"wangid":[0,0,0,0,1,0,0,0]},{"tileid":6,"wangid":[1,0,0,0,1,0,0,0]},{"tileid":7,"wangid":[0,0,1,0,1,0,0,0]},{"tileid":8,"wangid":[1,0,1,0,1,0,0,0]},{"tileid":9,"wangid":[1,1,1,0,1,0,0,0]},{"tileid":10,"wangid":[0,0,1,1,1,0,0,0]},{"tileid":11,"wangid":[1,0,1,1,1,0,0,0]},{"tileid":12,"wangid":[1,1,1,1,1,0,0,0]},{"tileid":13,"wangid":[0,0,0,0,0,0,1,0]},{"tileid":14,"wangid":[1,0,0,0,0,0,1,0]},{"tileid":15,"wangid":[0,0,1,0,0,0,1,0]},{"tileid":16,"wangid":[1,0,1,0,0,0,1,0]},{"tileid":17,"wangid":[1,1,1,0,0,0,1,0]},{"tileid":18,"wangid":[0,0,0,0,1,0,1,0]},{"tileid":19,"wangid":[1,0,0,0,1,0,1,0]},{"tileid":20,"wangid":[0,0,1,0,1,0,1,0]},{"tileid":21,"wangid":[1,0,1,0,1,0,1,0]},{"tileid":22,"wangid":[1,1,1,0,1,0,1,0]},{"tileid":23,"wangid":[0,0,1,1,1,0,1,0]},{"tileid":24,"wangid":[1,0,1,1,1,0,1,0]},{"tileid":25,"wangid":[1,1,1,1,1,0,1,0]},{"tileid":26,"wangid":[0,0,0,0,1,1,1,0]},{"tileid":27,"wangid":[1,0,0,0,1,1,1,0]},{"tileid":28,"wangid":[0,0,1,0,1,1,1,0]},{"tileid":29,"wangid":[1,0,1,0,1,1,1,0]},{"tileid":30,"wangid":[1,1,1,0,1,1,1,0]},{"tileid":31,"wangid":[0,0,1,1,1,1,1,0]},{"tileid":32,"wangid":[1,0,1,1,1,1,1,0]},{"tileid":33,"wangid":[1,1,1,1,1,1,1,0]},{"tileid":34,"wangid":[1,0,0,0,0,0,1,1]},{"tileid":35,"wangid":[1,0,1,0,0,0,1,1]},{"tileid":36,"wangid":[1,1,1,0,0,0,1,1]},{"tileid":37,"wangid":[1,0,0,0,1,0,1,1]},{"tileid":38,"wangid":[1,0,1,0,1,0,1,1]},{"tileid":39,"wangid":[1,1,1,0,1,0,1,1]},{"tileid":40,"wangid":[1,0,1,1,1,0,1,1]},{"tileid":41,"wangid":[1,1,1,1,1,0,1,1]},{"tileid":42,"wangid":[1,0,0,0,1,1,1,1]},{"tileid":43,"wangid":[1,0,1,0,1,1,1,1]},{"tileid":44,"wangid":[1,1,1,0,1,1,1,1]},{"tileid":45,"wangid":[1,0,1,1,1,1,1,1]},{"tileid":46,"wangid":[1,1,1,1,1,1,1,1]}]}]},{"firstgid":4705,"name":"terrain.road@tallgrass","type":"tileset","version":"1.10","tiledversion":"1.11.0","image":"period32/terrain.road@tallgrass.png","imagewidth":256,"imageheight":192,"tilewidth":32,"tileheight":32,"tilecount":48,"columns":8,"margin":0,"spacing":0,"wangsets":[{"name":"terrain.road@tallgrass","type":"mixed","tile":-1,"colors":[{"name":"terrain.road@tallgrass","color":"#ff0000","tile":-1,"probability":1}],"wangtiles":[{"tileid":0,"wangid":[0,0,0,0,0,0,0,0]},{"tileid":1,"wangid":[1,0,0,0,0,0,0,0]},{"tileid":2,"wangid":[0,0,1,0,0,0,0,0]},{"tileid":3,"wangid":[1,0,1,0,0,0,0,0]},{"tileid":4,"wangid":[1,1,1,0,0,0,0,0]},{"tileid":5,"wangid":[0,0,0,0,1,0,0,0]},{"tileid":6,"wangid":[1,0,0,0,1,0,0,0]},{"tileid":7,"wangid":[0,0,1,0,1,0,0,0]},{"tileid":8,"wangid":[1,0,1,0,1,0,0,0]},{"tileid":9,"wangid":[1,1,1,0,1,0,0,0]},{"tileid":10,"wangid":[0,0,1,1,1,0,0,0]},{"tileid":11,"wangid":[1,0,1,1,1,0,0,0]},{"tileid":12,"wangid":[1,1,1,1,1,0,0,0]},{"tileid":13,"wangid":[0,0,0,0,0,0,1,0]},{"tileid":14,"wangid":[1,0,0,0,0,0,1,0]},{"tileid":15,"wangid":[0,0,1,0,0,0,1,0]},{"tileid":16,"wangid":[1,0,1,0,0,0,1,0]},{"tileid":17,"wangid":[1,1,1,0,0,0,1,0]},{"tileid":18,"wangid":[0,0,0,0,1,0,1,0]},{"tileid":19,"wangid":[1,0,0,0,1,0,1,0]},{"tileid":20,"wangid":[0,0,1,0,1,0,1,0]},{"tileid":21,"wangid":[1,0,1,0,1,0,1,0]},{"tileid":22,"wangid":[1,1,1,0,1,0,1,0]},{"tileid":23,"wangid":[0,0,1,1,1,0,1,0]},{"tileid":24,"wangid":[1,0,1,1,1,0,1,0]},{"tileid":25,"wangid":[1,1,1,1,1,0,1,0]},{"tileid":26,"wangid":[0,0,0,0,1,1,1,0]},{"tileid":27,"wangid":[1,0,0,0,1,1,1,0]},{"tileid":28,"wangid":[0,0,1,0,1,1,1,0]},{"tileid":29,"wangid":[1,0,1,0,1,1,1,0]},{"tileid":30,"wangid":[1,1,1,0,1,1,1,0]},{"tileid":31,"wangid":[0,0,1,1,1,1,1,0]},{"tileid":32,"wangid":[1,0,1,1,1,1,1,0]},{"tileid":33,"wangid":[1,1,1,1,1,1,1,0]},{"tileid":34,"wangid":[1,0,0,0,0,0,1,1]},{"tileid":35,"wangid":[1,0,1,0,0,0,1,1]},{"tileid":36,"wangid":[1,1,1,0,0,0,1,1]},{"tileid":37,"wangid":[1,0,0,0,1,0,1,1]},{"tileid":38,"wangid":[1,0,1,0,1,0,1,1]},{"tileid":39,"wangid":[1,1,1,0,1,0,1,1]},{"tileid":40,"wangid":[1,0,1,1,1,0,1,1]},{"tileid":41,"wangid":[1,1,1,1,1,0,1,1]},{"tileid":42,"wangid":[1,0,0,0,1,1,1,1]},{"tileid":43,"wangid":[1,0,1,0,1,1,1,1]},{"tileid":44,"wangid":[1,1,1,0,1,1,1,1]},{"tileid":45,"wangid":[1,0,1,1,1,1,1,1]},{"tileid":46,"wangid":[1,1,1,1,1,1,1,1]}]}]},{"firstgid":4753,"name":"terrain.road@field","type":"tileset","version":"1.10","tiledversion":"1.11.0","image":"period32/terrain.road@field.png","imagewidth":256,"imageheight":192,"tilewidth":32,"tileheight":32,"tilecount":48,"columns":8,"margin":0,"spacing":0,"wangsets":[{"name":"terrain.road@field","type":"mixed","tile":-1,"colors":[{"name":"terrain.road@field","color":"#ff0000","tile":-1,"probability":1}],"wangtiles":[{"tileid":0,"wangid":[0,0,0,0,0,0,0,0]},{"tileid":1,"wangid":[1,0,0,0,0,0,0,0]},{"tileid":2,"wangid":[0,0,1,0,0,0,0,0]},{"tileid":3,"wangid":[1,0,1,0,0,0,0,0]},{"tileid":4,"wangid":[1,1,1,0,0,0,0,0]},{"tileid":5,"wangid":[0,0,0,0,1,0,0,0]},{"tileid":6,"wangid":[1,0,0,0,1,0,0,0]},{"tileid":7,"wangid":[0,0,1,0,1,0,0,0]},{"tileid":8,"wangid":[1,0,1,0,1,0,0,0]},{"tileid":9,"wangid":[1,1,1,0,1,0,0,0]},{"tileid":10,"wangid":[0,0,1,1,1,0,0,0]},{"tileid":11,"wangid":[1,0,1,1,1,0,0,0]},{"tileid":12,"wangid":[1,1,1,1,1,0,0,0]},{"tileid":13,"wangid":[0,0,0,0,0,0,1,0]},{"tileid":14,"wangid":[1,0,0,0,0,0,1,0]},{"tileid":15,"wangid":[0,0,1,0,0,0,1,0]},{"tileid":16,"wangid":[1,0,1,0,0,0,1,0]},{"tileid":17,"wangid":[1,1,1,0,0,0,1,0]},{"tileid":18,"wangid":[0,0,0,0,1,0,1,0]},{"tileid":19,"wangid":[1,0,0,0,1,0,1,0]},{"tileid":20,"wangid":[0,0,1,0,1,0,1,0]},{"tileid":21,"wangid":[1,0,1,0,1,0,1,0]},{"tileid":22,"wangid":[1,1,1,0,1,0,1,0]},{"tileid":23,"wangid":[0,0,1,1,1,0,1,0]},{"tileid":24,"wangid":[1,0,1,1,1,0,1,0]},{"tileid":25,"wangid":[1,1,1,1,1,0,1,0]},{"tileid":26,"wangid":[0,0,0,0,1,1,1,0]},{"tileid":27,"wangid":[1,0,0,0,1,1,1,0]},{"tileid":28,"wangid":[0,0,1,0,1,1,1,0]},{"tileid":29,"wangid":[1,0,1,0,1,1,1,0]},{"tileid":30,"wangid":[1,1,1,0,1,1,1,0]},{"tileid":31,"wangid":[0,0,1,1,1,1,1,0]},{"tileid":32,"wangid":[1,0,1,1,1,1,1,0]},{"tileid":33,"wangid":[1,1,1,1,1,1,1,0]},{"tileid":34,"wangid":[1,0,0,0,0,0,1,1]},{"tileid":35,"wangid":[1,0,1,0,0,0,1,1]},{"tileid":36,"wangid":[1,1,1,0,0,0,1,1]},{"tileid":37,"wangid":[1,0,0,0,1,0,1,1]},{"tileid":38,"wangid":[1,0,1,0,1,0,1,1]},{"tileid":39,"wangid":[1,1,1,0,1,0,1,1]},{"tileid":40,"wangid":[1,0,1,1,1,0,1,1]},{"tileid":41,"wangid":[1,1,1,1,1,0,1,1]},{"tileid":42,"wangid":[1,0,0,0,1,1,1,1]},{"tileid":43,"wangid":[1,0,1,0,1,1,1,1]},{"tileid":44,"wangid":[1,1,1,0,1,1,1,1]},{"tileid":45,"wangid":[1,0,1,1,1,1,1,1]},{"tileid":46,"wangid":[1,1,1,1,1,1,1,1]}]}]},{"firstgid":4801,"name":"terrain.road@hills","type":"tileset","version":"1.10","tiledversion":"1.11.0","image":"period32/terrain.road@hills.png","imagewidth":256,"imageheight":192,"tilewidth":32,"tileheight":32,"tilecount":48,"columns":8,"margin":0,"spacing":0,"wangsets":[{"name":"terrain.road@hills","type":"mixed","tile":-1,"colors":[{"name":"terrain.road@hills","color":"#ff0000","tile":-1,"probability":1}],"wangtiles":[{"tileid":0,"wangid":[0,0,0,0,0,0,0,0]},{"tileid":1,"wangid":[1,0,0,0,0,0,0,0]},{"tileid":2,"wangid":[0,0,1,0,0,0,0,0]},{"tileid":3,"wangid":[1,0,1,0,0,0,0,0]},{"tileid":4,"wangid":[1,1,1,0,0,0,0,0]},{"tileid":5,"wangid":[0,0,0,0,1,0,0,0]},{"tileid":6,"wangid":[1,0,0,0,1,0,0,0]},{"tileid":7,"wangid":[0,0,1,0,1,0,0,0]},{"tileid":8,"wangid":[1,0,1,0,1,0,0,0]},{"tileid":9,"wangid":[1,1,1,0,1,0,0,0]},{"tileid":10,"wangid":[0,0,1,1,1,0,0,0]},{"tileid":11,"wangid":[1,0,1,1,1,0,0,0]},{"tileid":12,"wangid":[1,1,1,1,1,0,0,0]},{"tileid":13,"wangid":[0,0,0,0,0,0,1,0]},{"tileid":14,"wangid":[1,0,0,0,0,0,1,0]},{"tileid":15,"wangid":[0,0,1,0,0,0,1,0]},{"tileid":16,"wangid":[1,0,1,0,0,0,1,0]},{"tileid":17,"wangid":[1,1,1,0,0,0,1,0]},{"tileid":18,"wangid":[0,0,0,0,1,0,1,0]},{"tileid":19,"wangid":[1,0,0,0,1,0,1,0]},{"tileid":20,"wangid":[0,0,1,0,1,0,1,0]},{"tileid":21,"wangid":[1,0,1,0,1,0,1,0]},{"tileid":22,"wangid":[1,1,1,0,1,0,1,0]},{"tileid":23,"wangid":[0,0,1,1,1,0,1,0]},{"tileid":24,"wangid":[1,0,1,1,1,0,1,0]},{"tileid":25,"wangid":[1,1,1,1,1,0,1,0]},{"tileid":26,"wangid":[0,0,0,0,1,1,1,0]},{"tileid":27,"wangid":[1,0,0,0,1,1,1,0]},{"tileid":28,"wangid":[0,0,1,0,1,1,1,0]},{"tileid":29,"wangid":[1,0,1,0,1,1,1,0]},{"tileid":30,"wangid":[1,1,1,0,1,1,1,0]},{"tileid":31,"wangid":[0,0,1,1,1,1,1,0]},{"tileid":32,"wangid":[1,0,1,1,1,1,1,0]},{"tileid":33,"wangid":[1,1,1,1,1,1,1,0]},{"tileid":34,"wangid":[1,0,0,0,0,0,1,1]},{"tileid":35,"wangid":[1,0,1,0,0,0,1,1]},{"tileid":36,"wangid":[1,1,1,0,0,0,1,1]},{"tileid":37,"wangid":[1,0,0,0,1,0,1,1]},{"tileid":38,"wangid":[1,0,1,0,1,0,1,1]},{"tileid":39,"wangid":[1,1,1,0,1,0,1,1]},{"tileid":40,"wangid":[1,0,1,1,1,0,1,1]},{"tileid":41,"wangid":[1,1,1,1,1,0,1,1]},{"tileid":42,"wangid":[1,0,0,0,1,1,1,1]},{"tileid":43,"wangid":[1,0,1,0,1,1,1,1]},{"tileid":44,"wangid":[1,1,1,0,1,1,1,1]},{"tileid":45,"wangid":[1,0,1,1,1,1,1,1]},{"tileid":46,"wangid":[1,1,1,1,1,1,1,1]}]}]},{"firstgid":4849,"name":"terrain.road@qinling","type":"tileset","version":"1.10","tiledversion":"1.11.0","image":"period32/terrain.road@qinling.png","imagewidth":256,"imageheight":192,"tilewidth":32,"tileheight":32,"tilecount":48,"columns":8,"margin":0,"spacing":0,"wangsets":[{"name":"terrain.road@qinling","type":"mixed","tile":-1,"colors":[{"name":"terrain.road@qinling","color":"#ff0000","tile":-1,"probability":1}],"wangtiles":[{"tileid":0,"wangid":[0,0,0,0,0,0,0,0]},{"tileid":1,"wangid":[1,0,0,0,0,0,0,0]},{"tileid":2,"wangid":[0,0,1,0,0,0,0,0]},{"tileid":3,"wangid":[1,0,1,0,0,0,0,0]},{"tileid":4,"wangid":[1,1,1,0,0,0,0,0]},{"tileid":5,"wangid":[0,0,0,0,1,0,0,0]},{"tileid":6,"wangid":[1,0,0,0,1,0,0,0]},{"tileid":7,"wangid":[0,0,1,0,1,0,0,0]},{"tileid":8,"wangid":[1,0,1,0,1,0,0,0]},{"tileid":9,"wangid":[1,1,1,0,1,0,0,0]},{"tileid":10,"wangid":[0,0,1,1,1,0,0,0]},{"tileid":11,"wangid":[1,0,1,1,1,0,0,0]},{"tileid":12,"wangid":[1,1,1,1,1,0,0,0]},{"tileid":13,"wangid":[0,0,0,0,0,0,1,0]},{"tileid":14,"wangid":[1,0,0,0,0,0,1,0]},{"tileid":15,"wangid":[0,0,1,0,0,0,1,0]},{"tileid":16,"wangid":[1,0,1,0,0,0,1,0]},{"tileid":17,"wangid":[1,1,1,0,0,0,1,0]},{"tileid":18,"wangid":[0,0,0,0,1,0,1,0]},{"tileid":19,"wangid":[1,0,0,0,1,0,1,0]},{"tileid":20,"wangid":[0,0,1,0,1,0,1,0]},{"tileid":21,"wangid":[1,0,1,0,1,0,1,0]},{"tileid":22,"wangid":[1,1,1,0,1,0,1,0]},{"tileid":23,"wangid":[0,0,1,1,1,0,1,0]},{"tileid":24,"wangid":[1,0,1,1,1,0,1,0]},{"tileid":25,"wangid":[1,1,1,1,1,0,1,0]},{"tileid":26,"wangid":[0,0,0,0,1,1,1,0]},{"tileid":27,"wangid":[1,0,0,0,1,1,1,0]},{"tileid":28,"wangid":[0,0,1,0,1,1,1,0]},{"tileid":29,"wangid":[1,0,1,0,1,1,1,0]},{"tileid":30,"wangid":[1,1,1,0,1,1,1,0]},{"tileid":31,"wangid":[0,0,1,1,1,1,1,0]},{"tileid":32,"wangid":[1,0,1,1,1,1,1,0]},{"tileid":33,"wangid":[1,1,1,1,1,1,1,0]},{"tileid":34,"wangid":[1,0,0,0,0,0,1,1]},{"tileid":35,"wangid":[1,0,1,0,0,0,1,1]},{"tileid":36,"wangid":[1,1,1,0,0,0,1,1]},{"tileid":37,"wangid":[1,0,0,0,1,0,1,1]},{"tileid":38,"wangid":[1,0,1,0,1,0,1,1]},{"tileid":39,"wangid":[1,1,1,0,1,0,1,1]},{"tileid":40,"wangid":[1,0,1,1,1,0,1,1]},{"tileid":41,"wangid":[1,1,1,1,1,0,1,1]},{"tileid":42,"wangid":[1,0,0,0,1,1,1,1]},{"tileid":43,"wangid":[1,0,1,0,1,1,1,1]},{"tileid":44,"wangid":[1,1,1,0,1,1,1,1]},{"tileid":45,"wangid":[1,0,1,1,1,1,1,1]},{"tileid":46,"wangid":[1,1,1,1,1,1,1,1]}]}]},{"firstgid":4897,"name":"terrain.road@shu","type":"tileset","version":"1.10","tiledversion":"1.11.0","image":"period32/terrain.road@shu.png","imagewidth":256,"imageheight":192,"tilewidth":32,"tileheight":32,"tilecount":48,"columns":8,"margin":0,"spacing":0,"wangsets":[{"name":"terrain.road@shu","type":"mixed","tile":-1,"colors":[{"name":"terrain.road@shu","color":"#ff0000","tile":-1,"probability":1}],"wangtiles":[{"tileid":0,"wangid":[0,0,0,0,0,0,0,0]},{"tileid":1,"wangid":[1,0,0,0,0,0,0,0]},{"tileid":2,"wangid":[0,0,1,0,0,0,0,0]},{"tileid":3,"wangid":[1,0,1,0,0,0,0,0]},{"tileid":4,"wangid":[1,1,1,0,0,0,0,0]},{"tileid":5,"wangid":[0,0,0,0,1,0,0,0]},{"tileid":6,"wangid":[1,0,0,0,1,0,0,0]},{"tileid":7,"wangid":[0,0,1,0,1,0,0,0]},{"tileid":8,"wangid":[1,0,1,0,1,0,0,0]},{"tileid":9,"wangid":[1,1,1,0,1,0,0,0]},{"tileid":10,"wangid":[0,0,1,1,1,0,0,0]},{"tileid":11,"wangid":[1,0,1,1,1,0,0,0]},{"tileid":12,"wangid":[1,1,1,1,1,0,0,0]},{"tileid":13,"wangid":[0,0,0,0,0,0,1,0]},{"tileid":14,"wangid":[1,0,0,0,0,0,1,0]},{"tileid":15,"wangid":[0,0,1,0,0,0,1,0]},{"tileid":16,"wangid":[1,0,1,0,0,0,1,0]},{"tileid":17,"wangid":[1,1,1,0,0,0,1,0]},{"tileid":18,"wangid":[0,0,0,0,1,0,1,0]},{"tileid":19,"wangid":[1,0,0,0,1,0,1,0]},{"tileid":20,"wangid":[0,0,1,0,1,0,1,0]},{"tileid":21,"wangid":[1,0,1,0,1,0,1,0]},{"tileid":22,"wangid":[1,1,1,0,1,0,1,0]},{"tileid":23,"wangid":[0,0,1,1,1,0,1,0]},{"tileid":24,"wangid":[1,0,1,1,1,0,1,0]},{"tileid":25,"wangid":[1,1,1,1,1,0,1,0]},{"tileid":26,"wangid":[0,0,0,0,1,1,1,0]},{"tileid":27,"wangid":[1,0,0,0,1,1,1,0]},{"tileid":28,"wangid":[0,0,1,0,1,1,1,0]},{"tileid":29,"wangid":[1,0,1,0,1,1,1,0]},{"tileid":30,"wangid":[1,1,1,0,1,1,1,0]},{"tileid":31,"wangid":[0,0,1,1,1,1,1,0]},{"tileid":32,"wangid":[1,0,1,1,1,1,1,0]},{"tileid":33,"wangid":[1,1,1,1,1,1,1,0]},{"tileid":34,"wangid":[1,0,0,0,0,0,1,1]},{"tileid":35,"wangid":[1,0,1,0,0,0,1,1]},{"tileid":36,"wangid":[1,1,1,0,0,0,1,1]},{"tileid":37,"wangid":[1,0,0,0,1,0,1,1]},{"tileid":38,"wangid":[1,0,1,0,1,0,1,1]},{"tileid":39,"wangid":[1,1,1,0,1,0,1,1]},{"tileid":40,"wangid":[1,0,1,1,1,0,1,1]},{"tileid":41,"wangid":[1,1,1,1,1,0,1,1]},{"tileid":42,"wangid":[1,0,0,0,1,1,1,1]},{"tileid":43,"wangid":[1,0,1,0,1,1,1,1]},{"tileid":44,"wangid":[1,1,1,0,1,1,1,1]},{"tileid":45,"wangid":[1,0,1,1,1,1,1,1]},{"tileid":46,"wangid":[1,1,1,1,1,1,1,1]}]}]},{"firstgid":4945,"name":"terrain.wall@steppe","type":"tileset","version":"1.10","tiledversion":"1.11.0","image":"period32/terrain.wall@steppe.png","imagewidth":256,"imageheight":192,"tilewidth":32,"tileheight":32,"tilecount":48,"columns":8,"margin":0,"spacing":0,"wangsets":[{"name":"terrain.wall@steppe","type":"mixed","tile":-1,"colors":[{"name":"terrain.wall@steppe","color":"#ff0000","tile":-1,"probability":1}],"wangtiles":[{"tileid":0,"wangid":[0,0,0,0,0,0,0,0]},{"tileid":1,"wangid":[1,0,0,0,0,0,0,0]},{"tileid":2,"wangid":[0,0,1,0,0,0,0,0]},{"tileid":3,"wangid":[1,0,1,0,0,0,0,0]},{"tileid":4,"wangid":[1,1,1,0,0,0,0,0]},{"tileid":5,"wangid":[0,0,0,0,1,0,0,0]},{"tileid":6,"wangid":[1,0,0,0,1,0,0,0]},{"tileid":7,"wangid":[0,0,1,0,1,0,0,0]},{"tileid":8,"wangid":[1,0,1,0,1,0,0,0]},{"tileid":9,"wangid":[1,1,1,0,1,0,0,0]},{"tileid":10,"wangid":[0,0,1,1,1,0,0,0]},{"tileid":11,"wangid":[1,0,1,1,1,0,0,0]},{"tileid":12,"wangid":[1,1,1,1,1,0,0,0]},{"tileid":13,"wangid":[0,0,0,0,0,0,1,0]},{"tileid":14,"wangid":[1,0,0,0,0,0,1,0]},{"tileid":15,"wangid":[0,0,1,0,0,0,1,0]},{"tileid":16,"wangid":[1,0,1,0,0,0,1,0]},{"tileid":17,"wangid":[1,1,1,0,0,0,1,0]},{"tileid":18,"wangid":[0,0,0,0,1,0,1,0]},{"tileid":19,"wangid":[1,0,0,0,1,0,1,0]},{"tileid":20,"wangid":[0,0,1,0,1,0,1,0]},{"tileid":21,"wangid":[1,0,1,0,1,0,1,0]},{"tileid":22,"wangid":[1,1,1,0,1,0,1,0]},{"tileid":23,"wangid":[0,0,1,1,1,0,1,0]},{"tileid":24,"wangid":[1,0,1,1,1,0,1,0]},{"tileid":25,"wangid":[1,1,1,1,1,0,1,0]},{"tileid":26,"wangid":[0,0,0,0,1,1,1,0]},{"tileid":27,"wangid":[1,0,0,0,1,1,1,0]},{"tileid":28,"wangid":[0,0,1,0,1,1,1,0]},{"tileid":29,"wangid":[1,0,1,0,1,1,1,0]},{"tileid":30,"wangid":[1,1,1,0,1,1,1,0]},{"tileid":31,"wangid":[0,0,1,1,1,1,1,0]},{"tileid":32,"wangid":[1,0,1,1,1,1,1,0]},{"tileid":33,"wangid":[1,1,1,1,1,1,1,0]},{"tileid":34,"wangid":[1,0,0,0,0,0,1,1]},{"tileid":35,"wangid":[1,0,1,0,0,0,1,1]},{"tileid":36,"wangid":[1,1,1,0,0,0,1,1]},{"tileid":37,"wangid":[1,0,0,0,1,0,1,1]},{"tileid":38,"wangid":[1,0,1,0,1,0,1,1]},{"tileid":39,"wangid":[1,1,1,0,1,0,1,1]},{"tileid":40,"wangid":[1,0,1,1,1,0,1,1]},{"tileid":41,"wangid":[1,1,1,1,1,0,1,1]},{"tileid":42,"wangid":[1,0,0,0,1,1,1,1]},{"tileid":43,"wangid":[1,0,1,0,1,1,1,1]},{"tileid":44,"wangid":[1,1,1,0,1,1,1,1]},{"tileid":45,"wangid":[1,0,1,1,1,1,1,1]},{"tileid":46,"wangid":[1,1,1,1,1,1,1,1]}]}]},{"firstgid":4993,"name":"terrain.wall@hills","type":"tileset","version":"1.10","tiledversion":"1.11.0","image":"period32/terrain.wall@hills.png","imagewidth":256,"imageheight":192,"tilewidth":32,"tileheight":32,"tilecount":48,"columns":8,"margin":0,"spacing":0,"wangsets":[{"name":"terrain.wall@hills","type":"mixed","tile":-1,"colors":[{"name":"terrain.wall@hills","color":"#ff0000","tile":-1,"probability":1}],"wangtiles":[{"tileid":0,"wangid":[0,0,0,0,0,0,0,0]},{"tileid":1,"wangid":[1,0,0,0,0,0,0,0]},{"tileid":2,"wangid":[0,0,1,0,0,0,0,0]},{"tileid":3,"wangid":[1,0,1,0,0,0,0,0]},{"tileid":4,"wangid":[1,1,1,0,0,0,0,0]},{"tileid":5,"wangid":[0,0,0,0,1,0,0,0]},{"tileid":6,"wangid":[1,0,0,0,1,0,0,0]},{"tileid":7,"wangid":[0,0,1,0,1,0,0,0]},{"tileid":8,"wangid":[1,0,1,0,1,0,0,0]},{"tileid":9,"wangid":[1,1,1,0,1,0,0,0]},{"tileid":10,"wangid":[0,0,1,1,1,0,0,0]},{"tileid":11,"wangid":[1,0,1,1,1,0,0,0]},{"tileid":12,"wangid":[1,1,1,1,1,0,0,0]},{"tileid":13,"wangid":[0,0,0,0,0,0,1,0]},{"tileid":14,"wangid":[1,0,0,0,0,0,1,0]},{"tileid":15,"wangid":[0,0,1,0,0,0,1,0]},{"tileid":16,"wangid":[1,0,1,0,0,0,1,0]},{"tileid":17,"wangid":[1,1,1,0,0,0,1,0]},{"tileid":18,"wangid":[0,0,0,0,1,0,1,0]},{"tileid":19,"wangid":[1,0,0,0,1,0,1,0]},{"tileid":20,"wangid":[0,0,1,0,1,0,1,0]},{"tileid":21,"wangid":[1,0,1,0,1,0,1,0]},{"tileid":22,"wangid":[1,1,1,0,1,0,1,0]},{"tileid":23,"wangid":[0,0,1,1,1,0,1,0]},{"tileid":24,"wangid":[1,0,1,1,1,0,1,0]},{"tileid":25,"wangid":[1,1,1,1,1,0,1,0]},{"tileid":26,"wangid":[0,0,0,0,1,1,1,0]},{"tileid":27,"wangid":[1,0,0,0,1,1,1,0]},{"tileid":28,"wangid":[0,0,1,0,1,1,1,0]},{"tileid":29,"wangid":[1,0,1,0,1,1,1,0]},{"tileid":30,"wangid":[1,1,1,0,1,1,1,0]},{"tileid":31,"wangid":[0,0,1,1,1,1,1,0]},{"tileid":32,"wangid":[1,0,1,1,1,1,1,0]},{"tileid":33,"wangid":[1,1,1,1,1,1,1,0]},{"tileid":34,"wangid":[1,0,0,0,0,0,1,1]},{"tileid":35,"wangid":[1,0,1,0,0,0,1,1]},{"tileid":36,"wangid":[1,1,1,0,0,0,1,1]},{"tileid":37,"wangid":[1,0,0,0,1,0,1,1]},{"tileid":38,"wangid":[1,0,1,0,1,0,1,1]},{"tileid":39,"wangid":[1,1,1,0,1,0,1,1]},{"tileid":40,"wangid":[1,0,1,1,1,0,1,1]},{"tileid":41,"wangid":[1,1,1,1,1,0,1,1]},{"tileid":42,"wangid":[1,0,0,0,1,1,1,1]},{"tileid":43,"wangid":[1,0,1,0,1,1,1,1]},{"tileid":44,"wangid":[1,1,1,0,1,1,1,1]},{"tileid":45,"wangid":[1,0,1,1,1,1,1,1]},{"tileid":46,"wangid":[1,1,1,1,1,1,1,1]}]}]},{"firstgid":5041,"name":"water.river@marsh","type":"tileset","version":"1.10","tiledversion":"1.11.0","image":"period32/water.river@marsh.png","imagewidth":256,"imageheight":576,"tilewidth":32,"tileheight":32,"tilecount":144,"columns":8,"margin":0,"spacing":0,"tiles":[{"id":0,"animation":[{"tileid":0,"duration":400},{"tileid":48,"duration":400},{"tileid":96,"duration":400}]},{"id":1,"animation":[{"tileid":1,"duration":400},{"tileid":49,"duration":400},{"tileid":97,"duration":400}]},{"id":2,"animation":[{"tileid":2,"duration":400},{"tileid":50,"duration":400},{"tileid":98,"duration":400}]},{"id":3,"animation":[{"tileid":3,"duration":400},{"tileid":51,"duration":400},{"tileid":99,"duration":400}]},{"id":4,"animation":[{"tileid":4,"duration":400},{"tileid":52,"duration":400},{"tileid":100,"duration":400}]},{"id":5,"animation":[{"tileid":5,"duration":400},{"tileid":53,"duration":400},{"tileid":101,"duration":400}]},{"id":6,"animation":[{"tileid":6,"duration":400},{"tileid":54,"duration":400},{"tileid":102,"duration":400}]},{"id":7,"animation":[{"tileid":7,"duration":400},{"tileid":55,"duration":400},{"tileid":103,"duration":400}]},{"id":8,"animation":[{"tileid":8,"duration":400},{"tileid":56,"duration":400},{"tileid":104,"duration":400}]},{"id":9,"animation":[{"tileid":9,"duration":400},{"tileid":57,"duration":400},{"tileid":105,"duration":400}]},{"id":10,"animation":[{"tileid":10,"duration":400},{"tileid":58,"duration":400},{"tileid":106,"duration":400}]},{"id":11,"animation":[{"tileid":11,"duration":400},{"tileid":59,"duration":400},{"tileid":107,"duration":400}]},{"id":12,"animation":[{"tileid":12,"duration":400},{"tileid":60,"duration":400},{"tileid":108,"duration":400}]},{"id":13,"animation":[{"tileid":13,"duration":400},{"tileid":61,"duration":400},{"tileid":109,"duration":400}]},{"id":14,"animation":[{"tileid":14,"duration":400},{"tileid":62,"duration":400},{"tileid":110,"duration":400}]},{"id":15,"animation":[{"tileid":15,"duration":400},{"tileid":63,"duration":400},{"tileid":111,"duration":400}]},{"id":16,"animation":[{"tileid":16,"duration":400},{"tileid":64,"duration":400},{"tileid":112,"duration":400}]},{"id":17,"animation":[{"tileid":17,"duration":400},{"tileid":65,"duration":400},{"tileid":113,"duration":400}]},{"id":18,"animation":[{"tileid":18,"duration":400},{"tileid":66,"duration":400},{"tileid":114,"duration":400}]},{"id":19,"animation":[{"tileid":19,"duration":400},{"tileid":67,"duration":400},{"tileid":115,"duration":400}]},{"id":20,"animation":[{"tileid":20,"duration":400},{"tileid":68,"duration":400},{"tileid":116,"duration":400}]},{"id":21,"animation":[{"tileid":21,"duration":400},{"tileid":69,"duration":400},{"tileid":117,"duration":400}]},{"id":22,"animation":[{"tileid":22,"duration":400},{"tileid":70,"duration":400},{"tileid":118,"duration":400}]},{"id":23,"animation":[{"tileid":23,"duration":400},{"tileid":71,"duration":400},{"tileid":119,"duration":400}]},{"id":24,"animation":[{"tileid":24,"duration":400},{"tileid":72,"duration":400},{"tileid":120,"duration":400}]},{"id":25,"animation":[{"tileid":25,"duration":400},{"tileid":73,"duration":400},{"tileid":121,"duration":400}]},{"id":26,"animation":[{"tileid":26,"duration":400},{"tileid":74,"duration":400},{"tileid":122,"duration":400}]},{"id":27,"animation":[{"tileid":27,"duration":400},{"tileid":75,"duration":400},{"tileid":123,"duration":400}]},{"id":28,"animation":[{"tileid":28,"duration":400},{"tileid":76,"duration":400},{"tileid":124,"duration":400}]},{"id":29,"animation":[{"tileid":29,"duration":400},{"tileid":77,"duration":400},{"tileid":125,"duration":400}]},{"id":30,"animation":[{"tileid":30,"duration":400},{"tileid":78,"duration":400},{"tileid":126,"duration":400}]},{"id":31,"animation":[{"tileid":31,"duration":400},{"tileid":79,"duration":400},{"tileid":127,"duration":400}]},{"id":32,"animation":[{"tileid":32,"duration":400},{"tileid":80,"duration":400},{"tileid":128,"duration":400}]},{"id":33,"animation":[{"tileid":33,"duration":400},{"tileid":81,"duration":400},{"tileid":129,"duration":400}]},{"id":34,"animation":[{"tileid":34,"duration":400},{"tileid":82,"duration":400},{"tileid":130,"duration":400}]},{"id":35,"animation":[{"tileid":35,"duration":400},{"tileid":83,"duration":400},{"tileid":131,"duration":400}]},{"id":36,"animation":[{"tileid":36,"duration":400},{"tileid":84,"duration":400},{"tileid":132,"duration":400}]},{"id":37,"animation":[{"tileid":37,"duration":400},{"tileid":85,"duration":400},{"tileid":133,"duration":400}]},{"id":38,"animation":[{"tileid":38,"duration":400},{"tileid":86,"duration":400},{"tileid":134,"duration":400}]},{"id":39,"animation":[{"tileid":39,"duration":400},{"tileid":87,"duration":400},{"tileid":135,"duration":400}]},{"id":40,"animation":[{"tileid":40,"duration":400},{"tileid":88,"duration":400},{"tileid":136,"duration":400}]},{"id":41,"animation":[{"tileid":41,"duration":400},{"tileid":89,"duration":400},{"tileid":137,"duration":400}]},{"id":42,"animation":[{"tileid":42,"duration":400},{"tileid":90,"duration":400},{"tileid":138,"duration":400}]},{"id":43,"animation":[{"tileid":43,"duration":400},{"tileid":91,"duration":400},{"tileid":139,"duration":400}]},{"id":44,"animation":[{"tileid":44,"duration":400},{"tileid":92,"duration":400},{"tileid":140,"duration":400}]},{"id":45,"animation":[{"tileid":45,"duration":400},{"tileid":93,"duration":400},{"tileid":141,"duration":400}]},{"id":46,"animation":[{"tileid":46,"duration":400},{"tileid":94,"duration":400},{"tileid":142,"duration":400}]}],"wangsets":[{"name":"water.river@marsh","type":"mixed","tile":-1,"colors":[{"name":"water.river@marsh","color":"#ff0000","tile":-1,"probability":1}],"wangtiles":[{"tileid":0,"wangid":[0,0,0,0,0,0,0,0]},{"tileid":1,"wangid":[1,0,0,0,0,0,0,0]},{"tileid":2,"wangid":[0,0,1,0,0,0,0,0]},{"tileid":3,"wangid":[1,0,1,0,0,0,0,0]},{"tileid":4,"wangid":[1,1,1,0,0,0,0,0]},{"tileid":5,"wangid":[0,0,0,0,1,0,0,0]},{"tileid":6,"wangid":[1,0,0,0,1,0,0,0]},{"tileid":7,"wangid":[0,0,1,0,1,0,0,0]},{"tileid":8,"wangid":[1,0,1,0,1,0,0,0]},{"tileid":9,"wangid":[1,1,1,0,1,0,0,0]},{"tileid":10,"wangid":[0,0,1,1,1,0,0,0]},{"tileid":11,"wangid":[1,0,1,1,1,0,0,0]},{"tileid":12,"wangid":[1,1,1,1,1,0,0,0]},{"tileid":13,"wangid":[0,0,0,0,0,0,1,0]},{"tileid":14,"wangid":[1,0,0,0,0,0,1,0]},{"tileid":15,"wangid":[0,0,1,0,0,0,1,0]},{"tileid":16,"wangid":[1,0,1,0,0,0,1,0]},{"tileid":17,"wangid":[1,1,1,0,0,0,1,0]},{"tileid":18,"wangid":[0,0,0,0,1,0,1,0]},{"tileid":19,"wangid":[1,0,0,0,1,0,1,0]},{"tileid":20,"wangid":[0,0,1,0,1,0,1,0]},{"tileid":21,"wangid":[1,0,1,0,1,0,1,0]},{"tileid":22,"wangid":[1,1,1,0,1,0,1,0]},{"tileid":23,"wangid":[0,0,1,1,1,0,1,0]},{"tileid":24,"wangid":[1,0,1,1,1,0,1,0]},{"tileid":25,"wangid":[1,1,1,1,1,0,1,0]},{"tileid":26,"wangid":[0,0,0,0,1,1,1,0]},{"tileid":27,"wangid":[1,0,0,0,1,1,1,0]},{"tileid":28,"wangid":[0,0,1,0,1,1,1,0]},{"tileid":29,"wangid":[1,0,1,0,1,1,1,0]},{"tileid":30,"wangid":[1,1,1,0,1,1,1,0]},{"tileid":31,"wangid":[0,0,1,1,1,1,1,0]},{"tileid":32,"wangid":[1,0,1,1,1,1,1,0]},{"tileid":33,"wangid":[1,1,1,1,1,1,1,0]},{"tileid":34,"wangid":[1,0,0,0,0,0,1,1]},{"tileid":35,"wangid":[1,0,1,0,0,0,1,1]},{"tileid":36,"wangid":[1,1,1,0,0,0,1,1]},{"tileid":37,"wangid":[1,0,0,0,1,0,1,1]},{"tileid":38,"wangid":[1,0,1,0,1,0,1,1]},{"tileid":39,"wangid":[1,1,1,0,1,0,1,1]},{"tileid":40,"wangid":[1,0,1,1,1,0,1,1]},{"tileid":41,"wangid":[1,1,1,1,1,0,1,1]},{"tileid":42,"wangid":[1,0,0,0,1,1,1,1]},{"tileid":43,"wangid":[1,0,1,0,1,1,1,1]},{"tileid":44,"wangid":[1,1,1,0,1,1,1,1]},{"tileid":45,"wangid":[1,0,1,1,1,1,1,1]},{"tileid":46,"wangid":[1,1,1,1,1,1,1,1]}]}]},{"firstgid":5185,"name":"water.river@tallgrass","type":"tileset","version":"1.10","tiledversion":"1.11.0","image":"period32/water.river@tallgrass.png","imagewidth":256,"imageheight":576,"tilewidth":32,"tileheight":32,"tilecount":144,"columns":8,"margin":0,"spacing":0,"tiles":[{"id":0,"animation":[{"tileid":0,"duration":400},{"tileid":48,"duration":400},{"tileid":96,"duration":400}]},{"id":1,"animation":[{"tileid":1,"duration":400},{"tileid":49,"duration":400},{"tileid":97,"duration":400}]},{"id":2,"animation":[{"tileid":2,"duration":400},{"tileid":50,"duration":400},{"tileid":98,"duration":400}]},{"id":3,"animation":[{"tileid":3,"duration":400},{"tileid":51,"duration":400},{"tileid":99,"duration":400}]},{"id":4,"animation":[{"tileid":4,"duration":400},{"tileid":52,"duration":400},{"tileid":100,"duration":400}]},{"id":5,"animation":[{"tileid":5,"duration":400},{"tileid":53,"duration":400},{"tileid":101,"duration":400}]},{"id":6,"animation":[{"tileid":6,"duration":400},{"tileid":54,"duration":400},{"tileid":102,"duration":400}]},{"id":7,"animation":[{"tileid":7,"duration":400},{"tileid":55,"duration":400},{"tileid":103,"duration":400}]},{"id":8,"animation":[{"tileid":8,"duration":400},{"tileid":56,"duration":400},{"tileid":104,"duration":400}]},{"id":9,"animation":[{"tileid":9,"duration":400},{"tileid":57,"duration":400},{"tileid":105,"duration":400}]},{"id":10,"animation":[{"tileid":10,"duration":400},{"tileid":58,"duration":400},{"tileid":106,"duration":400}]},{"id":11,"animation":[{"tileid":11,"duration":400},{"tileid":59,"duration":400},{"tileid":107,"duration":400}]},{"id":12,"animation":[{"tileid":12,"duration":400},{"tileid":60,"duration":400},{"tileid":108,"duration":400}]},{"id":13,"animation":[{"tileid":13,"duration":400},{"tileid":61,"duration":400},{"tileid":109,"duration":400}]},{"id":14,"animation":[{"tileid":14,"duration":400},{"tileid":62,"duration":400},{"tileid":110,"duration":400}]},{"id":15,"animation":[{"tileid":15,"duration":400},{"tileid":63,"duration":400},{"tileid":111,"duration":400}]},{"id":16,"animation":[{"tileid":16,"duration":400},{"tileid":64,"duration":400},{"tileid":112,"duration":400}]},{"id":17,"animation":[{"tileid":17,"duration":400},{"tileid":65,"duration":400},{"tileid":113,"duration":400}]},{"id":18,"animation":[{"tileid":18,"duration":400},{"tileid":66,"duration":400},{"tileid":114,"duration":400}]},{"id":19,"animation":[{"tileid":19,"duration":400},{"tileid":67,"duration":400},{"tileid":115,"duration":400}]},{"id":20,"animation":[{"tileid":20,"duration":400},{"tileid":68,"duration":400},{"tileid":116,"duration":400}]},{"id":21,"animation":[{"tileid":21,"duration":400},{"tileid":69,"duration":400},{"tileid":117,"duration":400}]},{"id":22,"animation":[{"tileid":22,"duration":400},{"tileid":70,"duration":400},{"tileid":118,"duration":400}]},{"id":23,"animation":[{"tileid":23,"duration":400},{"tileid":71,"duration":400},{"tileid":119,"duration":400}]},{"id":24,"animation":[{"tileid":24,"duration":400},{"tileid":72,"duration":400},{"tileid":120,"duration":400}]},{"id":25,"animation":[{"tileid":25,"duration":400},{"tileid":73,"duration":400},{"tileid":121,"duration":400}]},{"id":26,"animation":[{"tileid":26,"duration":400},{"tileid":74,"duration":400},{"tileid":122,"duration":400}]},{"id":27,"animation":[{"tileid":27,"duration":400},{"tileid":75,"duration":400},{"tileid":123,"duration":400}]},{"id":28,"animation":[{"tileid":28,"duration":400},{"tileid":76,"duration":400},{"tileid":124,"duration":400}]},{"id":29,"animation":[{"tileid":29,"duration":400},{"tileid":77,"duration":400},{"tileid":125,"duration":400}]},{"id":30,"animation":[{"tileid":30,"duration":400},{"tileid":78,"duration":400},{"tileid":126,"duration":400}]},{"id":31,"animation":[{"tileid":31,"duration":400},{"tileid":79,"duration":400},{"tileid":127,"duration":400}]},{"id":32,"animation":[{"tileid":32,"duration":400},{"tileid":80,"duration":400},{"tileid":128,"duration":400}]},{"id":33,"animation":[{"tileid":33,"duration":400},{"tileid":81,"duration":400},{"tileid":129,"duration":400}]},{"id":34,"animation":[{"tileid":34,"duration":400},{"tileid":82,"duration":400},{"tileid":130,"duration":400}]},{"id":35,"animation":[{"tileid":35,"duration":400},{"tileid":83,"duration":400},{"tileid":131,"duration":400}]},{"id":36,"animation":[{"tileid":36,"duration":400},{"tileid":84,"duration":400},{"tileid":132,"duration":400}]},{"id":37,"animation":[{"tileid":37,"duration":400},{"tileid":85,"duration":400},{"tileid":133,"duration":400}]},{"id":38,"animation":[{"tileid":38,"duration":400},{"tileid":86,"duration":400},{"tileid":134,"duration":400}]},{"id":39,"animation":[{"tileid":39,"duration":400},{"tileid":87,"duration":400},{"tileid":135,"duration":400}]},{"id":40,"animation":[{"tileid":40,"duration":400},{"tileid":88,"duration":400},{"tileid":136,"duration":400}]},{"id":41,"animation":[{"tileid":41,"duration":400},{"tileid":89,"duration":400},{"tileid":137,"duration":400}]},{"id":42,"animation":[{"tileid":42,"duration":400},{"tileid":90,"duration":400},{"tileid":138,"duration":400}]},{"id":43,"animation":[{"tileid":43,"duration":400},{"tileid":91,"duration":400},{"tileid":139,"duration":400}]},{"id":44,"animation":[{"tileid":44,"duration":400},{"tileid":92,"duration":400},{"tileid":140,"duration":400}]},{"id":45,"animation":[{"tileid":45,"duration":400},{"tileid":93,"duration":400},{"tileid":141,"duration":400}]},{"id":46,"animation":[{"tileid":46,"duration":400},{"tileid":94,"duration":400},{"tileid":142,"duration":400}]}],"wangsets":[{"name":"water.river@tallgrass","type":"mixed","tile":-1,"colors":[{"name":"water.river@tallgrass","color":"#ff0000","tile":-1,"probability":1}],"wangtiles":[{"tileid":0,"wangid":[0,0,0,0,0,0,0,0]},{"tileid":1,"wangid":[1,0,0,0,0,0,0,0]},{"tileid":2,"wangid":[0,0,1,0,0,0,0,0]},{"tileid":3,"wangid":[1,0,1,0,0,0,0,0]},{"tileid":4,"wangid":[1,1,1,0,0,0,0,0]},{"tileid":5,"wangid":[0,0,0,0,1,0,0,0]},{"tileid":6,"wangid":[1,0,0,0,1,0,0,0]},{"tileid":7,"wangid":[0,0,1,0,1,0,0,0]},{"tileid":8,"wangid":[1,0,1,0,1,0,0,0]},{"tileid":9,"wangid":[1,1,1,0,1,0,0,0]},{"tileid":10,"wangid":[0,0,1,1,1,0,0,0]},{"tileid":11,"wangid":[1,0,1,1,1,0,0,0]},{"tileid":12,"wangid":[1,1,1,1,1,0,0,0]},{"tileid":13,"wangid":[0,0,0,0,0,0,1,0]},{"tileid":14,"wangid":[1,0,0,0,0,0,1,0]},{"tileid":15,"wangid":[0,0,1,0,0,0,1,0]},{"tileid":16,"wangid":[1,0,1,0,0,0,1,0]},{"tileid":17,"wangid":[1,1,1,0,0,0,1,0]},{"tileid":18,"wangid":[0,0,0,0,1,0,1,0]},{"tileid":19,"wangid":[1,0,0,0,1,0,1,0]},{"tileid":20,"wangid":[0,0,1,0,1,0,1,0]},{"tileid":21,"wangid":[1,0,1,0,1,0,1,0]},{"tileid":22,"wangid":[1,1,1,0,1,0,1,0]},{"tileid":23,"wangid":[0,0,1,1,1,0,1,0]},{"tileid":24,"wangid":[1,0,1,1,1,0,1,0]},{"tileid":25,"wangid":[1,1,1,1,1,0,1,0]},{"tileid":26,"wangid":[0,0,0,0,1,1,1,0]},{"tileid":27,"wangid":[1,0,0,0,1,1,1,0]},{"tileid":28,"wangid":[0,0,1,0,1,1,1,0]},{"tileid":29,"wangid":[1,0,1,0,1,1,1,0]},{"tileid":30,"wangid":[1,1,1,0,1,1,1,0]},{"tileid":31,"wangid":[0,0,1,1,1,1,1,0]},{"tileid":32,"wangid":[1,0,1,1,1,1,1,0]},{"tileid":33,"wangid":[1,1,1,1,1,1,1,0]},{"tileid":34,"wangid":[1,0,0,0,0,0,1,1]},{"tileid":35,"wangid":[1,0,1,0,0,0,1,1]},{"tileid":36,"wangid":[1,1,1,0,0,0,1,1]},{"tileid":37,"wangid":[1,0,0,0,1,0,1,1]},{"tileid":38,"wangid":[1,0,1,0,1,0,1,1]},{"tileid":39,"wangid":[1,1,1,0,1,0,1,1]},{"tileid":40,"wangid":[1,0,1,1,1,0,1,1]},{"tileid":41,"wangid":[1,1,1,1,1,0,1,1]},{"tileid":42,"wangid":[1,0,0,0,1,1,1,1]},{"tileid":43,"wangid":[1,0,1,0,1,1,1,1]},{"tileid":44,"wangid":[1,1,1,0,1,1,1,1]},{"tileid":45,"wangid":[1,0,1,1,1,1,1,1]},{"tileid":46,"wangid":[1,1,1,1,1,1,1,1]}]}]},{"firstgid":5329,"name":"water.river@scrub","type":"tileset","version":"1.10","tiledversion":"1.11.0","image":"period32/water.river@scrub.png","imagewidth":256,"imageheight":576,"tilewidth":32,"tileheight":32,"tilecount":144,"columns":8,"margin":0,"spacing":0,"tiles":[{"id":0,"animation":[{"tileid":0,"duration":400},{"tileid":48,"duration":400},{"tileid":96,"duration":400}]},{"id":1,"animation":[{"tileid":1,"duration":400},{"tileid":49,"duration":400},{"tileid":97,"duration":400}]},{"id":2,"animation":[{"tileid":2,"duration":400},{"tileid":50,"duration":400},{"tileid":98,"duration":400}]},{"id":3,"animation":[{"tileid":3,"duration":400},{"tileid":51,"duration":400},{"tileid":99,"duration":400}]},{"id":4,"animation":[{"tileid":4,"duration":400},{"tileid":52,"duration":400},{"tileid":100,"duration":400}]},{"id":5,"animation":[{"tileid":5,"duration":400},{"tileid":53,"duration":400},{"tileid":101,"duration":400}]},{"id":6,"animation":[{"tileid":6,"duration":400},{"tileid":54,"duration":400},{"tileid":102,"duration":400}]},{"id":7,"animation":[{"tileid":7,"duration":400},{"tileid":55,"duration":400},{"tileid":103,"duration":400}]},{"id":8,"animation":[{"tileid":8,"duration":400},{"tileid":56,"duration":400},{"tileid":104,"duration":400}]},{"id":9,"animation":[{"tileid":9,"duration":400},{"tileid":57,"duration":400},{"tileid":105,"duration":400}]},{"id":10,"animation":[{"tileid":10,"duration":400},{"tileid":58,"duration":400},{"tileid":106,"duration":400}]},{"id":11,"animation":[{"tileid":11,"duration":400},{"tileid":59,"duration":400},{"tileid":107,"duration":400}]},{"id":12,"animation":[{"tileid":12,"duration":400},{"tileid":60,"duration":400},{"tileid":108,"duration":400}]},{"id":13,"animation":[{"tileid":13,"duration":400},{"tileid":61,"duration":400},{"tileid":109,"duration":400}]},{"id":14,"animation":[{"tileid":14,"duration":400},{"tileid":62,"duration":400},{"tileid":110,"duration":400}]},{"id":15,"animation":[{"tileid":15,"duration":400},{"tileid":63,"duration":400},{"tileid":111,"duration":400}]},{"id":16,"animation":[{"tileid":16,"duration":400},{"tileid":64,"duration":400},{"tileid":112,"duration":400}]},{"id":17,"animation":[{"tileid":17,"duration":400},{"tileid":65,"duration":400},{"tileid":113,"duration":400}]},{"id":18,"animation":[{"tileid":18,"duration":400},{"tileid":66,"duration":400},{"tileid":114,"duration":400}]},{"id":19,"animation":[{"tileid":19,"duration":400},{"tileid":67,"duration":400},{"tileid":115,"duration":400}]},{"id":20,"animation":[{"tileid":20,"duration":400},{"tileid":68,"duration":400},{"tileid":116,"duration":400}]},{"id":21,"animation":[{"tileid":21,"duration":400},{"tileid":69,"duration":400},{"tileid":117,"duration":400}]},{"id":22,"animation":[{"tileid":22,"duration":400},{"tileid":70,"duration":400},{"tileid":118,"duration":400}]},{"id":23,"animation":[{"tileid":23,"duration":400},{"tileid":71,"duration":400},{"tileid":119,"duration":400}]},{"id":24,"animation":[{"tileid":24,"duration":400},{"tileid":72,"duration":400},{"tileid":120,"duration":400}]},{"id":25,"animation":[{"tileid":25,"duration":400},{"tileid":73,"duration":400},{"tileid":121,"duration":400}]},{"id":26,"animation":[{"tileid":26,"duration":400},{"tileid":74,"duration":400},{"tileid":122,"duration":400}]},{"id":27,"animation":[{"tileid":27,"duration":400},{"tileid":75,"duration":400},{"tileid":123,"duration":400}]},{"id":28,"animation":[{"tileid":28,"duration":400},{"tileid":76,"duration":400},{"tileid":124,"duration":400}]},{"id":29,"animation":[{"tileid":29,"duration":400},{"tileid":77,"duration":400},{"tileid":125,"duration":400}]},{"id":30,"animation":[{"tileid":30,"duration":400},{"tileid":78,"duration":400},{"tileid":126,"duration":400}]},{"id":31,"animation":[{"tileid":31,"duration":400},{"tileid":79,"duration":400},{"tileid":127,"duration":400}]},{"id":32,"animation":[{"tileid":32,"duration":400},{"tileid":80,"duration":400},{"tileid":128,"duration":400}]},{"id":33,"animation":[{"tileid":33,"duration":400},{"tileid":81,"duration":400},{"tileid":129,"duration":400}]},{"id":34,"animation":[{"tileid":34,"duration":400},{"tileid":82,"duration":400},{"tileid":130,"duration":400}]},{"id":35,"animation":[{"tileid":35,"duration":400},{"tileid":83,"duration":400},{"tileid":131,"duration":400}]},{"id":36,"animation":[{"tileid":36,"duration":400},{"tileid":84,"duration":400},{"tileid":132,"duration":400}]},{"id":37,"animation":[{"tileid":37,"duration":400},{"tileid":85,"duration":400},{"tileid":133,"duration":400}]},{"id":38,"animation":[{"tileid":38,"duration":400},{"tileid":86,"duration":400},{"tileid":134,"duration":400}]},{"id":39,"animation":[{"tileid":39,"duration":400},{"tileid":87,"duration":400},{"tileid":135,"duration":400}]},{"id":40,"animation":[{"tileid":40,"duration":400},{"tileid":88,"duration":400},{"tileid":136,"duration":400}]},{"id":41,"animation":[{"tileid":41,"duration":400},{"tileid":89,"duration":400},{"tileid":137,"duration":400}]},{"id":42,"animation":[{"tileid":42,"duration":400},{"tileid":90,"duration":400},{"tileid":138,"duration":400}]},{"id":43,"animation":[{"tileid":43,"duration":400},{"tileid":91,"duration":400},{"tileid":139,"duration":400}]},{"id":44,"animation":[{"tileid":44,"duration":400},{"tileid":92,"duration":400},{"tileid":140,"duration":400}]},{"id":45,"animation":[{"tileid":45,"duration":400},{"tileid":93,"duration":400},{"tileid":141,"duration":400}]},{"id":46,"animation":[{"tileid":46,"duration":400},{"tileid":94,"duration":400},{"tileid":142,"duration":400}]}],"wangsets":[{"name":"water.river@scrub","type":"mixed","tile":-1,"colors":[{"name":"water.river@scrub","color":"#ff0000","tile":-1,"probability":1}],"wangtiles":[{"tileid":0,"wangid":[0,0,0,0,0,0,0,0]},{"tileid":1,"wangid":[1,0,0,0,0,0,0,0]},{"tileid":2,"wangid":[0,0,1,0,0,0,0,0]},{"tileid":3,"wangid":[1,0,1,0,0,0,0,0]},{"tileid":4,"wangid":[1,1,1,0,0,0,0,0]},{"tileid":5,"wangid":[0,0,0,0,1,0,0,0]},{"tileid":6,"wangid":[1,0,0,0,1,0,0,0]},{"tileid":7,"wangid":[0,0,1,0,1,0,0,0]},{"tileid":8,"wangid":[1,0,1,0,1,0,0,0]},{"tileid":9,"wangid":[1,1,1,0,1,0,0,0]},{"tileid":10,"wangid":[0,0,1,1,1,0,0,0]},{"tileid":11,"wangid":[1,0,1,1,1,0,0,0]},{"tileid":12,"wangid":[1,1,1,1,1,0,0,0]},{"tileid":13,"wangid":[0,0,0,0,0,0,1,0]},{"tileid":14,"wangid":[1,0,0,0,0,0,1,0]},{"tileid":15,"wangid":[0,0,1,0,0,0,1,0]},{"tileid":16,"wangid":[1,0,1,0,0,0,1,0]},{"tileid":17,"wangid":[1,1,1,0,0,0,1,0]},{"tileid":18,"wangid":[0,0,0,0,1,0,1,0]},{"tileid":19,"wangid":[1,0,0,0,1,0,1,0]},{"tileid":20,"wangid":[0,0,1,0,1,0,1,0]},{"tileid":21,"wangid":[1,0,1,0,1,0,1,0]},{"tileid":22,"wangid":[1,1,1,0,1,0,1,0]},{"tileid":23,"wangid":[0,0,1,1,1,0,1,0]},{"tileid":24,"wangid":[1,0,1,1,1,0,1,0]},{"tileid":25,"wangid":[1,1,1,1,1,0,1,0]},{"tileid":26,"wangid":[0,0,0,0,1,1,1,0]},{"tileid":27,"wangid":[1,0,0,0,1,1,1,0]},{"tileid":28,"wangid":[0,0,1,0,1,1,1,0]},{"tileid":29,"wangid":[1,0,1,0,1,1,1,0]},{"tileid":30,"wangid":[1,1,1,0,1,1,1,0]},{"tileid":31,"wangid":[0,0,1,1,1,1,1,0]},{"tileid":32,"wangid":[1,0,1,1,1,1,1,0]},{"tileid":33,"wangid":[1,1,1,1,1,1,1,0]},{"tileid":34,"wangid":[1,0,0,0,0,0,1,1]},{"tileid":35,"wangid":[1,0,1,0,0,0,1,1]},{"tileid":36,"wangid":[1,1,1,0,0,0,1,1]},{"tileid":37,"wangid":[1,0,0,0,1,0,1,1]},{"tileid":38,"wangid":[1,0,1,0,1,0,1,1]},{"tileid":39,"wangid":[1,1,1,0,1,0,1,1]},{"tileid":40,"wangid":[1,0,1,1,1,0,1,1]},{"tileid":41,"wangid":[1,1,1,1,1,0,1,1]},{"tileid":42,"wangid":[1,0,0,0,1,1,1,1]},{"tileid":43,"wangid":[1,0,1,0,1,1,1,1]},{"tileid":44,"wangid":[1,1,1,0,1,1,1,1]},{"tileid":45,"wangid":[1,0,1,1,1,1,1,1]},{"tileid":46,"wangid":[1,1,1,1,1,1,1,1]}]}]},{"firstgid":5473,"name":"water.river@loess","type":"tileset","version":"1.10","tiledversion":"1.11.0","image":"period32/water.river@loess.png","imagewidth":256,"imageheight":576,"tilewidth":32,"tileheight":32,"tilecount":144,"columns":8,"margin":0,"spacing":0,"tiles":[{"id":0,"animation":[{"tileid":0,"duration":400},{"tileid":48,"duration":400},{"tileid":96,"duration":400}]},{"id":1,"animation":[{"tileid":1,"duration":400},{"tileid":49,"duration":400},{"tileid":97,"duration":400}]},{"id":2,"animation":[{"tileid":2,"duration":400},{"tileid":50,"duration":400},{"tileid":98,"duration":400}]},{"id":3,"animation":[{"tileid":3,"duration":400},{"tileid":51,"duration":400},{"tileid":99,"duration":400}]},{"id":4,"animation":[{"tileid":4,"duration":400},{"tileid":52,"duration":400},{"tileid":100,"duration":400}]},{"id":5,"animation":[{"tileid":5,"duration":400},{"tileid":53,"duration":400},{"tileid":101,"duration":400}]},{"id":6,"animation":[{"tileid":6,"duration":400},{"tileid":54,"duration":400},{"tileid":102,"duration":400}]},{"id":7,"animation":[{"tileid":7,"duration":400},{"tileid":55,"duration":400},{"tileid":103,"duration":400}]},{"id":8,"animation":[{"tileid":8,"duration":400},{"tileid":56,"duration":400},{"tileid":104,"duration":400}]},{"id":9,"animation":[{"tileid":9,"duration":400},{"tileid":57,"duration":400},{"tileid":105,"duration":400}]},{"id":10,"animation":[{"tileid":10,"duration":400},{"tileid":58,"duration":400},{"tileid":106,"duration":400}]},{"id":11,"animation":[{"tileid":11,"duration":400},{"tileid":59,"duration":400},{"tileid":107,"duration":400}]},{"id":12,"animation":[{"tileid":12,"duration":400},{"tileid":60,"duration":400},{"tileid":108,"duration":400}]},{"id":13,"animation":[{"tileid":13,"duration":400},{"tileid":61,"duration":400},{"tileid":109,"duration":400}]},{"id":14,"animation":[{"tileid":14,"duration":400},{"tileid":62,"duration":400},{"tileid":110,"duration":400}]},{"id":15,"animation":[{"tileid":15,"duration":400},{"tileid":63,"duration":400},{"tileid":111,"duration":400}]},{"id":16,"animation":[{"tileid":16,"duration":400},{"tileid":64,"duration":400},{"tileid":112,"duration":400}]},{"id":17,"animation":[{"tileid":17,"duration":400},{"tileid":65,"duration":400},{"tileid":113,"duration":400}]},{"id":18,"animation":[{"tileid":18,"duration":400},{"tileid":66,"duration":400},{"tileid":114,"duration":400}]},{"id":19,"animation":[{"tileid":19,"duration":400},{"tileid":67,"duration":400},{"tileid":115,"duration":400}]},{"id":20,"animation":[{"tileid":20,"duration":400},{"tileid":68,"duration":400},{"tileid":116,"duration":400}]},{"id":21,"animation":[{"tileid":21,"duration":400},{"tileid":69,"duration":400},{"tileid":117,"duration":400}]},{"id":22,"animation":[{"tileid":22,"duration":400},{"tileid":70,"duration":400},{"tileid":118,"duration":400}]},{"id":23,"animation":[{"tileid":23,"duration":400},{"tileid":71,"duration":400},{"tileid":119,"duration":400}]},{"id":24,"animation":[{"tileid":24,"duration":400},{"tileid":72,"duration":400},{"tileid":120,"duration":400}]},{"id":25,"animation":[{"tileid":25,"duration":400},{"tileid":73,"duration":400},{"tileid":121,"duration":400}]},{"id":26,"animation":[{"tileid":26,"duration":400},{"tileid":74,"duration":400},{"tileid":122,"duration":400}]},{"id":27,"animation":[{"tileid":27,"duration":400},{"tileid":75,"duration":400},{"tileid":123,"duration":400}]},{"id":28,"animation":[{"tileid":28,"duration":400},{"tileid":76,"duration":400},{"tileid":124,"duration":400}]},{"id":29,"animation":[{"tileid":29,"duration":400},{"tileid":77,"duration":400},{"tileid":125,"duration":400}]},{"id":30,"animation":[{"tileid":30,"duration":400},{"tileid":78,"duration":400},{"tileid":126,"duration":400}]},{"id":31,"animation":[{"tileid":31,"duration":400},{"tileid":79,"duration":400},{"tileid":127,"duration":400}]},{"id":32,"animation":[{"tileid":32,"duration":400},{"tileid":80,"duration":400},{"tileid":128,"duration":400}]},{"id":33,"animation":[{"tileid":33,"duration":400},{"tileid":81,"duration":400},{"tileid":129,"duration":400}]},{"id":34,"animation":[{"tileid":34,"duration":400},{"tileid":82,"duration":400},{"tileid":130,"duration":400}]},{"id":35,"animation":[{"tileid":35,"duration":400},{"tileid":83,"duration":400},{"tileid":131,"duration":400}]},{"id":36,"animation":[{"tileid":36,"duration":400},{"tileid":84,"duration":400},{"tileid":132,"duration":400}]},{"id":37,"animation":[{"tileid":37,"duration":400},{"tileid":85,"duration":400},{"tileid":133,"duration":400}]},{"id":38,"animation":[{"tileid":38,"duration":400},{"tileid":86,"duration":400},{"tileid":134,"duration":400}]},{"id":39,"animation":[{"tileid":39,"duration":400},{"tileid":87,"duration":400},{"tileid":135,"duration":400}]},{"id":40,"animation":[{"tileid":40,"duration":400},{"tileid":88,"duration":400},{"tileid":136,"duration":400}]},{"id":41,"animation":[{"tileid":41,"duration":400},{"tileid":89,"duration":400},{"tileid":137,"duration":400}]},{"id":42,"animation":[{"tileid":42,"duration":400},{"tileid":90,"duration":400},{"tileid":138,"duration":400}]},{"id":43,"animation":[{"tileid":43,"duration":400},{"tileid":91,"duration":400},{"tileid":139,"duration":400}]},{"id":44,"animation":[{"tileid":44,"duration":400},{"tileid":92,"duration":400},{"tileid":140,"duration":400}]},{"id":45,"animation":[{"tileid":45,"duration":400},{"tileid":93,"duration":400},{"tileid":141,"duration":400}]},{"id":46,"animation":[{"tileid":46,"duration":400},{"tileid":94,"duration":400},{"tileid":142,"duration":400}]}],"wangsets":[{"name":"water.river@loess","type":"mixed","tile":-1,"colors":[{"name":"water.river@loess","color":"#ff0000","tile":-1,"probability":1}],"wangtiles":[{"tileid":0,"wangid":[0,0,0,0,0,0,0,0]},{"tileid":1,"wangid":[1,0,0,0,0,0,0,0]},{"tileid":2,"wangid":[0,0,1,0,0,0,0,0]},{"tileid":3,"wangid":[1,0,1,0,0,0,0,0]},{"tileid":4,"wangid":[1,1,1,0,0,0,0,0]},{"tileid":5,"wangid":[0,0,0,0,1,0,0,0]},{"tileid":6,"wangid":[1,0,0,0,1,0,0,0]},{"tileid":7,"wangid":[0,0,1,0,1,0,0,0]},{"tileid":8,"wangid":[1,0,1,0,1,0,0,0]},{"tileid":9,"wangid":[1,1,1,0,1,0,0,0]},{"tileid":10,"wangid":[0,0,1,1,1,0,0,0]},{"tileid":11,"wangid":[1,0,1,1,1,0,0,0]},{"tileid":12,"wangid":[1,1,1,1,1,0,0,0]},{"tileid":13,"wangid":[0,0,0,0,0,0,1,0]},{"tileid":14,"wangid":[1,0,0,0,0,0,1,0]},{"tileid":15,"wangid":[0,0,1,0,0,0,1,0]},{"tileid":16,"wangid":[1,0,1,0,0,0,1,0]},{"tileid":17,"wangid":[1,1,1,0,0,0,1,0]},{"tileid":18,"wangid":[0,0,0,0,1,0,1,0]},{"tileid":19,"wangid":[1,0,0,0,1,0,1,0]},{"tileid":20,"wangid":[0,0,1,0,1,0,1,0]},{"tileid":21,"wangid":[1,0,1,0,1,0,1,0]},{"tileid":22,"wangid":[1,1,1,0,1,0,1,0]},{"tileid":23,"wangid":[0,0,1,1,1,0,1,0]},{"tileid":24,"wangid":[1,0,1,1,1,0,1,0]},{"tileid":25,"wangid":[1,1,1,1,1,0,1,0]},{"tileid":26,"wangid":[0,0,0,0,1,1,1,0]},{"tileid":27,"wangid":[1,0,0,0,1,1,1,0]},{"tileid":28,"wangid":[0,0,1,0,1,1,1,0]},{"tileid":29,"wangid":[1,0,1,0,1,1,1,0]},{"tileid":30,"wangid":[1,1,1,0,1,1,1,0]},{"tileid":31,"wangid":[0,0,1,1,1,1,1,0]},{"tileid":32,"wangid":[1,0,1,1,1,1,1,0]},{"tileid":33,"wangid":[1,1,1,1,1,1,1,0]},{"tileid":34,"wangid":[1,0,0,0,0,0,1,1]},{"tileid":35,"wangid":[1,0,1,0,0,0,1,1]},{"tileid":36,"wangid":[1,1,1,0,0,0,1,1]},{"tileid":37,"wangid":[1,0,0,0,1,0,1,1]},{"tileid":38,"wangid":[1,0,1,0,1,0,1,1]},{"tileid":39,"wangid":[1,1,1,0,1,0,1,1]},{"tileid":40,"wangid":[1,0,1,1,1,0,1,1]},{"tileid":41,"wangid":[1,1,1,1,1,0,1,1]},{"tileid":42,"wangid":[1,0,0,0,1,1,1,1]},{"tileid":43,"wangid":[1,0,1,0,1,1,1,1]},{"tileid":44,"wangid":[1,1,1,0,1,1,1,1]},{"tileid":45,"wangid":[1,0,1,1,1,1,1,1]},{"tileid":46,"wangid":[1,1,1,1,1,1,1,1]}]}]},{"firstgid":5617,"name":"water.river@steppe","type":"tileset","version":"1.10","tiledversion":"1.11.0","image":"period32/water.river@steppe.png","imagewidth":256,"imageheight":576,"tilewidth":32,"tileheight":32,"tilecount":144,"columns":8,"margin":0,"spacing":0,"tiles":[{"id":0,"animation":[{"tileid":0,"duration":400},{"tileid":48,"duration":400},{"tileid":96,"duration":400}]},{"id":1,"animation":[{"tileid":1,"duration":400},{"tileid":49,"duration":400},{"tileid":97,"duration":400}]},{"id":2,"animation":[{"tileid":2,"duration":400},{"tileid":50,"duration":400},{"tileid":98,"duration":400}]},{"id":3,"animation":[{"tileid":3,"duration":400},{"tileid":51,"duration":400},{"tileid":99,"duration":400}]},{"id":4,"animation":[{"tileid":4,"duration":400},{"tileid":52,"duration":400},{"tileid":100,"duration":400}]},{"id":5,"animation":[{"tileid":5,"duration":400},{"tileid":53,"duration":400},{"tileid":101,"duration":400}]},{"id":6,"animation":[{"tileid":6,"duration":400},{"tileid":54,"duration":400},{"tileid":102,"duration":400}]},{"id":7,"animation":[{"tileid":7,"duration":400},{"tileid":55,"duration":400},{"tileid":103,"duration":400}]},{"id":8,"animation":[{"tileid":8,"duration":400},{"tileid":56,"duration":400},{"tileid":104,"duration":400}]},{"id":9,"animation":[{"tileid":9,"duration":400},{"tileid":57,"duration":400},{"tileid":105,"duration":400}]},{"id":10,"animation":[{"tileid":10,"duration":400},{"tileid":58,"duration":400},{"tileid":106,"duration":400}]},{"id":11,"animation":[{"tileid":11,"duration":400},{"tileid":59,"duration":400},{"tileid":107,"duration":400}]},{"id":12,"animation":[{"tileid":12,"duration":400},{"tileid":60,"duration":400},{"tileid":108,"duration":400}]},{"id":13,"animation":[{"tileid":13,"duration":400},{"tileid":61,"duration":400},{"tileid":109,"duration":400}]},{"id":14,"animation":[{"tileid":14,"duration":400},{"tileid":62,"duration":400},{"tileid":110,"duration":400}]},{"id":15,"animation":[{"tileid":15,"duration":400},{"tileid":63,"duration":400},{"tileid":111,"duration":400}]},{"id":16,"animation":[{"tileid":16,"duration":400},{"tileid":64,"duration":400},{"tileid":112,"duration":400}]},{"id":17,"animation":[{"tileid":17,"duration":400},{"tileid":65,"duration":400},{"tileid":113,"duration":400}]},{"id":18,"animation":[{"tileid":18,"duration":400},{"tileid":66,"duration":400},{"tileid":114,"duration":400}]},{"id":19,"animation":[{"tileid":19,"duration":400},{"tileid":67,"duration":400},{"tileid":115,"duration":400}]},{"id":20,"animation":[{"tileid":20,"duration":400},{"tileid":68,"duration":400},{"tileid":116,"duration":400}]},{"id":21,"animation":[{"tileid":21,"duration":400},{"tileid":69,"duration":400},{"tileid":117,"duration":400}]},{"id":22,"animation":[{"tileid":22,"duration":400},{"tileid":70,"duration":400},{"tileid":118,"duration":400}]},{"id":23,"animation":[{"tileid":23,"duration":400},{"tileid":71,"duration":400},{"tileid":119,"duration":400}]},{"id":24,"animation":[{"tileid":24,"duration":400},{"tileid":72,"duration":400},{"tileid":120,"duration":400}]},{"id":25,"animation":[{"tileid":25,"duration":400},{"tileid":73,"duration":400},{"tileid":121,"duration":400}]},{"id":26,"animation":[{"tileid":26,"duration":400},{"tileid":74,"duration":400},{"tileid":122,"duration":400}]},{"id":27,"animation":[{"tileid":27,"duration":400},{"tileid":75,"duration":400},{"tileid":123,"duration":400}]},{"id":28,"animation":[{"tileid":28,"duration":400},{"tileid":76,"duration":400},{"tileid":124,"duration":400}]},{"id":29,"animation":[{"tileid":29,"duration":400},{"tileid":77,"duration":400},{"tileid":125,"duration":400}]},{"id":30,"animation":[{"tileid":30,"duration":400},{"tileid":78,"duration":400},{"tileid":126,"duration":400}]},{"id":31,"animation":[{"tileid":31,"duration":400},{"tileid":79,"duration":400},{"tileid":127,"duration":400}]},{"id":32,"animation":[{"tileid":32,"duration":400},{"tileid":80,"duration":400},{"tileid":128,"duration":400}]},{"id":33,"animation":[{"tileid":33,"duration":400},{"tileid":81,"duration":400},{"tileid":129,"duration":400}]},{"id":34,"animation":[{"tileid":34,"duration":400},{"tileid":82,"duration":400},{"tileid":130,"duration":400}]},{"id":35,"animation":[{"tileid":35,"duration":400},{"tileid":83,"duration":400},{"tileid":131,"duration":400}]},{"id":36,"animation":[{"tileid":36,"duration":400},{"tileid":84,"duration":400},{"tileid":132,"duration":400}]},{"id":37,"animation":[{"tileid":37,"duration":400},{"tileid":85,"duration":400},{"tileid":133,"duration":400}]},{"id":38,"animation":[{"tileid":38,"duration":400},{"tileid":86,"duration":400},{"tileid":134,"duration":400}]},{"id":39,"animation":[{"tileid":39,"duration":400},{"tileid":87,"duration":400},{"tileid":135,"duration":400}]},{"id":40,"animation":[{"tileid":40,"duration":400},{"tileid":88,"duration":400},{"tileid":136,"duration":400}]},{"id":41,"animation":[{"tileid":41,"duration":400},{"tileid":89,"duration":400},{"tileid":137,"duration":400}]},{"id":42,"animation":[{"tileid":42,"duration":400},{"tileid":90,"duration":400},{"tileid":138,"duration":400}]},{"id":43,"animation":[{"tileid":43,"duration":400},{"tileid":91,"duration":400},{"tileid":139,"duration":400}]},{"id":44,"animation":[{"tileid":44,"duration":400},{"tileid":92,"duration":400},{"tileid":140,"duration":400}]},{"id":45,"animation":[{"tileid":45,"duration":400},{"tileid":93,"duration":400},{"tileid":141,"duration":400}]},{"id":46,"animation":[{"tileid":46,"duration":400},{"tileid":94,"duration":400},{"tileid":142,"duration":400}]}],"wangsets":[{"name":"water.river@steppe","type":"mixed","tile":-1,"colors":[{"name":"water.river@steppe","color":"#ff0000","tile":-1,"probability":1}],"wangtiles":[{"tileid":0,"wangid":[0,0,0,0,0,0,0,0]},{"tileid":1,"wangid":[1,0,0,0,0,0,0,0]},{"tileid":2,"wangid":[0,0,1,0,0,0,0,0]},{"tileid":3,"wangid":[1,0,1,0,0,0,0,0]},{"tileid":4,"wangid":[1,1,1,0,0,0,0,0]},{"tileid":5,"wangid":[0,0,0,0,1,0,0,0]},{"tileid":6,"wangid":[1,0,0,0,1,0,0,0]},{"tileid":7,"wangid":[0,0,1,0,1,0,0,0]},{"tileid":8,"wangid":[1,0,1,0,1,0,0,0]},{"tileid":9,"wangid":[1,1,1,0,1,0,0,0]},{"tileid":10,"wangid":[0,0,1,1,1,0,0,0]},{"tileid":11,"wangid":[1,0,1,1,1,0,0,0]},{"tileid":12,"wangid":[1,1,1,1,1,0,0,0]},{"tileid":13,"wangid":[0,0,0,0,0,0,1,0]},{"tileid":14,"wangid":[1,0,0,0,0,0,1,0]},{"tileid":15,"wangid":[0,0,1,0,0,0,1,0]},{"tileid":16,"wangid":[1,0,1,0,0,0,1,0]},{"tileid":17,"wangid":[1,1,1,0,0,0,1,0]},{"tileid":18,"wangid":[0,0,0,0,1,0,1,0]},{"tileid":19,"wangid":[1,0,0,0,1,0,1,0]},{"tileid":20,"wangid":[0,0,1,0,1,0,1,0]},{"tileid":21,"wangid":[1,0,1,0,1,0,1,0]},{"tileid":22,"wangid":[1,1,1,0,1,0,1,0]},{"tileid":23,"wangid":[0,0,1,1,1,0,1,0]},{"tileid":24,"wangid":[1,0,1,1,1,0,1,0]},{"tileid":25,"wangid":[1,1,1,1,1,0,1,0]},{"tileid":26,"wangid":[0,0,0,0,1,1,1,0]},{"tileid":27,"wangid":[1,0,0,0,1,1,1,0]},{"tileid":28,"wangid":[0,0,1,0,1,1,1,0]},{"tileid":29,"wangid":[1,0,1,0,1,1,1,0]},{"tileid":30,"wangid":[1,1,1,0,1,1,1,0]},{"tileid":31,"wangid":[0,0,1,1,1,1,1,0]},{"tileid":32,"wangid":[1,0,1,1,1,1,1,0]},{"tileid":33,"wangid":[1,1,1,1,1,1,1,0]},{"tileid":34,"wangid":[1,0,0,0,0,0,1,1]},{"tileid":35,"wangid":[1,0,1,0,0,0,1,1]},{"tileid":36,"wangid":[1,1,1,0,0,0,1,1]},{"tileid":37,"wangid":[1,0,0,0,1,0,1,1]},{"tileid":38,"wangid":[1,0,1,0,1,0,1,1]},{"tileid":39,"wangid":[1,1,1,0,1,0,1,1]},{"tileid":40,"wangid":[1,0,1,1,1,0,1,1]},{"tileid":41,"wangid":[1,1,1,1,1,0,1,1]},{"tileid":42,"wangid":[1,0,0,0,1,1,1,1]},{"tileid":43,"wangid":[1,0,1,0,1,1,1,1]},{"tileid":44,"wangid":[1,1,1,0,1,1,1,1]},{"tileid":45,"wangid":[1,0,1,1,1,1,1,1]},{"tileid":46,"wangid":[1,1,1,1,1,1,1,1]}]}]},{"firstgid":5761,"name":"water.river@field","type":"tileset","version":"1.10","tiledversion":"1.11.0","image":"period32/water.river@field.png","imagewidth":256,"imageheight":576,"tilewidth":32,"tileheight":32,"tilecount":144,"columns":8,"margin":0,"spacing":0,"tiles":[{"id":0,"animation":[{"tileid":0,"duration":400},{"tileid":48,"duration":400},{"tileid":96,"duration":400}]},{"id":1,"animation":[{"tileid":1,"duration":400},{"tileid":49,"duration":400},{"tileid":97,"duration":400}]},{"id":2,"animation":[{"tileid":2,"duration":400},{"tileid":50,"duration":400},{"tileid":98,"duration":400}]},{"id":3,"animation":[{"tileid":3,"duration":400},{"tileid":51,"duration":400},{"tileid":99,"duration":400}]},{"id":4,"animation":[{"tileid":4,"duration":400},{"tileid":52,"duration":400},{"tileid":100,"duration":400}]},{"id":5,"animation":[{"tileid":5,"duration":400},{"tileid":53,"duration":400},{"tileid":101,"duration":400}]},{"id":6,"animation":[{"tileid":6,"duration":400},{"tileid":54,"duration":400},{"tileid":102,"duration":400}]},{"id":7,"animation":[{"tileid":7,"duration":400},{"tileid":55,"duration":400},{"tileid":103,"duration":400}]},{"id":8,"animation":[{"tileid":8,"duration":400},{"tileid":56,"duration":400},{"tileid":104,"duration":400}]},{"id":9,"animation":[{"tileid":9,"duration":400},{"tileid":57,"duration":400},{"tileid":105,"duration":400}]},{"id":10,"animation":[{"tileid":10,"duration":400},{"tileid":58,"duration":400},{"tileid":106,"duration":400}]},{"id":11,"animation":[{"tileid":11,"duration":400},{"tileid":59,"duration":400},{"tileid":107,"duration":400}]},{"id":12,"animation":[{"tileid":12,"duration":400},{"tileid":60,"duration":400},{"tileid":108,"duration":400}]},{"id":13,"animation":[{"tileid":13,"duration":400},{"tileid":61,"duration":400},{"tileid":109,"duration":400}]},{"id":14,"animation":[{"tileid":14,"duration":400},{"tileid":62,"duration":400},{"tileid":110,"duration":400}]},{"id":15,"animation":[{"tileid":15,"duration":400},{"tileid":63,"duration":400},{"tileid":111,"duration":400}]},{"id":16,"animation":[{"tileid":16,"duration":400},{"tileid":64,"duration":400},{"tileid":112,"duration":400}]},{"id":17,"animation":[{"tileid":17,"duration":400},{"tileid":65,"duration":400},{"tileid":113,"duration":400}]},{"id":18,"animation":[{"tileid":18,"duration":400},{"tileid":66,"duration":400},{"tileid":114,"duration":400}]},{"id":19,"animation":[{"tileid":19,"duration":400},{"tileid":67,"duration":400},{"tileid":115,"duration":400}]},{"id":20,"animation":[{"tileid":20,"duration":400},{"tileid":68,"duration":400},{"tileid":116,"duration":400}]},{"id":21,"animation":[{"tileid":21,"duration":400},{"tileid":69,"duration":400},{"tileid":117,"duration":400}]},{"id":22,"animation":[{"tileid":22,"duration":400},{"tileid":70,"duration":400},{"tileid":118,"duration":400}]},{"id":23,"animation":[{"tileid":23,"duration":400},{"tileid":71,"duration":400},{"tileid":119,"duration":400}]},{"id":24,"animation":[{"tileid":24,"duration":400},{"tileid":72,"duration":400},{"tileid":120,"duration":400}]},{"id":25,"animation":[{"tileid":25,"duration":400},{"tileid":73,"duration":400},{"tileid":121,"duration":400}]},{"id":26,"animation":[{"tileid":26,"duration":400},{"tileid":74,"duration":400},{"tileid":122,"duration":400}]},{"id":27,"animation":[{"tileid":27,"duration":400},{"tileid":75,"duration":400},{"tileid":123,"duration":400}]},{"id":28,"animation":[{"tileid":28,"duration":400},{"tileid":76,"duration":400},{"tileid":124,"duration":400}]},{"id":29,"animation":[{"tileid":29,"duration":400},{"tileid":77,"duration":400},{"tileid":125,"duration":400}]},{"id":30,"animation":[{"tileid":30,"duration":400},{"tileid":78,"duration":400},{"tileid":126,"duration":400}]},{"id":31,"animation":[{"tileid":31,"duration":400},{"tileid":79,"duration":400},{"tileid":127,"duration":400}]},{"id":32,"animation":[{"tileid":32,"duration":400},{"tileid":80,"duration":400},{"tileid":128,"duration":400}]},{"id":33,"animation":[{"tileid":33,"duration":400},{"tileid":81,"duration":400},{"tileid":129,"duration":400}]},{"id":34,"animation":[{"tileid":34,"duration":400},{"tileid":82,"duration":400},{"tileid":130,"duration":400}]},{"id":35,"animation":[{"tileid":35,"duration":400},{"tileid":83,"duration":400},{"tileid":131,"duration":400}]},{"id":36,"animation":[{"tileid":36,"duration":400},{"tileid":84,"duration":400},{"tileid":132,"duration":400}]},{"id":37,"animation":[{"tileid":37,"duration":400},{"tileid":85,"duration":400},{"tileid":133,"duration":400}]},{"id":38,"animation":[{"tileid":38,"duration":400},{"tileid":86,"duration":400},{"tileid":134,"duration":400}]},{"id":39,"animation":[{"tileid":39,"duration":400},{"tileid":87,"duration":400},{"tileid":135,"duration":400}]},{"id":40,"animation":[{"tileid":40,"duration":400},{"tileid":88,"duration":400},{"tileid":136,"duration":400}]},{"id":41,"animation":[{"tileid":41,"duration":400},{"tileid":89,"duration":400},{"tileid":137,"duration":400}]},{"id":42,"animation":[{"tileid":42,"duration":400},{"tileid":90,"duration":400},{"tileid":138,"duration":400}]},{"id":43,"animation":[{"tileid":43,"duration":400},{"tileid":91,"duration":400},{"tileid":139,"duration":400}]},{"id":44,"animation":[{"tileid":44,"duration":400},{"tileid":92,"duration":400},{"tileid":140,"duration":400}]},{"id":45,"animation":[{"tileid":45,"duration":400},{"tileid":93,"duration":400},{"tileid":141,"duration":400}]},{"id":46,"animation":[{"tileid":46,"duration":400},{"tileid":94,"duration":400},{"tileid":142,"duration":400}]}],"wangsets":[{"name":"water.river@field","type":"mixed","tile":-1,"colors":[{"name":"water.river@field","color":"#ff0000","tile":-1,"probability":1}],"wangtiles":[{"tileid":0,"wangid":[0,0,0,0,0,0,0,0]},{"tileid":1,"wangid":[1,0,0,0,0,0,0,0]},{"tileid":2,"wangid":[0,0,1,0,0,0,0,0]},{"tileid":3,"wangid":[1,0,1,0,0,0,0,0]},{"tileid":4,"wangid":[1,1,1,0,0,0,0,0]},{"tileid":5,"wangid":[0,0,0,0,1,0,0,0]},{"tileid":6,"wangid":[1,0,0,0,1,0,0,0]},{"tileid":7,"wangid":[0,0,1,0,1,0,0,0]},{"tileid":8,"wangid":[1,0,1,0,1,0,0,0]},{"tileid":9,"wangid":[1,1,1,0,1,0,0,0]},{"tileid":10,"wangid":[0,0,1,1,1,0,0,0]},{"tileid":11,"wangid":[1,0,1,1,1,0,0,0]},{"tileid":12,"wangid":[1,1,1,1,1,0,0,0]},{"tileid":13,"wangid":[0,0,0,0,0,0,1,0]},{"tileid":14,"wangid":[1,0,0,0,0,0,1,0]},{"tileid":15,"wangid":[0,0,1,0,0,0,1,0]},{"tileid":16,"wangid":[1,0,1,0,0,0,1,0]},{"tileid":17,"wangid":[1,1,1,0,0,0,1,0]},{"tileid":18,"wangid":[0,0,0,0,1,0,1,0]},{"tileid":19,"wangid":[1,0,0,0,1,0,1,0]},{"tileid":20,"wangid":[0,0,1,0,1,0,1,0]},{"tileid":21,"wangid":[1,0,1,0,1,0,1,0]},{"tileid":22,"wangid":[1,1,1,0,1,0,1,0]},{"tileid":23,"wangid":[0,0,1,1,1,0,1,0]},{"tileid":24,"wangid":[1,0,1,1,1,0,1,0]},{"tileid":25,"wangid":[1,1,1,1,1,0,1,0]},{"tileid":26,"wangid":[0,0,0,0,1,1,1,0]},{"tileid":27,"wangid":[1,0,0,0,1,1,1,0]},{"tileid":28,"wangid":[0,0,1,0,1,1,1,0]},{"tileid":29,"wangid":[1,0,1,0,1,1,1,0]},{"tileid":30,"wangid":[1,1,1,0,1,1,1,0]},{"tileid":31,"wangid":[0,0,1,1,1,1,1,0]},{"tileid":32,"wangid":[1,0,1,1,1,1,1,0]},{"tileid":33,"wangid":[1,1,1,1,1,1,1,0]},{"tileid":34,"wangid":[1,0,0,0,0,0,1,1]},{"tileid":35,"wangid":[1,0,1,0,0,0,1,1]},{"tileid":36,"wangid":[1,1,1,0,0,0,1,1]},{"tileid":37,"wangid":[1,0,0,0,1,0,1,1]},{"tileid":38,"wangid":[1,0,1,0,1,0,1,1]},{"tileid":39,"wangid":[1,1,1,0,1,0,1,1]},{"tileid":40,"wangid":[1,0,1,1,1,0,1,1]},{"tileid":41,"wangid":[1,1,1,1,1,0,1,1]},{"tileid":42,"wangid":[1,0,0,0,1,1,1,1]},{"tileid":43,"wangid":[1,0,1,0,1,1,1,1]},{"tileid":44,"wangid":[1,1,1,0,1,1,1,1]},{"tileid":45,"wangid":[1,0,1,1,1,1,1,1]},{"tileid":46,"wangid":[1,1,1,1,1,1,1,1]}]}]},{"firstgid":5905,"name":"water.river@bamboo","type":"tileset","version":"1.10","tiledversion":"1.11.0","image":"period32/water.river@bamboo.png","imagewidth":256,"imageheight":576,"tilewidth":32,"tileheight":32,"tilecount":144,"columns":8,"margin":0,"spacing":0,"tiles":[{"id":0,"animation":[{"tileid":0,"duration":400},{"tileid":48,"duration":400},{"tileid":96,"duration":400}]},{"id":1,"animation":[{"tileid":1,"duration":400},{"tileid":49,"duration":400},{"tileid":97,"duration":400}]},{"id":2,"animation":[{"tileid":2,"duration":400},{"tileid":50,"duration":400},{"tileid":98,"duration":400}]},{"id":3,"animation":[{"tileid":3,"duration":400},{"tileid":51,"duration":400},{"tileid":99,"duration":400}]},{"id":4,"animation":[{"tileid":4,"duration":400},{"tileid":52,"duration":400},{"tileid":100,"duration":400}]},{"id":5,"animation":[{"tileid":5,"duration":400},{"tileid":53,"duration":400},{"tileid":101,"duration":400}]},{"id":6,"animation":[{"tileid":6,"duration":400},{"tileid":54,"duration":400},{"tileid":102,"duration":400}]},{"id":7,"animation":[{"tileid":7,"duration":400},{"tileid":55,"duration":400},{"tileid":103,"duration":400}]},{"id":8,"animation":[{"tileid":8,"duration":400},{"tileid":56,"duration":400},{"tileid":104,"duration":400}]},{"id":9,"animation":[{"tileid":9,"duration":400},{"tileid":57,"duration":400},{"tileid":105,"duration":400}]},{"id":10,"animation":[{"tileid":10,"duration":400},{"tileid":58,"duration":400},{"tileid":106,"duration":400}]},{"id":11,"animation":[{"tileid":11,"duration":400},{"tileid":59,"duration":400},{"tileid":107,"duration":400}]},{"id":12,"animation":[{"tileid":12,"duration":400},{"tileid":60,"duration":400},{"tileid":108,"duration":400}]},{"id":13,"animation":[{"tileid":13,"duration":400},{"tileid":61,"duration":400},{"tileid":109,"duration":400}]},{"id":14,"animation":[{"tileid":14,"duration":400},{"tileid":62,"duration":400},{"tileid":110,"duration":400}]},{"id":15,"animation":[{"tileid":15,"duration":400},{"tileid":63,"duration":400},{"tileid":111,"duration":400}]},{"id":16,"animation":[{"tileid":16,"duration":400},{"tileid":64,"duration":400},{"tileid":112,"duration":400}]},{"id":17,"animation":[{"tileid":17,"duration":400},{"tileid":65,"duration":400},{"tileid":113,"duration":400}]},{"id":18,"animation":[{"tileid":18,"duration":400},{"tileid":66,"duration":400},{"tileid":114,"duration":400}]},{"id":19,"animation":[{"tileid":19,"duration":400},{"tileid":67,"duration":400},{"tileid":115,"duration":400}]},{"id":20,"animation":[{"tileid":20,"duration":400},{"tileid":68,"duration":400},{"tileid":116,"duration":400}]},{"id":21,"animation":[{"tileid":21,"duration":400},{"tileid":69,"duration":400},{"tileid":117,"duration":400}]},{"id":22,"animation":[{"tileid":22,"duration":400},{"tileid":70,"duration":400},{"tileid":118,"duration":400}]},{"id":23,"animation":[{"tileid":23,"duration":400},{"tileid":71,"duration":400},{"tileid":119,"duration":400}]},{"id":24,"animation":[{"tileid":24,"duration":400},{"tileid":72,"duration":400},{"tileid":120,"duration":400}]},{"id":25,"animation":[{"tileid":25,"duration":400},{"tileid":73,"duration":400},{"tileid":121,"duration":400}]},{"id":26,"animation":[{"tileid":26,"duration":400},{"tileid":74,"duration":400},{"tileid":122,"duration":400}]},{"id":27,"animation":[{"tileid":27,"duration":400},{"tileid":75,"duration":400},{"tileid":123,"duration":400}]},{"id":28,"animation":[{"tileid":28,"duration":400},{"tileid":76,"duration":400},{"tileid":124,"duration":400}]},{"id":29,"animation":[{"tileid":29,"duration":400},{"tileid":77,"duration":400},{"tileid":125,"duration":400}]},{"id":30,"animation":[{"tileid":30,"duration":400},{"tileid":78,"duration":400},{"tileid":126,"duration":400}]},{"id":31,"animation":[{"tileid":31,"duration":400},{"tileid":79,"duration":400},{"tileid":127,"duration":400}]},{"id":32,"animation":[{"tileid":32,"duration":400},{"tileid":80,"duration":400},{"tileid":128,"duration":400}]},{"id":33,"animation":[{"tileid":33,"duration":400},{"tileid":81,"duration":400},{"tileid":129,"duration":400}]},{"id":34,"animation":[{"tileid":34,"duration":400},{"tileid":82,"duration":400},{"tileid":130,"duration":400}]},{"id":35,"animation":[{"tileid":35,"duration":400},{"tileid":83,"duration":400},{"tileid":131,"duration":400}]},{"id":36,"animation":[{"tileid":36,"duration":400},{"tileid":84,"duration":400},{"tileid":132,"duration":400}]},{"id":37,"animation":[{"tileid":37,"duration":400},{"tileid":85,"duration":400},{"tileid":133,"duration":400}]},{"id":38,"animation":[{"tileid":38,"duration":400},{"tileid":86,"duration":400},{"tileid":134,"duration":400}]},{"id":39,"animation":[{"tileid":39,"duration":400},{"tileid":87,"duration":400},{"tileid":135,"duration":400}]},{"id":40,"animation":[{"tileid":40,"duration":400},{"tileid":88,"duration":400},{"tileid":136,"duration":400}]},{"id":41,"animation":[{"tileid":41,"duration":400},{"tileid":89,"duration":400},{"tileid":137,"duration":400}]},{"id":42,"animation":[{"tileid":42,"duration":400},{"tileid":90,"duration":400},{"tileid":138,"duration":400}]},{"id":43,"animation":[{"tileid":43,"duration":400},{"tileid":91,"duration":400},{"tileid":139,"duration":400}]},{"id":44,"animation":[{"tileid":44,"duration":400},{"tileid":92,"duration":400},{"tileid":140,"duration":400}]},{"id":45,"animation":[{"tileid":45,"duration":400},{"tileid":93,"duration":400},{"tileid":141,"duration":400}]},{"id":46,"animation":[{"tileid":46,"duration":400},{"tileid":94,"duration":400},{"tileid":142,"duration":400}]}],"wangsets":[{"name":"water.river@bamboo","type":"mixed","tile":-1,"colors":[{"name":"water.river@bamboo","color":"#ff0000","tile":-1,"probability":1}],"wangtiles":[{"tileid":0,"wangid":[0,0,0,0,0,0,0,0]},{"tileid":1,"wangid":[1,0,0,0,0,0,0,0]},{"tileid":2,"wangid":[0,0,1,0,0,0,0,0]},{"tileid":3,"wangid":[1,0,1,0,0,0,0,0]},{"tileid":4,"wangid":[1,1,1,0,0,0,0,0]},{"tileid":5,"wangid":[0,0,0,0,1,0,0,0]},{"tileid":6,"wangid":[1,0,0,0,1,0,0,0]},{"tileid":7,"wangid":[0,0,1,0,1,0,0,0]},{"tileid":8,"wangid":[1,0,1,0,1,0,0,0]},{"tileid":9,"wangid":[1,1,1,0,1,0,0,0]},{"tileid":10,"wangid":[0,0,1,1,1,0,0,0]},{"tileid":11,"wangid":[1,0,1,1,1,0,0,0]},{"tileid":12,"wangid":[1,1,1,1,1,0,0,0]},{"tileid":13,"wangid":[0,0,0,0,0,0,1,0]},{"tileid":14,"wangid":[1,0,0,0,0,0,1,0]},{"tileid":15,"wangid":[0,0,1,0,0,0,1,0]},{"tileid":16,"wangid":[1,0,1,0,0,0,1,0]},{"tileid":17,"wangid":[1,1,1,0,0,0,1,0]},{"tileid":18,"wangid":[0,0,0,0,1,0,1,0]},{"tileid":19,"wangid":[1,0,0,0,1,0,1,0]},{"tileid":20,"wangid":[0,0,1,0,1,0,1,0]},{"tileid":21,"wangid":[1,0,1,0,1,0,1,0]},{"tileid":22,"wangid":[1,1,1,0,1,0,1,0]},{"tileid":23,"wangid":[0,0,1,1,1,0,1,0]},{"tileid":24,"wangid":[1,0,1,1,1,0,1,0]},{"tileid":25,"wangid":[1,1,1,1,1,0,1,0]},{"tileid":26,"wangid":[0,0,0,0,1,1,1,0]},{"tileid":27,"wangid":[1,0,0,0,1,1,1,0]},{"tileid":28,"wangid":[0,0,1,0,1,1,1,0]},{"tileid":29,"wangid":[1,0,1,0,1,1,1,0]},{"tileid":30,"wangid":[1,1,1,0,1,1,1,0]},{"tileid":31,"wangid":[0,0,1,1,1,1,1,0]},{"tileid":32,"wangid":[1,0,1,1,1,1,1,0]},{"tileid":33,"wangid":[1,1,1,1,1,1,1,0]},{"tileid":34,"wangid":[1,0,0,0,0,0,1,1]},{"tileid":35,"wangid":[1,0,1,0,0,0,1,1]},{"tileid":36,"wangid":[1,1,1,0,0,0,1,1]},{"tileid":37,"wangid":[1,0,0,0,1,0,1,1]},{"tileid":38,"wangid":[1,0,1,0,1,0,1,1]},{"tileid":39,"wangid":[1,1,1,0,1,0,1,1]},{"tileid":40,"wangid":[1,0,1,1,1,0,1,1]},{"tileid":41,"wangid":[1,1,1,1,1,0,1,1]},{"tileid":42,"wangid":[1,0,0,0,1,1,1,1]},{"tileid":43,"wangid":[1,0,1,0,1,1,1,1]},{"tileid":44,"wangid":[1,1,1,0,1,1,1,1]},{"tileid":45,"wangid":[1,0,1,1,1,1,1,1]},{"tileid":46,"wangid":[1,1,1,1,1,1,1,1]}]}]},{"firstgid":6049,"name":"water.river@luliang","type":"tileset","version":"1.10","tiledversion":"1.11.0","image":"period32/water.river@luliang.png","imagewidth":256,"imageheight":576,"tilewidth":32,"tileheight":32,"tilecount":144,"columns":8,"margin":0,"spacing":0,"tiles":[{"id":0,"animation":[{"tileid":0,"duration":400},{"tileid":48,"duration":400},{"tileid":96,"duration":400}]},{"id":1,"animation":[{"tileid":1,"duration":400},{"tileid":49,"duration":400},{"tileid":97,"duration":400}]},{"id":2,"animation":[{"tileid":2,"duration":400},{"tileid":50,"duration":400},{"tileid":98,"duration":400}]},{"id":3,"animation":[{"tileid":3,"duration":400},{"tileid":51,"duration":400},{"tileid":99,"duration":400}]},{"id":4,"animation":[{"tileid":4,"duration":400},{"tileid":52,"duration":400},{"tileid":100,"duration":400}]},{"id":5,"animation":[{"tileid":5,"duration":400},{"tileid":53,"duration":400},{"tileid":101,"duration":400}]},{"id":6,"animation":[{"tileid":6,"duration":400},{"tileid":54,"duration":400},{"tileid":102,"duration":400}]},{"id":7,"animation":[{"tileid":7,"duration":400},{"tileid":55,"duration":400},{"tileid":103,"duration":400}]},{"id":8,"animation":[{"tileid":8,"duration":400},{"tileid":56,"duration":400},{"tileid":104,"duration":400}]},{"id":9,"animation":[{"tileid":9,"duration":400},{"tileid":57,"duration":400},{"tileid":105,"duration":400}]},{"id":10,"animation":[{"tileid":10,"duration":400},{"tileid":58,"duration":400},{"tileid":106,"duration":400}]},{"id":11,"animation":[{"tileid":11,"duration":400},{"tileid":59,"duration":400},{"tileid":107,"duration":400}]},{"id":12,"animation":[{"tileid":12,"duration":400},{"tileid":60,"duration":400},{"tileid":108,"duration":400}]},{"id":13,"animation":[{"tileid":13,"duration":400},{"tileid":61,"duration":400},{"tileid":109,"duration":400}]},{"id":14,"animation":[{"tileid":14,"duration":400},{"tileid":62,"duration":400},{"tileid":110,"duration":400}]},{"id":15,"animation":[{"tileid":15,"duration":400},{"tileid":63,"duration":400},{"tileid":111,"duration":400}]},{"id":16,"animation":[{"tileid":16,"duration":400},{"tileid":64,"duration":400},{"tileid":112,"duration":400}]},{"id":17,"animation":[{"tileid":17,"duration":400},{"tileid":65,"duration":400},{"tileid":113,"duration":400}]},{"id":18,"animation":[{"tileid":18,"duration":400},{"tileid":66,"duration":400},{"tileid":114,"duration":400}]},{"id":19,"animation":[{"tileid":19,"duration":400},{"tileid":67,"duration":400},{"tileid":115,"duration":400}]},{"id":20,"animation":[{"tileid":20,"duration":400},{"tileid":68,"duration":400},{"tileid":116,"duration":400}]},{"id":21,"animation":[{"tileid":21,"duration":400},{"tileid":69,"duration":400},{"tileid":117,"duration":400}]},{"id":22,"animation":[{"tileid":22,"duration":400},{"tileid":70,"duration":400},{"tileid":118,"duration":400}]},{"id":23,"animation":[{"tileid":23,"duration":400},{"tileid":71,"duration":400},{"tileid":119,"duration":400}]},{"id":24,"animation":[{"tileid":24,"duration":400},{"tileid":72,"duration":400},{"tileid":120,"duration":400}]},{"id":25,"animation":[{"tileid":25,"duration":400},{"tileid":73,"duration":400},{"tileid":121,"duration":400}]},{"id":26,"animation":[{"tileid":26,"duration":400},{"tileid":74,"duration":400},{"tileid":122,"duration":400}]},{"id":27,"animation":[{"tileid":27,"duration":400},{"tileid":75,"duration":400},{"tileid":123,"duration":400}]},{"id":28,"animation":[{"tileid":28,"duration":400},{"tileid":76,"duration":400},{"tileid":124,"duration":400}]},{"id":29,"animation":[{"tileid":29,"duration":400},{"tileid":77,"duration":400},{"tileid":125,"duration":400}]},{"id":30,"animation":[{"tileid":30,"duration":400},{"tileid":78,"duration":400},{"tileid":126,"duration":400}]},{"id":31,"animation":[{"tileid":31,"duration":400},{"tileid":79,"duration":400},{"tileid":127,"duration":400}]},{"id":32,"animation":[{"tileid":32,"duration":400},{"tileid":80,"duration":400},{"tileid":128,"duration":400}]},{"id":33,"animation":[{"tileid":33,"duration":400},{"tileid":81,"duration":400},{"tileid":129,"duration":400}]},{"id":34,"animation":[{"tileid":34,"duration":400},{"tileid":82,"duration":400},{"tileid":130,"duration":400}]},{"id":35,"animation":[{"tileid":35,"duration":400},{"tileid":83,"duration":400},{"tileid":131,"duration":400}]},{"id":36,"animation":[{"tileid":36,"duration":400},{"tileid":84,"duration":400},{"tileid":132,"duration":400}]},{"id":37,"animation":[{"tileid":37,"duration":400},{"tileid":85,"duration":400},{"tileid":133,"duration":400}]},{"id":38,"animation":[{"tileid":38,"duration":400},{"tileid":86,"duration":400},{"tileid":134,"duration":400}]},{"id":39,"animation":[{"tileid":39,"duration":400},{"tileid":87,"duration":400},{"tileid":135,"duration":400}]},{"id":40,"animation":[{"tileid":40,"duration":400},{"tileid":88,"duration":400},{"tileid":136,"duration":400}]},{"id":41,"animation":[{"tileid":41,"duration":400},{"tileid":89,"duration":400},{"tileid":137,"duration":400}]},{"id":42,"animation":[{"tileid":42,"duration":400},{"tileid":90,"duration":400},{"tileid":138,"duration":400}]},{"id":43,"animation":[{"tileid":43,"duration":400},{"tileid":91,"duration":400},{"tileid":139,"duration":400}]},{"id":44,"animation":[{"tileid":44,"duration":400},{"tileid":92,"duration":400},{"tileid":140,"duration":400}]},{"id":45,"animation":[{"tileid":45,"duration":400},{"tileid":93,"duration":400},{"tileid":141,"duration":400}]},{"id":46,"animation":[{"tileid":46,"duration":400},{"tileid":94,"duration":400},{"tileid":142,"duration":400}]}],"wangsets":[{"name":"water.river@luliang","type":"mixed","tile":-1,"colors":[{"name":"water.river@luliang","color":"#ff0000","tile":-1,"probability":1}],"wangtiles":[{"tileid":0,"wangid":[0,0,0,0,0,0,0,0]},{"tileid":1,"wangid":[1,0,0,0,0,0,0,0]},{"tileid":2,"wangid":[0,0,1,0,0,0,0,0]},{"tileid":3,"wangid":[1,0,1,0,0,0,0,0]},{"tileid":4,"wangid":[1,1,1,0,0,0,0,0]},{"tileid":5,"wangid":[0,0,0,0,1,0,0,0]},{"tileid":6,"wangid":[1,0,0,0,1,0,0,0]},{"tileid":7,"wangid":[0,0,1,0,1,0,0,0]},{"tileid":8,"wangid":[1,0,1,0,1,0,0,0]},{"tileid":9,"wangid":[1,1,1,0,1,0,0,0]},{"tileid":10,"wangid":[0,0,1,1,1,0,0,0]},{"tileid":11,"wangid":[1,0,1,1,1,0,0,0]},{"tileid":12,"wangid":[1,1,1,1,1,0,0,0]},{"tileid":13,"wangid":[0,0,0,0,0,0,1,0]},{"tileid":14,"wangid":[1,0,0,0,0,0,1,0]},{"tileid":15,"wangid":[0,0,1,0,0,0,1,0]},{"tileid":16,"wangid":[1,0,1,0,0,0,1,0]},{"tileid":17,"wangid":[1,1,1,0,0,0,1,0]},{"tileid":18,"wangid":[0,0,0,0,1,0,1,0]},{"tileid":19,"wangid":[1,0,0,0,1,0,1,0]},{"tileid":20,"wangid":[0,0,1,0,1,0,1,0]},{"tileid":21,"wangid":[1,0,1,0,1,0,1,0]},{"tileid":22,"wangid":[1,1,1,0,1,0,1,0]},{"tileid":23,"wangid":[0,0,1,1,1,0,1,0]},{"tileid":24,"wangid":[1,0,1,1,1,0,1,0]},{"tileid":25,"wangid":[1,1,1,1,1,0,1,0]},{"tileid":26,"wangid":[0,0,0,0,1,1,1,0]},{"tileid":27,"wangid":[1,0,0,0,1,1,1,0]},{"tileid":28,"wangid":[0,0,1,0,1,1,1,0]},{"tileid":29,"wangid":[1,0,1,0,1,1,1,0]},{"tileid":30,"wangid":[1,1,1,0,1,1,1,0]},{"tileid":31,"wangid":[0,0,1,1,1,1,1,0]},{"tileid":32,"wangid":[1,0,1,1,1,1,1,0]},{"tileid":33,"wangid":[1,1,1,1,1,1,1,0]},{"tileid":34,"wangid":[1,0,0,0,0,0,1,1]},{"tileid":35,"wangid":[1,0,1,0,0,0,1,1]},{"tileid":36,"wangid":[1,1,1,0,0,0,1,1]},{"tileid":37,"wangid":[1,0,0,0,1,0,1,1]},{"tileid":38,"wangid":[1,0,1,0,1,0,1,1]},{"tileid":39,"wangid":[1,1,1,0,1,0,1,1]},{"tileid":40,"wangid":[1,0,1,1,1,0,1,1]},{"tileid":41,"wangid":[1,1,1,1,1,0,1,1]},{"tileid":42,"wangid":[1,0,0,0,1,1,1,1]},{"tileid":43,"wangid":[1,0,1,0,1,1,1,1]},{"tileid":44,"wangid":[1,1,1,0,1,1,1,1]},{"tileid":45,"wangid":[1,0,1,1,1,1,1,1]},{"tileid":46,"wangid":[1,1,1,1,1,1,1,1]}]}]},{"firstgid":6193,"name":"water.river@shu","type":"tileset","version":"1.10","tiledversion":"1.11.0","image":"period32/water.river@shu.png","imagewidth":256,"imageheight":576,"tilewidth":32,"tileheight":32,"tilecount":144,"columns":8,"margin":0,"spacing":0,"tiles":[{"id":0,"animation":[{"tileid":0,"duration":400},{"tileid":48,"duration":400},{"tileid":96,"duration":400}]},{"id":1,"animation":[{"tileid":1,"duration":400},{"tileid":49,"duration":400},{"tileid":97,"duration":400}]},{"id":2,"animation":[{"tileid":2,"duration":400},{"tileid":50,"duration":400},{"tileid":98,"duration":400}]},{"id":3,"animation":[{"tileid":3,"duration":400},{"tileid":51,"duration":400},{"tileid":99,"duration":400}]},{"id":4,"animation":[{"tileid":4,"duration":400},{"tileid":52,"duration":400},{"tileid":100,"duration":400}]},{"id":5,"animation":[{"tileid":5,"duration":400},{"tileid":53,"duration":400},{"tileid":101,"duration":400}]},{"id":6,"animation":[{"tileid":6,"duration":400},{"tileid":54,"duration":400},{"tileid":102,"duration":400}]},{"id":7,"animation":[{"tileid":7,"duration":400},{"tileid":55,"duration":400},{"tileid":103,"duration":400}]},{"id":8,"animation":[{"tileid":8,"duration":400},{"tileid":56,"duration":400},{"tileid":104,"duration":400}]},{"id":9,"animation":[{"tileid":9,"duration":400},{"tileid":57,"duration":400},{"tileid":105,"duration":400}]},{"id":10,"animation":[{"tileid":10,"duration":400},{"tileid":58,"duration":400},{"tileid":106,"duration":400}]},{"id":11,"animation":[{"tileid":11,"duration":400},{"tileid":59,"duration":400},{"tileid":107,"duration":400}]},{"id":12,"animation":[{"tileid":12,"duration":400},{"tileid":60,"duration":400},{"tileid":108,"duration":400}]},{"id":13,"animation":[{"tileid":13,"duration":400},{"tileid":61,"duration":400},{"tileid":109,"duration":400}]},{"id":14,"animation":[{"tileid":14,"duration":400},{"tileid":62,"duration":400},{"tileid":110,"duration":400}]},{"id":15,"animation":[{"tileid":15,"duration":400},{"tileid":63,"duration":400},{"tileid":111,"duration":400}]},{"id":16,"animation":[{"tileid":16,"duration":400},{"tileid":64,"duration":400},{"tileid":112,"duration":400}]},{"id":17,"animation":[{"tileid":17,"duration":400},{"tileid":65,"duration":400},{"tileid":113,"duration":400}]},{"id":18,"animation":[{"tileid":18,"duration":400},{"tileid":66,"duration":400},{"tileid":114,"duration":400}]},{"id":19,"animation":[{"tileid":19,"duration":400},{"tileid":67,"duration":400},{"tileid":115,"duration":400}]},{"id":20,"animation":[{"tileid":20,"duration":400},{"tileid":68,"duration":400},{"tileid":116,"duration":400}]},{"id":21,"animation":[{"tileid":21,"duration":400},{"tileid":69,"duration":400},{"tileid":117,"duration":400}]},{"id":22,"animation":[{"tileid":22,"duration":400},{"tileid":70,"duration":400},{"tileid":118,"duration":400}]},{"id":23,"animation":[{"tileid":23,"duration":400},{"tileid":71,"duration":400},{"tileid":119,"duration":400}]},{"id":24,"animation":[{"tileid":24,"duration":400},{"tileid":72,"duration":400},{"tileid":120,"duration":400}]},{"id":25,"animation":[{"tileid":25,"duration":400},{"tileid":73,"duration":400},{"tileid":121,"duration":400}]},{"id":26,"animation":[{"tileid":26,"duration":400},{"tileid":74,"duration":400},{"tileid":122,"duration":400}]},{"id":27,"animation":[{"tileid":27,"duration":400},{"tileid":75,"duration":400},{"tileid":123,"duration":400}]},{"id":28,"animation":[{"tileid":28,"duration":400},{"tileid":76,"duration":400},{"tileid":124,"duration":400}]},{"id":29,"animation":[{"tileid":29,"duration":400},{"tileid":77,"duration":400},{"tileid":125,"duration":400}]},{"id":30,"animation":[{"tileid":30,"duration":400},{"tileid":78,"duration":400},{"tileid":126,"duration":400}]},{"id":31,"animation":[{"tileid":31,"duration":400},{"tileid":79,"duration":400},{"tileid":127,"duration":400}]},{"id":32,"animation":[{"tileid":32,"duration":400},{"tileid":80,"duration":400},{"tileid":128,"duration":400}]},{"id":33,"animation":[{"tileid":33,"duration":400},{"tileid":81,"duration":400},{"tileid":129,"duration":400}]},{"id":34,"animation":[{"tileid":34,"duration":400},{"tileid":82,"duration":400},{"tileid":130,"duration":400}]},{"id":35,"animation":[{"tileid":35,"duration":400},{"tileid":83,"duration":400},{"tileid":131,"duration":400}]},{"id":36,"animation":[{"tileid":36,"duration":400},{"tileid":84,"duration":400},{"tileid":132,"duration":400}]},{"id":37,"animation":[{"tileid":37,"duration":400},{"tileid":85,"duration":400},{"tileid":133,"duration":400}]},{"id":38,"animation":[{"tileid":38,"duration":400},{"tileid":86,"duration":400},{"tileid":134,"duration":400}]},{"id":39,"animation":[{"tileid":39,"duration":400},{"tileid":87,"duration":400},{"tileid":135,"duration":400}]},{"id":40,"animation":[{"tileid":40,"duration":400},{"tileid":88,"duration":400},{"tileid":136,"duration":400}]},{"id":41,"animation":[{"tileid":41,"duration":400},{"tileid":89,"duration":400},{"tileid":137,"duration":400}]},{"id":42,"animation":[{"tileid":42,"duration":400},{"tileid":90,"duration":400},{"tileid":138,"duration":400}]},{"id":43,"animation":[{"tileid":43,"duration":400},{"tileid":91,"duration":400},{"tileid":139,"duration":400}]},{"id":44,"animation":[{"tileid":44,"duration":400},{"tileid":92,"duration":400},{"tileid":140,"duration":400}]},{"id":45,"animation":[{"tileid":45,"duration":400},{"tileid":93,"duration":400},{"tileid":141,"duration":400}]},{"id":46,"animation":[{"tileid":46,"duration":400},{"tileid":94,"duration":400},{"tileid":142,"duration":400}]}],"wangsets":[{"name":"water.river@shu","type":"mixed","tile":-1,"colors":[{"name":"water.river@shu","color":"#ff0000","tile":-1,"probability":1}],"wangtiles":[{"tileid":0,"wangid":[0,0,0,0,0,0,0,0]},{"tileid":1,"wangid":[1,0,0,0,0,0,0,0]},{"tileid":2,"wangid":[0,0,1,0,0,0,0,0]},{"tileid":3,"wangid":[1,0,1,0,0,0,0,0]},{"tileid":4,"wangid":[1,1,1,0,0,0,0,0]},{"tileid":5,"wangid":[0,0,0,0,1,0,0,0]},{"tileid":6,"wangid":[1,0,0,0,1,0,0,0]},{"tileid":7,"wangid":[0,0,1,0,1,0,0,0]},{"tileid":8,"wangid":[1,0,1,0,1,0,0,0]},{"tileid":9,"wangid":[1,1,1,0,1,0,0,0]},{"tileid":10,"wangid":[0,0,1,1,1,0,0,0]},{"tileid":11,"wangid":[1,0,1,1,1,0,0,0]},{"tileid":12,"wangid":[1,1,1,1,1,0,0,0]},{"tileid":13,"wangid":[0,0,0,0,0,0,1,0]},{"tileid":14,"wangid":[1,0,0,0,0,0,1,0]},{"tileid":15,"wangid":[0,0,1,0,0,0,1,0]},{"tileid":16,"wangid":[1,0,1,0,0,0,1,0]},{"tileid":17,"wangid":[1,1,1,0,0,0,1,0]},{"tileid":18,"wangid":[0,0,0,0,1,0,1,0]},{"tileid":19,"wangid":[1,0,0,0,1,0,1,0]},{"tileid":20,"wangid":[0,0,1,0,1,0,1,0]},{"tileid":21,"wangid":[1,0,1,0,1,0,1,0]},{"tileid":22,"wangid":[1,1,1,0,1,0,1,0]},{"tileid":23,"wangid":[0,0,1,1,1,0,1,0]},{"tileid":24,"wangid":[1,0,1,1,1,0,1,0]},{"tileid":25,"wangid":[1,1,1,1,1,0,1,0]},{"tileid":26,"wangid":[0,0,0,0,1,1,1,0]},{"tileid":27,"wangid":[1,0,0,0,1,1,1,0]},{"tileid":28,"wangid":[0,0,1,0,1,1,1,0]},{"tileid":29,"wangid":[1,0,1,0,1,1,1,0]},{"tileid":30,"wangid":[1,1,1,0,1,1,1,0]},{"tileid":31,"wangid":[0,0,1,1,1,1,1,0]},{"tileid":32,"wangid":[1,0,1,1,1,1,1,0]},{"tileid":33,"wangid":[1,1,1,1,1,1,1,0]},{"tileid":34,"wangid":[1,0,0,0,0,0,1,1]},{"tileid":35,"wangid":[1,0,1,0,0,0,1,1]},{"tileid":36,"wangid":[1,1,1,0,0,0,1,1]},{"tileid":37,"wangid":[1,0,0,0,1,0,1,1]},{"tileid":38,"wangid":[1,0,1,0,1,0,1,1]},{"tileid":39,"wangid":[1,1,1,0,1,0,1,1]},{"tileid":40,"wangid":[1,0,1,1,1,0,1,1]},{"tileid":41,"wangid":[1,1,1,1,1,0,1,1]},{"tileid":42,"wangid":[1,0,0,0,1,1,1,1]},{"tileid":43,"wangid":[1,0,1,0,1,1,1,1]},{"tileid":44,"wangid":[1,1,1,0,1,1,1,1]},{"tileid":45,"wangid":[1,0,1,1,1,1,1,1]},{"tileid":46,"wangid":[1,1,1,1,1,1,1,1]}]}]},{"firstgid":6337,"name":"water.river@road","type":"tileset","version":"1.10","tiledversion":"1.11.0","image":"period32/water.river@road.png","imagewidth":256,"imageheight":576,"tilewidth":32,"tileheight":32,"tilecount":144,"columns":8,"margin":0,"spacing":0,"tiles":[{"id":0,"animation":[{"tileid":0,"duration":400},{"tileid":48,"duration":400},{"tileid":96,"duration":400}]},{"id":1,"animation":[{"tileid":1,"duration":400},{"tileid":49,"duration":400},{"tileid":97,"duration":400}]},{"id":2,"animation":[{"tileid":2,"duration":400},{"tileid":50,"duration":400},{"tileid":98,"duration":400}]},{"id":3,"animation":[{"tileid":3,"duration":400},{"tileid":51,"duration":400},{"tileid":99,"duration":400}]},{"id":4,"animation":[{"tileid":4,"duration":400},{"tileid":52,"duration":400},{"tileid":100,"duration":400}]},{"id":5,"animation":[{"tileid":5,"duration":400},{"tileid":53,"duration":400},{"tileid":101,"duration":400}]},{"id":6,"animation":[{"tileid":6,"duration":400},{"tileid":54,"duration":400},{"tileid":102,"duration":400}]},{"id":7,"animation":[{"tileid":7,"duration":400},{"tileid":55,"duration":400},{"tileid":103,"duration":400}]},{"id":8,"animation":[{"tileid":8,"duration":400},{"tileid":56,"duration":400},{"tileid":104,"duration":400}]},{"id":9,"animation":[{"tileid":9,"duration":400},{"tileid":57,"duration":400},{"tileid":105,"duration":400}]},{"id":10,"animation":[{"tileid":10,"duration":400},{"tileid":58,"duration":400},{"tileid":106,"duration":400}]},{"id":11,"animation":[{"tileid":11,"duration":400},{"tileid":59,"duration":400},{"tileid":107,"duration":400}]},{"id":12,"animation":[{"tileid":12,"duration":400},{"tileid":60,"duration":400},{"tileid":108,"duration":400}]},{"id":13,"animation":[{"tileid":13,"duration":400},{"tileid":61,"duration":400},{"tileid":109,"duration":400}]},{"id":14,"animation":[{"tileid":14,"duration":400},{"tileid":62,"duration":400},{"tileid":110,"duration":400}]},{"id":15,"animation":[{"tileid":15,"duration":400},{"tileid":63,"duration":400},{"tileid":111,"duration":400}]},{"id":16,"animation":[{"tileid":16,"duration":400},{"tileid":64,"duration":400},{"tileid":112,"duration":400}]},{"id":17,"animation":[{"tileid":17,"duration":400},{"tileid":65,"duration":400},{"tileid":113,"duration":400}]},{"id":18,"animation":[{"tileid":18,"duration":400},{"tileid":66,"duration":400},{"tileid":114,"duration":400}]},{"id":19,"animation":[{"tileid":19,"duration":400},{"tileid":67,"duration":400},{"tileid":115,"duration":400}]},{"id":20,"animation":[{"tileid":20,"duration":400},{"tileid":68,"duration":400},{"tileid":116,"duration":400}]},{"id":21,"animation":[{"tileid":21,"duration":400},{"tileid":69,"duration":400},{"tileid":117,"duration":400}]},{"id":22,"animation":[{"tileid":22,"duration":400},{"tileid":70,"duration":400},{"tileid":118,"duration":400}]},{"id":23,"animation":[{"tileid":23,"duration":400},{"tileid":71,"duration":400},{"tileid":119,"duration":400}]},{"id":24,"animation":[{"tileid":24,"duration":400},{"tileid":72,"duration":400},{"tileid":120,"duration":400}]},{"id":25,"animation":[{"tileid":25,"duration":400},{"tileid":73,"duration":400},{"tileid":121,"duration":400}]},{"id":26,"animation":[{"tileid":26,"duration":400},{"tileid":74,"duration":400},{"tileid":122,"duration":400}]},{"id":27,"animation":[{"tileid":27,"duration":400},{"tileid":75,"duration":400},{"tileid":123,"duration":400}]},{"id":28,"animation":[{"tileid":28,"duration":400},{"tileid":76,"duration":400},{"tileid":124,"duration":400}]},{"id":29,"animation":[{"tileid":29,"duration":400},{"tileid":77,"duration":400},{"tileid":125,"duration":400}]},{"id":30,"animation":[{"tileid":30,"duration":400},{"tileid":78,"duration":400},{"tileid":126,"duration":400}]},{"id":31,"animation":[{"tileid":31,"duration":400},{"tileid":79,"duration":400},{"tileid":127,"duration":400}]},{"id":32,"animation":[{"tileid":32,"duration":400},{"tileid":80,"duration":400},{"tileid":128,"duration":400}]},{"id":33,"animation":[{"tileid":33,"duration":400},{"tileid":81,"duration":400},{"tileid":129,"duration":400}]},{"id":34,"animation":[{"tileid":34,"duration":400},{"tileid":82,"duration":400},{"tileid":130,"duration":400}]},{"id":35,"animation":[{"tileid":35,"duration":400},{"tileid":83,"duration":400},{"tileid":131,"duration":400}]},{"id":36,"animation":[{"tileid":36,"duration":400},{"tileid":84,"duration":400},{"tileid":132,"duration":400}]},{"id":37,"animation":[{"tileid":37,"duration":400},{"tileid":85,"duration":400},{"tileid":133,"duration":400}]},{"id":38,"animation":[{"tileid":38,"duration":400},{"tileid":86,"duration":400},{"tileid":134,"duration":400}]},{"id":39,"animation":[{"tileid":39,"duration":400},{"tileid":87,"duration":400},{"tileid":135,"duration":400}]},{"id":40,"animation":[{"tileid":40,"duration":400},{"tileid":88,"duration":400},{"tileid":136,"duration":400}]},{"id":41,"animation":[{"tileid":41,"duration":400},{"tileid":89,"duration":400},{"tileid":137,"duration":400}]},{"id":42,"animation":[{"tileid":42,"duration":400},{"tileid":90,"duration":400},{"tileid":138,"duration":400}]},{"id":43,"animation":[{"tileid":43,"duration":400},{"tileid":91,"duration":400},{"tileid":139,"duration":400}]},{"id":44,"animation":[{"tileid":44,"duration":400},{"tileid":92,"duration":400},{"tileid":140,"duration":400}]},{"id":45,"animation":[{"tileid":45,"duration":400},{"tileid":93,"duration":400},{"tileid":141,"duration":400}]},{"id":46,"animation":[{"tileid":46,"duration":400},{"tileid":94,"duration":400},{"tileid":142,"duration":400}]}],"wangsets":[{"name":"water.river@road","type":"mixed","tile":-1,"colors":[{"name":"water.river@road","color":"#ff0000","tile":-1,"probability":1}],"wangtiles":[{"tileid":0,"wangid":[0,0,0,0,0,0,0,0]},{"tileid":1,"wangid":[1,0,0,0,0,0,0,0]},{"tileid":2,"wangid":[0,0,1,0,0,0,0,0]},{"tileid":3,"wangid":[1,0,1,0,0,0,0,0]},{"tileid":4,"wangid":[1,1,1,0,0,0,0,0]},{"tileid":5,"wangid":[0,0,0,0,1,0,0,0]},{"tileid":6,"wangid":[1,0,0,0,1,0,0,0]},{"tileid":7,"wangid":[0,0,1,0,1,0,0,0]},{"tileid":8,"wangid":[1,0,1,0,1,0,0,0]},{"tileid":9,"wangid":[1,1,1,0,1,0,0,0]},{"tileid":10,"wangid":[0,0,1,1,1,0,0,0]},{"tileid":11,"wangid":[1,0,1,1,1,0,0,0]},{"tileid":12,"wangid":[1,1,1,1,1,0,0,0]},{"tileid":13,"wangid":[0,0,0,0,0,0,1,0]},{"tileid":14,"wangid":[1,0,0,0,0,0,1,0]},{"tileid":15,"wangid":[0,0,1,0,0,0,1,0]},{"tileid":16,"wangid":[1,0,1,0,0,0,1,0]},{"tileid":17,"wangid":[1,1,1,0,0,0,1,0]},{"tileid":18,"wangid":[0,0,0,0,1,0,1,0]},{"tileid":19,"wangid":[1,0,0,0,1,0,1,0]},{"tileid":20,"wangid":[0,0,1,0,1,0,1,0]},{"tileid":21,"wangid":[1,0,1,0,1,0,1,0]},{"tileid":22,"wangid":[1,1,1,0,1,0,1,0]},{"tileid":23,"wangid":[0,0,1,1,1,0,1,0]},{"tileid":24,"wangid":[1,0,1,1,1,0,1,0]},{"tileid":25,"wangid":[1,1,1,1,1,0,1,0]},{"tileid":26,"wangid":[0,0,0,0,1,1,1,0]},{"tileid":27,"wangid":[1,0,0,0,1,1,1,0]},{"tileid":28,"wangid":[0,0,1,0,1,1,1,0]},{"tileid":29,"wangid":[1,0,1,0,1,1,1,0]},{"tileid":30,"wangid":[1,1,1,0,1,1,1,0]},{"tileid":31,"wangid":[0,0,1,1,1,1,1,0]},{"tileid":32,"wangid":[1,0,1,1,1,1,1,0]},{"tileid":33,"wangid":[1,1,1,1,1,1,1,0]},{"tileid":34,"wangid":[1,0,0,0,0,0,1,1]},{"tileid":35,"wangid":[1,0,1,0,0,0,1,1]},{"tileid":36,"wangid":[1,1,1,0,0,0,1,1]},{"tileid":37,"wangid":[1,0,0,0,1,0,1,1]},{"tileid":38,"wangid":[1,0,1,0,1,0,1,1]},{"tileid":39,"wangid":[1,1,1,0,1,0,1,1]},{"tileid":40,"wangid":[1,0,1,1,1,0,1,1]},{"tileid":41,"wangid":[1,1,1,1,1,0,1,1]},{"tileid":42,"wangid":[1,0,0,0,1,1,1,1]},{"tileid":43,"wangid":[1,0,1,0,1,1,1,1]},{"tileid":44,"wangid":[1,1,1,0,1,1,1,1]},{"tileid":45,"wangid":[1,0,1,1,1,1,1,1]},{"tileid":46,"wangid":[1,1,1,1,1,1,1,1]}]}]},{"firstgid":6481,"name":"water.sea@marsh","type":"tileset","version":"1.10","tiledversion":"1.11.0","image":"period32/water.sea@marsh.png","imagewidth":256,"imageheight":576,"tilewidth":32,"tileheight":32,"tilecount":144,"columns":8,"margin":0,"spacing":0,"tiles":[{"id":0,"animation":[{"tileid":0,"duration":400},{"tileid":48,"duration":400},{"tileid":96,"duration":400}]},{"id":1,"animation":[{"tileid":1,"duration":400},{"tileid":49,"duration":400},{"tileid":97,"duration":400}]},{"id":2,"animation":[{"tileid":2,"duration":400},{"tileid":50,"duration":400},{"tileid":98,"duration":400}]},{"id":3,"animation":[{"tileid":3,"duration":400},{"tileid":51,"duration":400},{"tileid":99,"duration":400}]},{"id":4,"animation":[{"tileid":4,"duration":400},{"tileid":52,"duration":400},{"tileid":100,"duration":400}]},{"id":5,"animation":[{"tileid":5,"duration":400},{"tileid":53,"duration":400},{"tileid":101,"duration":400}]},{"id":6,"animation":[{"tileid":6,"duration":400},{"tileid":54,"duration":400},{"tileid":102,"duration":400}]},{"id":7,"animation":[{"tileid":7,"duration":400},{"tileid":55,"duration":400},{"tileid":103,"duration":400}]},{"id":8,"animation":[{"tileid":8,"duration":400},{"tileid":56,"duration":400},{"tileid":104,"duration":400}]},{"id":9,"animation":[{"tileid":9,"duration":400},{"tileid":57,"duration":400},{"tileid":105,"duration":400}]},{"id":10,"animation":[{"tileid":10,"duration":400},{"tileid":58,"duration":400},{"tileid":106,"duration":400}]},{"id":11,"animation":[{"tileid":11,"duration":400},{"tileid":59,"duration":400},{"tileid":107,"duration":400}]},{"id":12,"animation":[{"tileid":12,"duration":400},{"tileid":60,"duration":400},{"tileid":108,"duration":400}]},{"id":13,"animation":[{"tileid":13,"duration":400},{"tileid":61,"duration":400},{"tileid":109,"duration":400}]},{"id":14,"animation":[{"tileid":14,"duration":400},{"tileid":62,"duration":400},{"tileid":110,"duration":400}]},{"id":15,"animation":[{"tileid":15,"duration":400},{"tileid":63,"duration":400},{"tileid":111,"duration":400}]},{"id":16,"animation":[{"tileid":16,"duration":400},{"tileid":64,"duration":400},{"tileid":112,"duration":400}]},{"id":17,"animation":[{"tileid":17,"duration":400},{"tileid":65,"duration":400},{"tileid":113,"duration":400}]},{"id":18,"animation":[{"tileid":18,"duration":400},{"tileid":66,"duration":400},{"tileid":114,"duration":400}]},{"id":19,"animation":[{"tileid":19,"duration":400},{"tileid":67,"duration":400},{"tileid":115,"duration":400}]},{"id":20,"animation":[{"tileid":20,"duration":400},{"tileid":68,"duration":400},{"tileid":116,"duration":400}]},{"id":21,"animation":[{"tileid":21,"duration":400},{"tileid":69,"duration":400},{"tileid":117,"duration":400}]},{"id":22,"animation":[{"tileid":22,"duration":400},{"tileid":70,"duration":400},{"tileid":118,"duration":400}]},{"id":23,"animation":[{"tileid":23,"duration":400},{"tileid":71,"duration":400},{"tileid":119,"duration":400}]},{"id":24,"animation":[{"tileid":24,"duration":400},{"tileid":72,"duration":400},{"tileid":120,"duration":400}]},{"id":25,"animation":[{"tileid":25,"duration":400},{"tileid":73,"duration":400},{"tileid":121,"duration":400}]},{"id":26,"animation":[{"tileid":26,"duration":400},{"tileid":74,"duration":400},{"tileid":122,"duration":400}]},{"id":27,"animation":[{"tileid":27,"duration":400},{"tileid":75,"duration":400},{"tileid":123,"duration":400}]},{"id":28,"animation":[{"tileid":28,"duration":400},{"tileid":76,"duration":400},{"tileid":124,"duration":400}]},{"id":29,"animation":[{"tileid":29,"duration":400},{"tileid":77,"duration":400},{"tileid":125,"duration":400}]},{"id":30,"animation":[{"tileid":30,"duration":400},{"tileid":78,"duration":400},{"tileid":126,"duration":400}]},{"id":31,"animation":[{"tileid":31,"duration":400},{"tileid":79,"duration":400},{"tileid":127,"duration":400}]},{"id":32,"animation":[{"tileid":32,"duration":400},{"tileid":80,"duration":400},{"tileid":128,"duration":400}]},{"id":33,"animation":[{"tileid":33,"duration":400},{"tileid":81,"duration":400},{"tileid":129,"duration":400}]},{"id":34,"animation":[{"tileid":34,"duration":400},{"tileid":82,"duration":400},{"tileid":130,"duration":400}]},{"id":35,"animation":[{"tileid":35,"duration":400},{"tileid":83,"duration":400},{"tileid":131,"duration":400}]},{"id":36,"animation":[{"tileid":36,"duration":400},{"tileid":84,"duration":400},{"tileid":132,"duration":400}]},{"id":37,"animation":[{"tileid":37,"duration":400},{"tileid":85,"duration":400},{"tileid":133,"duration":400}]},{"id":38,"animation":[{"tileid":38,"duration":400},{"tileid":86,"duration":400},{"tileid":134,"duration":400}]},{"id":39,"animation":[{"tileid":39,"duration":400},{"tileid":87,"duration":400},{"tileid":135,"duration":400}]},{"id":40,"animation":[{"tileid":40,"duration":400},{"tileid":88,"duration":400},{"tileid":136,"duration":400}]},{"id":41,"animation":[{"tileid":41,"duration":400},{"tileid":89,"duration":400},{"tileid":137,"duration":400}]},{"id":42,"animation":[{"tileid":42,"duration":400},{"tileid":90,"duration":400},{"tileid":138,"duration":400}]},{"id":43,"animation":[{"tileid":43,"duration":400},{"tileid":91,"duration":400},{"tileid":139,"duration":400}]},{"id":44,"animation":[{"tileid":44,"duration":400},{"tileid":92,"duration":400},{"tileid":140,"duration":400}]},{"id":45,"animation":[{"tileid":45,"duration":400},{"tileid":93,"duration":400},{"tileid":141,"duration":400}]},{"id":46,"animation":[{"tileid":46,"duration":400},{"tileid":94,"duration":400},{"tileid":142,"duration":400}]}],"wangsets":[{"name":"water.sea@marsh","type":"mixed","tile":-1,"colors":[{"name":"water.sea@marsh","color":"#ff0000","tile":-1,"probability":1}],"wangtiles":[{"tileid":0,"wangid":[0,0,0,0,0,0,0,0]},{"tileid":1,"wangid":[1,0,0,0,0,0,0,0]},{"tileid":2,"wangid":[0,0,1,0,0,0,0,0]},{"tileid":3,"wangid":[1,0,1,0,0,0,0,0]},{"tileid":4,"wangid":[1,1,1,0,0,0,0,0]},{"tileid":5,"wangid":[0,0,0,0,1,0,0,0]},{"tileid":6,"wangid":[1,0,0,0,1,0,0,0]},{"tileid":7,"wangid":[0,0,1,0,1,0,0,0]},{"tileid":8,"wangid":[1,0,1,0,1,0,0,0]},{"tileid":9,"wangid":[1,1,1,0,1,0,0,0]},{"tileid":10,"wangid":[0,0,1,1,1,0,0,0]},{"tileid":11,"wangid":[1,0,1,1,1,0,0,0]},{"tileid":12,"wangid":[1,1,1,1,1,0,0,0]},{"tileid":13,"wangid":[0,0,0,0,0,0,1,0]},{"tileid":14,"wangid":[1,0,0,0,0,0,1,0]},{"tileid":15,"wangid":[0,0,1,0,0,0,1,0]},{"tileid":16,"wangid":[1,0,1,0,0,0,1,0]},{"tileid":17,"wangid":[1,1,1,0,0,0,1,0]},{"tileid":18,"wangid":[0,0,0,0,1,0,1,0]},{"tileid":19,"wangid":[1,0,0,0,1,0,1,0]},{"tileid":20,"wangid":[0,0,1,0,1,0,1,0]},{"tileid":21,"wangid":[1,0,1,0,1,0,1,0]},{"tileid":22,"wangid":[1,1,1,0,1,0,1,0]},{"tileid":23,"wangid":[0,0,1,1,1,0,1,0]},{"tileid":24,"wangid":[1,0,1,1,1,0,1,0]},{"tileid":25,"wangid":[1,1,1,1,1,0,1,0]},{"tileid":26,"wangid":[0,0,0,0,1,1,1,0]},{"tileid":27,"wangid":[1,0,0,0,1,1,1,0]},{"tileid":28,"wangid":[0,0,1,0,1,1,1,0]},{"tileid":29,"wangid":[1,0,1,0,1,1,1,0]},{"tileid":30,"wangid":[1,1,1,0,1,1,1,0]},{"tileid":31,"wangid":[0,0,1,1,1,1,1,0]},{"tileid":32,"wangid":[1,0,1,1,1,1,1,0]},{"tileid":33,"wangid":[1,1,1,1,1,1,1,0]},{"tileid":34,"wangid":[1,0,0,0,0,0,1,1]},{"tileid":35,"wangid":[1,0,1,0,0,0,1,1]},{"tileid":36,"wangid":[1,1,1,0,0,0,1,1]},{"tileid":37,"wangid":[1,0,0,0,1,0,1,1]},{"tileid":38,"wangid":[1,0,1,0,1,0,1,1]},{"tileid":39,"wangid":[1,1,1,0,1,0,1,1]},{"tileid":40,"wangid":[1,0,1,1,1,0,1,1]},{"tileid":41,"wangid":[1,1,1,1,1,0,1,1]},{"tileid":42,"wangid":[1,0,0,0,1,1,1,1]},{"tileid":43,"wangid":[1,0,1,0,1,1,1,1]},{"tileid":44,"wangid":[1,1,1,0,1,1,1,1]},{"tileid":45,"wangid":[1,0,1,1,1,1,1,1]},{"tileid":46,"wangid":[1,1,1,1,1,1,1,1]}]}]},{"firstgid":6625,"name":"water.sea@forest","type":"tileset","version":"1.10","tiledversion":"1.11.0","image":"period32/water.sea@forest.png","imagewidth":256,"imageheight":576,"tilewidth":32,"tileheight":32,"tilecount":144,"columns":8,"margin":0,"spacing":0,"tiles":[{"id":0,"animation":[{"tileid":0,"duration":400},{"tileid":48,"duration":400},{"tileid":96,"duration":400}]},{"id":1,"animation":[{"tileid":1,"duration":400},{"tileid":49,"duration":400},{"tileid":97,"duration":400}]},{"id":2,"animation":[{"tileid":2,"duration":400},{"tileid":50,"duration":400},{"tileid":98,"duration":400}]},{"id":3,"animation":[{"tileid":3,"duration":400},{"tileid":51,"duration":400},{"tileid":99,"duration":400}]},{"id":4,"animation":[{"tileid":4,"duration":400},{"tileid":52,"duration":400},{"tileid":100,"duration":400}]},{"id":5,"animation":[{"tileid":5,"duration":400},{"tileid":53,"duration":400},{"tileid":101,"duration":400}]},{"id":6,"animation":[{"tileid":6,"duration":400},{"tileid":54,"duration":400},{"tileid":102,"duration":400}]},{"id":7,"animation":[{"tileid":7,"duration":400},{"tileid":55,"duration":400},{"tileid":103,"duration":400}]},{"id":8,"animation":[{"tileid":8,"duration":400},{"tileid":56,"duration":400},{"tileid":104,"duration":400}]},{"id":9,"animation":[{"tileid":9,"duration":400},{"tileid":57,"duration":400},{"tileid":105,"duration":400}]},{"id":10,"animation":[{"tileid":10,"duration":400},{"tileid":58,"duration":400},{"tileid":106,"duration":400}]},{"id":11,"animation":[{"tileid":11,"duration":400},{"tileid":59,"duration":400},{"tileid":107,"duration":400}]},{"id":12,"animation":[{"tileid":12,"duration":400},{"tileid":60,"duration":400},{"tileid":108,"duration":400}]},{"id":13,"animation":[{"tileid":13,"duration":400},{"tileid":61,"duration":400},{"tileid":109,"duration":400}]},{"id":14,"animation":[{"tileid":14,"duration":400},{"tileid":62,"duration":400},{"tileid":110,"duration":400}]},{"id":15,"animation":[{"tileid":15,"duration":400},{"tileid":63,"duration":400},{"tileid":111,"duration":400}]},{"id":16,"animation":[{"tileid":16,"duration":400},{"tileid":64,"duration":400},{"tileid":112,"duration":400}]},{"id":17,"animation":[{"tileid":17,"duration":400},{"tileid":65,"duration":400},{"tileid":113,"duration":400}]},{"id":18,"animation":[{"tileid":18,"duration":400},{"tileid":66,"duration":400},{"tileid":114,"duration":400}]},{"id":19,"animation":[{"tileid":19,"duration":400},{"tileid":67,"duration":400},{"tileid":115,"duration":400}]},{"id":20,"animation":[{"tileid":20,"duration":400},{"tileid":68,"duration":400},{"tileid":116,"duration":400}]},{"id":21,"animation":[{"tileid":21,"duration":400},{"tileid":69,"duration":400},{"tileid":117,"duration":400}]},{"id":22,"animation":[{"tileid":22,"duration":400},{"tileid":70,"duration":400},{"tileid":118,"duration":400}]},{"id":23,"animation":[{"tileid":23,"duration":400},{"tileid":71,"duration":400},{"tileid":119,"duration":400}]},{"id":24,"animation":[{"tileid":24,"duration":400},{"tileid":72,"duration":400},{"tileid":120,"duration":400}]},{"id":25,"animation":[{"tileid":25,"duration":400},{"tileid":73,"duration":400},{"tileid":121,"duration":400}]},{"id":26,"animation":[{"tileid":26,"duration":400},{"tileid":74,"duration":400},{"tileid":122,"duration":400}]},{"id":27,"animation":[{"tileid":27,"duration":400},{"tileid":75,"duration":400},{"tileid":123,"duration":400}]},{"id":28,"animation":[{"tileid":28,"duration":400},{"tileid":76,"duration":400},{"tileid":124,"duration":400}]},{"id":29,"animation":[{"tileid":29,"duration":400},{"tileid":77,"duration":400},{"tileid":125,"duration":400}]},{"id":30,"animation":[{"tileid":30,"duration":400},{"tileid":78,"duration":400},{"tileid":126,"duration":400}]},{"id":31,"animation":[{"tileid":31,"duration":400},{"tileid":79,"duration":400},{"tileid":127,"duration":400}]},{"id":32,"animation":[{"tileid":32,"duration":400},{"tileid":80,"duration":400},{"tileid":128,"duration":400}]},{"id":33,"animation":[{"tileid":33,"duration":400},{"tileid":81,"duration":400},{"tileid":129,"duration":400}]},{"id":34,"animation":[{"tileid":34,"duration":400},{"tileid":82,"duration":400},{"tileid":130,"duration":400}]},{"id":35,"animation":[{"tileid":35,"duration":400},{"tileid":83,"duration":400},{"tileid":131,"duration":400}]},{"id":36,"animation":[{"tileid":36,"duration":400},{"tileid":84,"duration":400},{"tileid":132,"duration":400}]},{"id":37,"animation":[{"tileid":37,"duration":400},{"tileid":85,"duration":400},{"tileid":133,"duration":400}]},{"id":38,"animation":[{"tileid":38,"duration":400},{"tileid":86,"duration":400},{"tileid":134,"duration":400}]},{"id":39,"animation":[{"tileid":39,"duration":400},{"tileid":87,"duration":400},{"tileid":135,"duration":400}]},{"id":40,"animation":[{"tileid":40,"duration":400},{"tileid":88,"duration":400},{"tileid":136,"duration":400}]},{"id":41,"animation":[{"tileid":41,"duration":400},{"tileid":89,"duration":400},{"tileid":137,"duration":400}]},{"id":42,"animation":[{"tileid":42,"duration":400},{"tileid":90,"duration":400},{"tileid":138,"duration":400}]},{"id":43,"animation":[{"tileid":43,"duration":400},{"tileid":91,"duration":400},{"tileid":139,"duration":400}]},{"id":44,"animation":[{"tileid":44,"duration":400},{"tileid":92,"duration":400},{"tileid":140,"duration":400}]},{"id":45,"animation":[{"tileid":45,"duration":400},{"tileid":93,"duration":400},{"tileid":141,"duration":400}]},{"id":46,"animation":[{"tileid":46,"duration":400},{"tileid":94,"duration":400},{"tileid":142,"duration":400}]}],"wangsets":[{"name":"water.sea@forest","type":"mixed","tile":-1,"colors":[{"name":"water.sea@forest","color":"#ff0000","tile":-1,"probability":1}],"wangtiles":[{"tileid":0,"wangid":[0,0,0,0,0,0,0,0]},{"tileid":1,"wangid":[1,0,0,0,0,0,0,0]},{"tileid":2,"wangid":[0,0,1,0,0,0,0,0]},{"tileid":3,"wangid":[1,0,1,0,0,0,0,0]},{"tileid":4,"wangid":[1,1,1,0,0,0,0,0]},{"tileid":5,"wangid":[0,0,0,0,1,0,0,0]},{"tileid":6,"wangid":[1,0,0,0,1,0,0,0]},{"tileid":7,"wangid":[0,0,1,0,1,0,0,0]},{"tileid":8,"wangid":[1,0,1,0,1,0,0,0]},{"tileid":9,"wangid":[1,1,1,0,1,0,0,0]},{"tileid":10,"wangid":[0,0,1,1,1,0,0,0]},{"tileid":11,"wangid":[1,0,1,1,1,0,0,0]},{"tileid":12,"wangid":[1,1,1,1,1,0,0,0]},{"tileid":13,"wangid":[0,0,0,0,0,0,1,0]},{"tileid":14,"wangid":[1,0,0,0,0,0,1,0]},{"tileid":15,"wangid":[0,0,1,0,0,0,1,0]},{"tileid":16,"wangid":[1,0,1,0,0,0,1,0]},{"tileid":17,"wangid":[1,1,1,0,0,0,1,0]},{"tileid":18,"wangid":[0,0,0,0,1,0,1,0]},{"tileid":19,"wangid":[1,0,0,0,1,0,1,0]},{"tileid":20,"wangid":[0,0,1,0,1,0,1,0]},{"tileid":21,"wangid":[1,0,1,0,1,0,1,0]},{"tileid":22,"wangid":[1,1,1,0,1,0,1,0]},{"tileid":23,"wangid":[0,0,1,1,1,0,1,0]},{"tileid":24,"wangid":[1,0,1,1,1,0,1,0]},{"tileid":25,"wangid":[1,1,1,1,1,0,1,0]},{"tileid":26,"wangid":[0,0,0,0,1,1,1,0]},{"tileid":27,"wangid":[1,0,0,0,1,1,1,0]},{"tileid":28,"wangid":[0,0,1,0,1,1,1,0]},{"tileid":29,"wangid":[1,0,1,0,1,1,1,0]},{"tileid":30,"wangid":[1,1,1,0,1,1,1,0]},{"tileid":31,"wangid":[0,0,1,1,1,1,1,0]},{"tileid":32,"wangid":[1,0,1,1,1,1,1,0]},{"tileid":33,"wangid":[1,1,1,1,1,1,1,0]},{"tileid":34,"wangid":[1,0,0,0,0,0,1,1]},{"tileid":35,"wangid":[1,0,1,0,0,0,1,1]},{"tileid":36,"wangid":[1,1,1,0,0,0,1,1]},{"tileid":37,"wangid":[1,0,0,0,1,0,1,1]},{"tileid":38,"wangid":[1,0,1,0,1,0,1,1]},{"tileid":39,"wangid":[1,1,1,0,1,0,1,1]},{"tileid":40,"wangid":[1,0,1,1,1,0,1,1]},{"tileid":41,"wangid":[1,1,1,1,1,0,1,1]},{"tileid":42,"wangid":[1,0,0,0,1,1,1,1]},{"tileid":43,"wangid":[1,0,1,0,1,1,1,1]},{"tileid":44,"wangid":[1,1,1,0,1,1,1,1]},{"tileid":45,"wangid":[1,0,1,1,1,1,1,1]},{"tileid":46,"wangid":[1,1,1,1,1,1,1,1]}]}]},{"firstgid":6769,"name":"water.sea@river","type":"tileset","version":"1.10","tiledversion":"1.11.0","image":"period32/water.sea@river.png","imagewidth":256,"imageheight":576,"tilewidth":32,"tileheight":32,"tilecount":144,"columns":8,"margin":0,"spacing":0,"tiles":[{"id":0,"animation":[{"tileid":0,"duration":400},{"tileid":48,"duration":400},{"tileid":96,"duration":400}]},{"id":1,"animation":[{"tileid":1,"duration":400},{"tileid":49,"duration":400},{"tileid":97,"duration":400}]},{"id":2,"animation":[{"tileid":2,"duration":400},{"tileid":50,"duration":400},{"tileid":98,"duration":400}]},{"id":3,"animation":[{"tileid":3,"duration":400},{"tileid":51,"duration":400},{"tileid":99,"duration":400}]},{"id":4,"animation":[{"tileid":4,"duration":400},{"tileid":52,"duration":400},{"tileid":100,"duration":400}]},{"id":5,"animation":[{"tileid":5,"duration":400},{"tileid":53,"duration":400},{"tileid":101,"duration":400}]},{"id":6,"animation":[{"tileid":6,"duration":400},{"tileid":54,"duration":400},{"tileid":102,"duration":400}]},{"id":7,"animation":[{"tileid":7,"duration":400},{"tileid":55,"duration":400},{"tileid":103,"duration":400}]},{"id":8,"animation":[{"tileid":8,"duration":400},{"tileid":56,"duration":400},{"tileid":104,"duration":400}]},{"id":9,"animation":[{"tileid":9,"duration":400},{"tileid":57,"duration":400},{"tileid":105,"duration":400}]},{"id":10,"animation":[{"tileid":10,"duration":400},{"tileid":58,"duration":400},{"tileid":106,"duration":400}]},{"id":11,"animation":[{"tileid":11,"duration":400},{"tileid":59,"duration":400},{"tileid":107,"duration":400}]},{"id":12,"animation":[{"tileid":12,"duration":400},{"tileid":60,"duration":400},{"tileid":108,"duration":400}]},{"id":13,"animation":[{"tileid":13,"duration":400},{"tileid":61,"duration":400},{"tileid":109,"duration":400}]},{"id":14,"animation":[{"tileid":14,"duration":400},{"tileid":62,"duration":400},{"tileid":110,"duration":400}]},{"id":15,"animation":[{"tileid":15,"duration":400},{"tileid":63,"duration":400},{"tileid":111,"duration":400}]},{"id":16,"animation":[{"tileid":16,"duration":400},{"tileid":64,"duration":400},{"tileid":112,"duration":400}]},{"id":17,"animation":[{"tileid":17,"duration":400},{"tileid":65,"duration":400},{"tileid":113,"duration":400}]},{"id":18,"animation":[{"tileid":18,"duration":400},{"tileid":66,"duration":400},{"tileid":114,"duration":400}]},{"id":19,"animation":[{"tileid":19,"duration":400},{"tileid":67,"duration":400},{"tileid":115,"duration":400}]},{"id":20,"animation":[{"tileid":20,"duration":400},{"tileid":68,"duration":400},{"tileid":116,"duration":400}]},{"id":21,"animation":[{"tileid":21,"duration":400},{"tileid":69,"duration":400},{"tileid":117,"duration":400}]},{"id":22,"animation":[{"tileid":22,"duration":400},{"tileid":70,"duration":400},{"tileid":118,"duration":400}]},{"id":23,"animation":[{"tileid":23,"duration":400},{"tileid":71,"duration":400},{"tileid":119,"duration":400}]},{"id":24,"animation":[{"tileid":24,"duration":400},{"tileid":72,"duration":400},{"tileid":120,"duration":400}]},{"id":25,"animation":[{"tileid":25,"duration":400},{"tileid":73,"duration":400},{"tileid":121,"duration":400}]},{"id":26,"animation":[{"tileid":26,"duration":400},{"tileid":74,"duration":400},{"tileid":122,"duration":400}]},{"id":27,"animation":[{"tileid":27,"duration":400},{"tileid":75,"duration":400},{"tileid":123,"duration":400}]},{"id":28,"animation":[{"tileid":28,"duration":400},{"tileid":76,"duration":400},{"tileid":124,"duration":400}]},{"id":29,"animation":[{"tileid":29,"duration":400},{"tileid":77,"duration":400},{"tileid":125,"duration":400}]},{"id":30,"animation":[{"tileid":30,"duration":400},{"tileid":78,"duration":400},{"tileid":126,"duration":400}]},{"id":31,"animation":[{"tileid":31,"duration":400},{"tileid":79,"duration":400},{"tileid":127,"duration":400}]},{"id":32,"animation":[{"tileid":32,"duration":400},{"tileid":80,"duration":400},{"tileid":128,"duration":400}]},{"id":33,"animation":[{"tileid":33,"duration":400},{"tileid":81,"duration":400},{"tileid":129,"duration":400}]},{"id":34,"animation":[{"tileid":34,"duration":400},{"tileid":82,"duration":400},{"tileid":130,"duration":400}]},{"id":35,"animation":[{"tileid":35,"duration":400},{"tileid":83,"duration":400},{"tileid":131,"duration":400}]},{"id":36,"animation":[{"tileid":36,"duration":400},{"tileid":84,"duration":400},{"tileid":132,"duration":400}]},{"id":37,"animation":[{"tileid":37,"duration":400},{"tileid":85,"duration":400},{"tileid":133,"duration":400}]},{"id":38,"animation":[{"tileid":38,"duration":400},{"tileid":86,"duration":400},{"tileid":134,"duration":400}]},{"id":39,"animation":[{"tileid":39,"duration":400},{"tileid":87,"duration":400},{"tileid":135,"duration":400}]},{"id":40,"animation":[{"tileid":40,"duration":400},{"tileid":88,"duration":400},{"tileid":136,"duration":400}]},{"id":41,"animation":[{"tileid":41,"duration":400},{"tileid":89,"duration":400},{"tileid":137,"duration":400}]},{"id":42,"animation":[{"tileid":42,"duration":400},{"tileid":90,"duration":400},{"tileid":138,"duration":400}]},{"id":43,"animation":[{"tileid":43,"duration":400},{"tileid":91,"duration":400},{"tileid":139,"duration":400}]},{"id":44,"animation":[{"tileid":44,"duration":400},{"tileid":92,"duration":400},{"tileid":140,"duration":400}]},{"id":45,"animation":[{"tileid":45,"duration":400},{"tileid":93,"duration":400},{"tileid":141,"duration":400}]},{"id":46,"animation":[{"tileid":46,"duration":400},{"tileid":94,"duration":400},{"tileid":142,"duration":400}]}],"wangsets":[{"name":"water.sea@river","type":"mixed","tile":-1,"colors":[{"name":"water.sea@river","color":"#ff0000","tile":-1,"probability":1}],"wangtiles":[{"tileid":0,"wangid":[0,0,0,0,0,0,0,0]},{"tileid":1,"wangid":[1,0,0,0,0,0,0,0]},{"tileid":2,"wangid":[0,0,1,0,0,0,0,0]},{"tileid":3,"wangid":[1,0,1,0,0,0,0,0]},{"tileid":4,"wangid":[1,1,1,0,0,0,0,0]},{"tileid":5,"wangid":[0,0,0,0,1,0,0,0]},{"tileid":6,"wangid":[1,0,0,0,1,0,0,0]},{"tileid":7,"wangid":[0,0,1,0,1,0,0,0]},{"tileid":8,"wangid":[1,0,1,0,1,0,0,0]},{"tileid":9,"wangid":[1,1,1,0,1,0,0,0]},{"tileid":10,"wangid":[0,0,1,1,1,0,0,0]},{"tileid":11,"wangid":[1,0,1,1,1,0,0,0]},{"tileid":12,"wangid":[1,1,1,1,1,0,0,0]},{"tileid":13,"wangid":[0,0,0,0,0,0,1,0]},{"tileid":14,"wangid":[1,0,0,0,0,0,1,0]},{"tileid":15,"wangid":[0,0,1,0,0,0,1,0]},{"tileid":16,"wangid":[1,0,1,0,0,0,1,0]},{"tileid":17,"wangid":[1,1,1,0,0,0,1,0]},{"tileid":18,"wangid":[0,0,0,0,1,0,1,0]},{"tileid":19,"wangid":[1,0,0,0,1,0,1,0]},{"tileid":20,"wangid":[0,0,1,0,1,0,1,0]},{"tileid":21,"wangid":[1,0,1,0,1,0,1,0]},{"tileid":22,"wangid":[1,1,1,0,1,0,1,0]},{"tileid":23,"wangid":[0,0,1,1,1,0,1,0]},{"tileid":24,"wangid":[1,0,1,1,1,0,1,0]},{"tileid":25,"wangid":[1,1,1,1,1,0,1,0]},{"tileid":26,"wangid":[0,0,0,0,1,1,1,0]},{"tileid":27,"wangid":[1,0,0,0,1,1,1,0]},{"tileid":28,"wangid":[0,0,1,0,1,1,1,0]},{"tileid":29,"wangid":[1,0,1,0,1,1,1,0]},{"tileid":30,"wangid":[1,1,1,0,1,1,1,0]},{"tileid":31,"wangid":[0,0,1,1,1,1,1,0]},{"tileid":32,"wangid":[1,0,1,1,1,1,1,0]},{"tileid":33,"wangid":[1,1,1,1,1,1,1,0]},{"tileid":34,"wangid":[1,0,0,0,0,0,1,1]},{"tileid":35,"wangid":[1,0,1,0,0,0,1,1]},{"tileid":36,"wangid":[1,1,1,0,0,0,1,1]},{"tileid":37,"wangid":[1,0,0,0,1,0,1,1]},{"tileid":38,"wangid":[1,0,1,0,1,0,1,1]},{"tileid":39,"wangid":[1,1,1,0,1,0,1,1]},{"tileid":40,"wangid":[1,0,1,1,1,0,1,1]},{"tileid":41,"wangid":[1,1,1,1,1,0,1,1]},{"tileid":42,"wangid":[1,0,0,0,1,1,1,1]},{"tileid":43,"wangid":[1,0,1,0,1,1,1,1]},{"tileid":44,"wangid":[1,1,1,0,1,1,1,1]},{"tileid":45,"wangid":[1,0,1,1,1,1,1,1]},{"tileid":46,"wangid":[1,1,1,1,1,1,1,1]}]}]}],"layers":[{"id":1,"name":"ground","type":"tilelayer","x":0,"y":0,"opacity":1,"visible":true,"width":144,"height":96,"data":[47,2147483743,2147483791,2147483839,47,143,191,2147483695,2147483743,2147483839,47,95,143,47,2147483743,2147483791,2147483839,47,143,191,2147483695,2147483743,2147483839,47,95,143,47,2147483743,2147483791,2147483839,95,143,191,2147483695,2147483743,2147483839,47,95,143,47,2147483743,2147483791,2147483839,95,143,191,2147483695,2147483791,2147483839,2147483695,95,143,47,2147483743,2147483791,2147483839,95,143,191,2147483695,2147483791,2147483839,2147483695,95,191,47,2147483743,2147483791,2147483839,95,143,191,2147483695,2147483791,2147483839,2147483695,95,191,47,2147483743,2147483791,2147483695,95,143,191,47,2147483791,2147483839,2147483695,95,191,47,2147483743,2147483791,2147483695,95,143,191,95,2147483791,2147483839,2147483695,95,191,47,2147483743,2147483791,2147483695,95,143,191,95,2147483791,2147483839,2147483695,143,191,47,2147483743,2147483791,2147483695,2147483743,143,191,95,2147483791,2147483839,2147483695,143,191,47,2147483743,2147483839,2147483695,2147483743,143,191,95,2147483791,2147483839,2147483695,143,191,47,2147483695,143,2147483743,191,47,2147483695,95,2147483839,47,2147483839,95,191,2147483695,191,2147483839,191,47,2147483839,2147483743,2147483839,2147483839,191,191,47,95,2147483839,2147483743,191,47,2147483695,95,2147483743,2147483791,2147483839,2147483695,2147483695,2147483839,95,2147483695,47,191,2147483839,47,47,191,95,143,2147483743,2147483839,191,47,95,191,2147483695,2147483839,2147483791,95,2147483695,47,2147483695,191,2147483743,2147483695,143,95,2147483743,2147483695,2147483839,2147483695,191,47,2147483839,95,143,47,2147483695,95,47,2147483839,2147483743,143,191,2147483743,95,2147483695,2147483695,2147483695,2147483743,2147483791,47,143,191,2147483695,2147483839,47,95,143,191,2147483839,2147483695,191,2147483743,2147483839,143,2147483743,47,2147483695,143,2147483743,143,2147483791,47,95,95,95,2147483791,2147483839,2147483743,143,47,95,95,2147483695,2147483695,191,2147483743,191,95,2147483743,2147483839,2147483743,2147483695,95,95,95,2147483695,2147483743,47,143,2147483743,2147483743,2147483791,2147483695,2147483839,47,2147483695,95,2147483695,143,95,143,95,2147483695,47,95,2147483695,2147483791,143,191,2147483791,95,2147483743,2147483791,95,2147483839,143,191,2147483839,2147483743,95,143,95,143,2147483791,143,2147483791,95,191,143,191,2147483839,2147483791,191,47,143,47,2147483839,191,2147483839,191,2147483695,2147483743,2147483791,2147483695,191,47,2147483791,2147483743,2147483791,191,47,143,95,143,143,2147483743,143,191,2147483695,2147483839,2147483791,191,2147483695,2147483791,95,2147483695,191,2147483839,2147483791,191,47,143,2147483743,2147483839,2147483791,2147483839,143,143,47,2147483791,95,47,2147483839,2147483839,2147483791,191,2147483743,191,2147483791,47,191,143,2147483839,143,95,47,143,95,2147483791,47,2147483743,2147483791,2147483839,143,2147483695,2147483839,2147483791,47,2147483743,2147483791,2147483695,191,95,2147483695,191,2147483743,143,2147483839,47,191,2147483743,47,2147483839,2147483695,2147483839,191,47,2147483839,143,47,2147483743,2147483743,191,2147483839,2147483695,191,191,2147483695,2147483695,2147483695,2147483839,2147483791,95,95,2147483695,191,2147483695,95,143,47,2147483839,2147483791,2147483695,2147483695,143,2147483743,95,191,95,2147483743,191,47,2147483743,143,95,47,191,2147483839,143,95,191,2147483839,191,2147483743,95,2147483839,191,2147483791,2147483839,2147483743,95,47,2147483791,2147483743,2147483695,2147483695,2147483743,47,2147483695,2147483791,2147483743,2147483695,191,2147483695,2147483743,191,143,2147483695,2147483839,2147483743,2147483791,2147483791,2147483839,2147483839,2147483791,95,2147483743,191,2147483839,2147483791,47,2147483743,191,2147483695,2147483839,2147483743,47,2147483695,2147483743,47,2147483839,143,95,191,2147483839,2147483839,95,2147483791,47,2147483839,143,95,95,95,2147483791,2147483791,95,2147483743,2147483695,191,2147483791,95,95,191,95,95,2147483743,2147483839,143,191,2147483839,2147483791,47,191,2147483791,2147483743,2147483695,2147483791,2147483791,2147483695,2147483791,2147483695,2147483695,2147483791,2147483839,47,2147483695,47,191,2147483743,2147483695,47,2147483695,2147483743,2147483743,2147483791,47,47,2147483791,2147483791,95,2147483791,95,143,2147483695,47,191,95,95,2147483695,47,47,2147483791,2147483791,2147483695,2147483839,2147483839,95,95,191,47,2147483743,2147483839,2147483743,2147483743,47,47,2147483695,2147483695,2147483695,2147483791,95,2147483743,2147483839,191,2147483839,2147483791,2147483791,2147483743,2147483695,191,143,143,2147483743,47,95,143,2147483791,2147483791,2147483839,2147483839,2147483695,2147483839,191,2147483695,191,143,2147483743,2147483743,47,47,2147483695,2147483743,2147483743,95,143,2147483839,2147483839,2147483839,2147483791,47,47,2147483791,95,143,47,47,2147483695,143,2147483743,95,2147483695,2147483695,47,2147483743,47,143,2147483743,2147483839,191,191,143,2147483791,143,2147483695,191,143,95,2147483743,95,2147483743,2147483839,191,2147483791,2147483695,2147483695,2147483695,143,143,2147483743,2147483695,2147483839,2147483791,143,95,95,2147483743,191,2147483839,143,47,2147483695,2147483695,191,191,2147483743,47,2147483695,2147483791,191,2147483743,191,191,2147483743,2147483743,2147483695,143,143,95,2147483695,2147483743,191,2147483839,2147483743,2147483695,2147483695,2147483743,2147483695,95,2147483791,143,95,47,2147483791,2147483839,191,2147483743,143,2147483791,47,2147483839,2147483791,2147483791,2147483695,95,143,95,2147483695,191,191,2147483839,47,191,2147483695,2147483695,47,2147483839,143,143,2147483695,191,143,2147483695,143,143,2147483791,2147483695,2147483839,2147483839,143,2147483839,95,2147483743,2147483791,2147483695,2147483743,191,2147483791,143,47,2147483695,191,2147483695,47,2147483743,2147483743,143,2147483695,95,2147483791,47,95,143,191,47,191,143,2147483695,47,95,2147483791,47,47,2147483839,2147483695,191,191,2147483791,2147483839,47,191,143,2147483743,95,2147483743,143,2147483839,143,2147483791,95,2147483743,47,47,2147483791,47,47,143,191,2147483695,95,191,143,2147483743,2147483791,143,2147483695,191,2147483695,143,2147483839,143,143,2147483743,191,191,47,2147483839,191,2147483743,95,95,191,47,47,191,47,2147483743,2147483839,2147483791,143,95,191,191,47,2147483743,47,2147483839,2147483791,191,95,95,143,2147483695,191,2147483839,47,2147483695,143,2147483839,143,2147483839,143,2147483695,143,143,2147483839,2147483695,2147483791,2147483839,2147483791,95,2147483791,2147483743,95,2147483839,2147483791,95,2147483695,95,2147483791,95,2147483791,47,2147483791,143,143,2147483791,47,2147483791,143,143,2147483839,143,143,2147483791,2147483743,47,143,2147483791,2147483743,2147483743,143,191,2147483791,2147483695,143,143,2147483791,2147483839,2147483695,2147483695,143,191,2147483791,143,95,2147483791,95,2147483791,191,2147483791,2147483695,2147483791,2147483743,143,2147483695,143,2147483839,2147483695,2147483743,2147483839,2147483695,2147483791,95,2147483839,2147483695,47,47,95,2147483695,143,2147483791,47,95,2147483695,2147483743,2147483791,47,47,2147483743,47,2147483791,2147483695,191,191,2147483791,47,2147483695,2147483839,47,2147483743,2147483791,2147483839,95,2147483791,191,2147483743,143,95,143,2147483839,2147483791,191,95,2147483743,143,47,2147483743,2147483839,47,2147483839,191,47,2147483791,2147483839,191,2147483839,2147483695,2147483839,2147483791,2147483839,191,2147483743,2147483743,2147483743,47,47,2147483695,2147483839,95,191,95,143,2147483791,143,143,2147483791,2147483839,2147483743,2147483839,2147483743,2147483839,2147483695,2147483695,2147483839,2147483743,2147483839,2147483695,143,2147483791,2147483695,2147483695,47,95,2147483839,2147483743,2147483839,191,143,2147483791,2147483743,143,95,2147483839,2147483695,95,47,47,191,2147483695,191,2147483743,2147483791,143,2147483791,143,2147483791,2147483839,143,2147483839,2147483743,143,95,2147483743,47,2147483743,47,143,2147483839,191,143,2147483839,2147483743,143,191,191,47,2147483791,2147483695,47,47,95,191,47,143,95,47,95,47,2147483695,2147483743,2147483743,191,47,143,2147483839,2147483791,191,191,47,95,95,191,143,2147483839,2147483695,2147483743,2147483695,2147483791,2147483791,2147483791,2147483743,2147483791,2147483743,2147483791,47,95,191,2147483839,191,191,2147483791,2147483695,2147483791,143,143,143,2147483695,95,95,2147483791,191,2147483695,95,95,2147483743,95,47,2147483839,47,2147483743,2147483695,2147483695,2147483839,191,2147483839,2147483695,143,143,143,95,2147483839,47,2147483743,95,2147483791,143,2147483695,143,47,2147483839,47,47,2147483695,47,2147483743,47,143,2147483743,95,2147483743,2147483743,95,2147483839,2147483839,95,2147483839,2147483839,2147483839,191,191,191,2147483791,2147483839,2147483743,191,2147483791,191,2147483839,95,191,95,191,2147483743,2147483743,2147483743,95,143,2147483743,2147483791,2147483743,143,95,2147483695,2147483695,191,2147483791,2147483695,191,47,2147483791,2147483791,2147483839,2147483839,191,191,95,143,95,143,143,95,95,47,191,2147483743,47,47,95,2147483743,2147483791,143,95,191,2147483791,2147483743,2147483743,2147483695,47,95,2147483695,95,191,2147483839,2147483839,2147483839,2147483695,2147483695,2147483791,2147483839,143,2147483695,2147483743,2147483743,191,2147483743,95,95,143,191,191,2147483791,47,2147483839,2147483695,47,47,2147483695,191,2147483695,2147483791,2147483791,143,2147483791,95,2147483791,143,2147483695,143,2147483695,2147483791,47,47,47,2147483743,143,47,2147483791,47,143,191,191,2147483791,143,2147483839,47,47,2147483743,2147483791,2147483839,95,2147483791,2147483839,47,2147483695,47,2147483791,143,2147483743,2147483743,143,2147483839,2147483839,47,95,2147483791,2147483695,2147483743,191,191,47,2147483695,143,143,95,191,2147483791,143,191,2147483695,143,2147483695,47,143,143,2147483743,143,2147483839,95,2147483695,2147483695,143,2147483743,95,2147483695,2147483743,2147483839,2147483791,143,191,191,191,47,95,143,2147483743,2147483743,2147483839,143,2147483791,143,47,2147483839,95,2147483839,143,143,2147483791,2147483791,47,191,95,2147483695,191,2147483791,143,143,47,191,2147483743,2147483839,2147483839,2147483791,95,95,191,143,47,143,2147483695,95,2147483791,95,143,143,47,2147483695,2147483743,2147483839,2147483695,2147483839,2147483791,47,2147483839,2147483695,47,191,2147483839,143,95,2147483839,2147483791,2147483839,47,2147483791,191,2147483791,2147483743,191,2147483791,191,47,95,2147483839,143,95,2147483791,2147483791,2147483743,47,95,2147483839,143,2147483743,2147483743,95,143,2147483695,47,2147483791,143,95,47,95,95,191,2147483839,2147483743,2147483743,2147483839,2147483743,95,143,191,191,2147483743,2147483839,2147483839,95,2147483743,2147483743,191,47,143,2147483791,143,2147483695,2147483695,47,2147483839,2147483743,47,191,95,47,47,2147483839,2147483839,2147483743,47,191,95,2147483791,2147483695,143,2147483839,47,191,191,2147483743,95,143,2147483743,95,2147483743,2147483695,191,95,95,143,2147483743,47,2147483743,2147483743,2147483791,143,95,95,2147483743,2147483695,2147483695,95,2147483743,2147483791,95,47,2147483695,2147483839,2147483839,2147483695,2147483791,143,2147483743,191,191,2147483791,143,95,143,143,2147483743,191,2147483695,2147483839,2147483791,95,143,2147483743,2147483743,191,95,2147483695,47,47,95,143,143,2147483791,95,191,2147483695,2147483695,2147483839,47,143,143,95,2147483695,2147483695,95,191,2147483839,2147483743,2147483743,2147483695,95,2147483839,95,2147483743,2147483839,2147483839,95,2147483743,2147483743,2147483839,2147483743,2147483743,2147483839,2147483743,2147483839,2147483791,2147483791,191,191,2147483695,47,95,2147483743,143,2147483791,2147483695,2147483839,95,2147483695,143,95,191,143,47,191,2147483743,2147483695,2147483791,95,2147483839,143,47,47,95,2147483743,2147483791,143,2147483839,2147483839,47,2147483695,2147483743,95,2147483791,143,2147483839,191,47,47,95,2147483743,2147483791,143,2147483839,2147483839,47,2147483695,95,95,2147483791,143,2147483839,191,2147483695,47,2147483743,95,2147483791,143,2147483839,2147483839,47,2147483695,2147483743,2147483743,2147483791,143,191,191,47,2147483695,95,95,191,143,47,2147483839,2147483743,2147483695,2147483791,2147483743,191,143,47,2147483839,2147483743,47,143,95,2147483839,191,47,47,2147483743,2147483743,143,2147483791,2147483839,2147483839,2147483695,95,95,143,143,2147483839,191,2147483695,2147483695,2147483743,95,143,143,191,191,47,47,2147483743,95,2147483791,2147483791,191,191,47,2147483695,143,2147483743,191,143,47,2147483839,95,2147483695,2147483791,95,191,143,47,191,2147483743,191,2147483791,95,47,2147483695,2147483839,143,191,2147483839,143,2147483743,47,47,95,47,2147483839,2147483839,2147483791,2147483743,2147483695,191,143,95,47,2147483695,191,2147483743,2147483695,2147483695,191,2147483791,95,2147483743,191,47,143,191,2147483695,95,2147483695,2147483791,2147483791,2147483695,2147483743,2147483839,2147483695,2147483839,2147483743,143,191,2147483743,143,2147483791,2147483839,2147483743,143,2147483839,47,47,143,2147483839,47,95,191,47,95,2147483695,2147483695,47,143,95,2147483695,47,2147483791,2147483743,2147483743,2147483743,191,2147483743,95,2147483743,2147483839,2147483791,2147483791,2147483695,143,95,95,95,2147483839,2147483791,2147483695,2147483695,143,2147483743,95,2147483743,191,2147483839,95,2147483839,2147483695,47,2147483791,2147483839,2147483791,2147483695,2147483695,47,191,2147483695,2147483695,47,2147483791,95,95,191,95,2147483695,2147483695,47,143,95,191,2147483839,95,2147483695,2147483695,47,2147483695,2147483791,191,47,95,191,47,2147483695,2147483743,2147483791,2147483695,95,2147483791,95,143,2147483839,191,191,47,47,2147483695,191,2147483695,95,2147483791,2147483743,2147483791,2147483791,143,2147483791,191,2147483695,2147483695,47,95,2147483743,95,47,2147483743,2147483791,2147483839,143,143,2147483791,2147483791,95,191,2147483695,2147483839,47,143,47,2147483743,2147483695,191,2147483839,2147483791,191,2147483743,191,191,143,2147483743,95,2147483695,95,191,2147483839,2147483695,2147483839,2147483743,2147483743,47,2147483743,191,2147483791,2147483791,95,191,191,191,47,143,2147483791,2147483743,143,143,47,95,2147483791,47,2147483695,2147483839,47,47,2147483743,2147483839,47,143,2147483791,2147483695,143,143,191,2147483743,143,95,47,2147483839,2147483743,95,2147483791,2147483743,2147483743,143,2147483839,191,2147483839,191,143,2147483839,95,95,191,2147483743,191,95,2147483743,95,2147483839,47,143,191,2147483791,2147483695,191,2147483695,143,143,47,2147483791,47,143,2147483791,2147483743,95,2147483695,143,2147483839,2147483839,47,143,2147483695,2147483839,2147483791,2147483695,95,143,191,191,191,47,2147483839,2147483743,47,2147483743,2147483839,191,95,143,2147483743,2147483839,2147483743,2147483791,2147483695,47,2147483695,95,47,95,2147483839,2147483695,47,47,2147483791,2147483791,95,143,2147483791,2147483839,2147483791,143,2147483791,2147483839,143,2147483695,95,47,143,2147483791,2147483695,143,2147483743,143,191,95,2147483695,2147483695,2147483839,47,191,2147483743,143,2147483743,47,2147483695,2147483839,143,2147483743,2147483839,47,191,2147483791,2147483791,2147483839,143,2147483839,95,2147483791,2147483743,143,143,95,2147483695,2147483743,2147483839,47,143,47,47,2147483695,191,2147483695,47,95,47,191,191,2147483791,2147483743,95,2147483791,191,191,2147483743,2147483743,143,95,2147483791,2147483695,2147483743,2147483695,2147483743,47,2147483695,2147483791,191,95,191,2147483839,191,2147483791,2147483839,2147483743,2147483791,143,2147483743,143,95,2147483743,95,2147483839,191,47,2147483839,47,47,191,2147483743,2147483839,47,2147483695,95,2147483791,2147483743,191,191,95,2147483839,143,2147483791,2147483839,143,2147483839,2147483791,143,2147483839,2147483695,47,2147483839,143,2147483743,2147483743,2147483791,191,191,2147483743,2147483839,2147483791,2147483695,2147483791,2147483791,2147483839,47,2147483743,191,191,2147483743,2147483791,47,2147483743,2147483743,2147483791,95,191,2147483791,2147483839,47,95,2147483791,47,95,47,2147483839,143,2147483695,2147483743,2147483743,2147483839,95,47,2147483791,191,2147483695,2147483743,95,2147483839,47,191,143,95,191,2147483695,2147483695,2147483791,47,191,95,2147483791,95,95,2147483743,2147483839,191,47,143,2147483791,47,95,2147483743,2147483839,2147483743,95,2147483839,47,191,2147483791,2147483839,95,2147483743,2147483791,47,2147483839,143,2147483839,2147483839,47,2147483743,2147483743,2147483695,2147483695,2147483839,95,47,95,2147483743,143,2147483695,95,143,191,191,2147483791,143,47,47,2147483791,191,2147483839,47,191,143,47,2147483743,143,2147483839,47,2147483839,2147483839,2147483791,2147483743,47,47,2147483743,95,143,2147483743,47,143,2147483743,191,47,2147483743,2147483791,47,47,143,47,2147483839,95,2147483839,2147483791,2147483695,143,191,95,2147483839,2147483791,2147483839,143,2147483791,47,143,2147483743,2147483695,95,191,2147483743,191,95,191,143,191,47,95,47,2147483839,95,2147483791,95,2147483695,191,191,2147483695,2147483695,47,143,2147483839,191,2147483839,191,191,2147483695,143,2147483791,2147483791,2147483695,191,2147483695,2147483791,2147483839,143,2147483839,191,191,2147483791,2147483791,2147483791,143,143,191,2147483839,2147483743,2147483839,47,2147483695,2147483791,191,2147483695,191,2147483743,2147483839,2147483743,2147483695,2147483743,143,191,143,2147483743,191,2147483743,2147483839,2147483695,143,95,191,95,191,191,2147483791,47,143,2147483695,191,2147483743,95,95,2147483791,143,95,2147483791,2147483791,191,2147483743,95,2147483791,47,2147483743,47,2147483743,2147483743,143,2147483743,2147483743,2147483839,95,191,2147483791,47,95,2147483839,2147483743,191,2147483743,47,143,2147483743,2147483791,2147483791,2147483791,143,143,191,2147483791,95,95,143,191,2147483791,2147483743,95,2147483695,143,2147483791,143,2147483743,2147483839,2147483743,47,2147483695,2147483695,191,47,2147483839,2147483839,95,191,2147483839,2147483743,2147483743,143,143,2147483695,143,2147483695,2147483695,2147483695,2147483743,143,95,143,2147483695,2147483839,191,95,47,2147483791,191,2147483839,2147483839,2147483743,2147483839,2147483695,143,2147483695,143,143,191,2147483839,95,95,191,95,95,95,95,2147483695,191,2147483695,191,95,2147483839,2147483839,143,2147483791,2147483743,2147483695,47,2147483743,2147483695,95,2147483839,2147483839,191,143,143,143,143,47,191,143,2147483743,2147483695,47,2147483695,2147483743,191,2147483695,143,2147483791,2147483791,2147483791,2147483695,47,143,143,2147483743,2147483743,47,2147483791,47,2147483791,95,95,2147483743,47,95,2147483695,191,191,191,47,47,2147483791,143,2147483695,2147483743,143,143,2147483791,143,2147483695,95,191,47,2147483743,47,191,2147483695,2147483791,2147483743,95,2147483695,95,2147483839,2147483695,191,2147483695,47,191,2147483743,2147483839,95,47,191,47,2147483839,2147483743,2147483743,2147483839,2147483695,2147483743,95,95,143,2147483791,2147483839,95,2147483743,143,191,2147483839,2147483839,2147483695,2147483743,191,2147483839,2147483695,2147483695,2147483695,2147483743,95,95,47,47,95,2147483791,2147483791,2147483791,2147483839,2147483839,95,2147483695,143,2147483839,2147483839,95,47,2147483743,2147483839,191,2147483695,2147483743,95,2147483791,2147483791,191,2147483791,95,2147483839,47,2147483695,143,95,143,2147483695,2147483695,95,143,143,191,2147483791,2147483695,95,2147483743,47,2147483839,2147483839,95,47,95,47,2147483839,2147483743,47,2147483695,2147483743,47,2147483791,47,191,2147483791,2147483743,2147483743,47,2147483839,47,2147483791,143,2147483695,2147483695,47,95,47,191,191,2147483839,2147483791,95,95,2147483839,2147483791,2147483695,2147483791,95,2147483695,2147483839,47,47,191,95,2147483839,2147483791,2147483791,2147483743,95,2147483839,2147483791,2147483839,2147483743,95,2147483839,2147483839,191,191,2147483791,2147483695,2147483743,95,2147483695,47,47,2147483743,2147483695,2147483743,143,191,143,2147483743,2147483695,143,191,95,95,143,95,191,2147483743,47,2147483695,143,2147483839,95,47,95,191,2147483743,143,2147483695,2147483791,2147483839,2147483791,143,2147483695,2147483839,95,191,2147483695,47,2147483839,191,2147483791,191,2147483695,2147483791,143,95,143,47,143,95,95,191,2147483695,2147483839,2147483695,95,47,143,191,2147483743,2147483791,47,95,2147483743,2147483695,143,2147483695,2147483791,191,2147483791,2147483791,2147483839,95,2147483791,2147483743,2147483791,2147483791,47,2147483743,2147483839,2147483743,47,2147483839,191,47,2147483791,47,2147483743,2147483839,2147483743,2147483695,95,143,95,143,143,2147483695,2147483839,2147483791,2147483839,2147483695,191,191,47,2147483791,191,2147483791,143,191,2147483743,2147483791,95,2147483695,2147483791,95,95,143,47,2147483791,2147483743,143,2147483839,2147483791,2147483839,2147483743,191,47,191,2147483839,95,2147483695,2147483791,143,2147483743,2147483743,2147483695,95,95,47,95,2147483839,2147483839,2147483695,2147483839,95,2147483839,2147483791,143,47,2147483743,2147483839,2147483743,95,143,47,2147483743,2147483695,2147483695,2147483695,2147483839,47,143,191,2147483743,2147483695,191,2147483839,2147483791,191,2147483743,2147483839,47,191,191,191,2147483791,191,47,191,2147483743,2147483839,2147483839,2147483839,2147483791,47,2147483791,191,2147483839,2147483839,2147483839,2147483839,2147483695,2147483839,95,143,143,143,143,2147483791,2147483695,191,95,143,143,47,47,2147483695,2147483791,47,2147483839,2147483695,47,47,191,2147483695,2147483791,2147483695,2147483791,2147483791,2147483839,143,2147483791,2147483695,2147483743,2147483791,143,2147483791,191,95,143,95,2147483743,2147483791,143,2147483839,191,2147483791,2147483839,95,2147483743,2147483791,143,2147483791,143,2147483743,2147483791,2147483695,2147483695,95,2147483695,143,2147483839,95,47,2147483839,2147483695,2147483839,143,191,143,191,143,95,2147483839,2147483839,143,191,143,2147483791,2147483743,2147483695,2147483791,143,2147483743,143,2147483743,143,2147483743,47,95,2147483791,95,2147483743,143,143,95,2147483839,2147483791,47,2147483743,95,2147483743,2147483791,95,2147483791,95,2147483743,2147483839,2147483791,95,47,47,2147483743,2147483695,2147483791,2147483743,2147483839,191,2147483743,47,47,2147483791,47,2147483839,2147483743,2147483743,95,95,2147483791,191,143,47,2147483695,191,2147483791,143,2147483839,47,191,191,191,191,2147483743,2147483695,95,191,47,2147483743,2147483743,143,2147483839,2147483791,95,2147483695,2147483743,143,143,191,2147483743,2147483695,143,2147483743,143,191,2147483743,2147483791,2147483839,2147483791,191,143,2147483695,47,191,95,191,2147483743,2147483791,2147483695,2147483791,143,47,2147483791,2147483743,143,47,2147483695,191,2147483791,95,2147483839,2147483839,95,2147483743,2147483791,47,2147483695,2147483791,191,2147483791,2147483839,47,2147483695,143,2147483791,191,47,2147483695,2147483839,143,95,143,2147483839,47,191,2147483743,2147483695,95,47,2147483695,2147483743,143,2147483743,2147483743,2147483695,191,143,143,191,47,2147483695,143,95,47,191,191,2147483839,2147483743,191,191,191,2147483695,2147483743,2147483791,47,143,2147483695,2147483743,2147483743,47,2147483743,95,95,2147483743,47,2147483839,2147483839,2147483839,2147483791,95,2147483743,95,47,191,191,191,2147483791,2147483743,2147483743,95,95,2147483695,191,191,191,2147483791,2147483743,2147483743,2147483743,2147483695,2147483839,2147483839,191,143,95,95,2147483743,2147483695,191,191,2147483839,143,2147483743,95,95,2147483695,2147483839,2147483839,191,2147483791,95,2147483743,95,2147483695,47,2147483695,2147483839,2147483791,143,2147483791,2147483743,47,47,47,191,2147483791,2147483791,2147483791,2147483743,2147483695,2147483695,47,2147483839,143,143,143,2147483743,47,47,47,191,2147483791,143,2147483791,95,47,47,47,2147483695,2147483839,2147483791,143,143,95,2147483695,47,2147483695,191,143,2147483791,2147483791,2147483743,47,47,2147483695,191,143,2147483791,95,95,2147483695,2147483695,2147483839,191,2147483791,143,95,2147483743,2147483695,47,2147483839,191,191,191,95,95,95,2147483743,2147483839,2147483839,2147483839,191,95,2147483743,95,2147483743,191,2147483839,191,191,2147483743,2147483743,95,2147483743,191,2147483743,95,2147483791,95,2147483791,191,2147483695,95,2147483791,2147483743,2147483791,95,2147483791,2147483743,2147483791,95,143,2147483743,2147483791,95,2147483743,95,2147483839,2147483743,2147483839,143,2147483791,2147483695,2147483791,2147483791,2147483695,143,2147483695,2147483743,2147483743,143,2147483743,191,191,2147483791,2147483743,95,95,143,95,2147483839,2147483743,143,2147483743,2147483791,95,191,2147483695,2147483839,143,47,2147483791,2147483839,2147483743,2147483791,2147483743,2147483839,191,47,2147483839,47,2147483743,95,143,143,2147483839,95,143,2147483695,2147483743,95,2147483839,143,143,143,47,95,191,2147483839,2147483791,143,2147483839,191,2147483695,143,2147483839,95,2147483791,2147483791,2147483839,2147483839,2147483695,95,47,95,2147483743,2147483839,2147483791,2147483839,2147483791,2147483839,2147483743,191,2147483791,95,143,2147483839,2147483839,191,143,191,2147483743,2147483839,2147483743,191,191,2147483839,143,2147483743,2147483743,2147483839,143,2147483839,191,95,191,95,2147483839,191,47,2147483839,191,2147483791,191,2147483791,191,2147483695,191,2147483743,2147483791,143,2147483695,2147483743,143,2147483791,2147483695,2147483743,47,2147483695,2147483839,2147483839,95,95,191,47,191,2147483839,95,143,2147483839,2147483839,2147483743,2147483791,2147483743,2147483743,2147483839,2147483695,95,2147483743,2147483839,2147483695,191,95,2147483743,191,2147483839,191,2147483743,47,2147483791,47,47,143,143,2147483791,2147483695,143,2147483695,2147483839,143,2147483695,2147483791,143,47,143,2147483695,191,143,2147483695,2147483695,47,143,2147483743,143,143,2147483791,191,95,191,2147483695,191,2147483791,2147483695,47,2147483791,2147483839,143,95,2147483743,2147483695,2147483743,95,2147483839,2147483695,191,191,191,2147483791,2147483695,47,2147483791,191,2147483791,143,2147483791,95,2147483695,2147483791,2147483839,143,143,95,2147483743,2147483743,2147483695,191,47,143,143,2147483743,2147483695,191,143,2147483743,143,95,2147483743,2147483695,191,143,95,2147483695,2147483743,191,191,2147483791,95,2147483743,191,191,191,95,47,95,2147483791,95,2147483743,2147483743,2147483743,2147483839,191,47,2147483743,143,143,95,47,47,191,2147483791,47,2147483791,2147483695,2147483839,2147483839,143,47,2147483839,143,2147483839,191,143,2147483743,47,143,95,2147483743,191,95,2147483839,2147483791,95,2147483743,47,2147483839,47,95,2147483695,47,2147483839,47,2147483743,2147483839,95,2147483839,2147483839,2147483791,2147483743,143,143,2147483743,2147483839,143,95,95,2147483695,95,143,143,191,95,191,2147483839,2147483791,191,2147483695,47,2147483743,2147483791,191,47,2147483695,95,143,2147483695,2147483743,2147483839,95,2147483839,2147483791,143,2147483839,2147483791,191,191,2147483695,95,2147483839,2147483695,2147483743,95,2147483791,2147483695,143,143,95,143,47,2147483839,47,2147483743,2147483791,2147483839,2147483839,47,95,143,191,95,143,191,191,2147483695,47,2147483791,2147483743,2147483695,2147483791,2147483743,95,143,2147483839,2147483695,2147483695,2147483791,2147483695,143,2147483839,2147483695,2147483743,2147483839,143,191,2147483695,2147483839,143,143,191,47,143,2147483695,2147483791,2147483791,95,191,191,95,2147483791,2147483743,2147483839,2147483695,2147483839,2147483839,47,2147483839,2147483695,2147483695,47,47,143,2147483839,95,191,2147483839,2147483743,47,47,191,191,2147483743,47,47,2147483695,2147483743,2147483791,47,95,143,2147483743,2147483743,2147483743,2147483743,2147483791,2147483743,143,143,143,143,95,143,143,47,143,191,2147483743,2147483743,143,143,2147483839,2147483695,95,2147483743,95,95,47,95,143,191,95,2147483791,47,47,2147483743,2147483791,2147483791,2147483695,143,95,95,2147483743,47,2147483791,143,47,95,143,2147483791,143,191,47,191,143,47,143,191,2147483839,143,2147483839,47,2147483743,191,2147483839,2147483791,2147483791,2147483839,2147483695,2147483839,143,2147483695,191,2147483695,2147483839,2147483791,47,143,2147483791,2147483839,2147483839,191,191,191,95,2147483791,191,47,2147483839,2147483839,2147483695,2147483839,2147483695,2147483791,2147483791,47,191,191,191,2147483743,143,47,95,2147483791,95,2147483743,2147483695,95,2147483791,2147483695,2147483743,143,2147483743,2147483743,191,143,143,191,47,2147483791,2147483791,2147483839,2147483839,2147483695,95,2147483791,143,2147483791,191,2147483695,47,2147483791,2147483791,2147483839,143,47,2147483695,2147483791,2147483791,2147483695,143,47,47,143,2147483791,47,2147483695,2147483791,2147483695,2147483695,2147483791,143,47,2147483791,47,2147483695,143,2147483791,47,47,47,47,143,143,2147483695,2147483695,2147483695,2147483695,95,2147483791,47,2147483695,47,2147483695,2147483791,2147483791,47,2147483695,143,2147483695,47,2147483743,2147483791,191,47,47,2147483695,2147483791,2147483791,47,47,2147483791,2147483695,2147483791,2147483791,191,2147483839,95,2147483695,143,2147483791,2147483695,47,95,143,143,2147483791,2147483839,2147483695,95,2147483743,2147483695,143,143,47,2147483695,2147483743,2147483743,191,191,47,95,191,191,2147483839,191,95,2147483743,2147483839,2147483839,191,2147483839,2147483695,2147483695,2147483791,191,2147483695,2147483839,2147483743,95,191,191,95,143,2147483839,47,2147483695,2147483791,2147483791,2147483695,2147483839,2147483743,2147483743,2147483839,191,2147483743,2147483839,95,2147483839,95,2147483839,191,2147483695,2147483791,143,2147483791,2147483839,191,47,2147483743,143,95,143,2147483695,2147483791,2147483695,2147483839,191,95,2147483839,191,2147483743,191,2147483791,2147483791,191,47,95,2147483743,2147483695,95,2147483695,95,2147483839,2147483791,2147483743,47,143,2147483791,191,191,95,2147483743,47,47,2147483695,47,47,2147483743,191,47,2147483839,143,2147483743,2147483743,2147483839,2147483695,2147483791,143,2147483743,2147483695,2147483695,2147483695,2147483839,95,2147483791,143,47,95,2147483695,2147483743,95,191,191,2147483743,2147483791,47,191,47,143,2147483743,95,2147483695,95,2147483791,47,95,95,2147483839,95,191,2147483695,2147483695,143,2147483695,143,191,2147483743,2147483743,2147483695,2147483839,191,2147483839,2147483839,95,143,2147483791,47,95,2147483839,95,191,2147483791,191,2147483743,2147483839,191,2147483743,143,143,95,191,2147483839,95,2147483743,143,2147483743,143,143,2147483791,47,47,2147483791,2147483791,143,95,95,47,2147483791,2147483791,95,95,191,143,143,2147483839,2147483791,2147483791,2147483791,2147483791,2147483695,2147483695,191,95,47,2147483695,191,2147483743,143,143,95,143,2147483743,2147483791,95,2147483791,191,2147483695,2147483791,191,191,2147483791,143,191,2147483743,95,47,2147483743,47,2147483839,191,2147483695,143,47,95,143,143,95,95,2147483839,47,2147483743,2147483839,47,95,2147483695,47,95,143,47,143,191,2147483839,2147483791,2147483791,47,2147483743,2147483743,2147483839,95,2147483695,191,2147483743,95,143,2147483695,2147483743,191,2147483839,2147483791,143,2147483791,2147483839,47,2147483743,2147483695,143,143,191,191,47,143,2147483695,2147483743,95,2147483695,2147483743,2147483791,2147483839,191,95,2147483695,143,95,191,2147483791,2147483695,2147483695,191,191,2147483743,143,95,143,143,95,47,47,2147483791,2147483839,191,2147483695,2147483695,2147483695,191,2147483791,2147483695,2147483791,47,143,143,2147483695,191,2147483839,47,143,95,2147483839,191,2147483791,2147483743,47,95,47,191,47,2147483839,95,2147483695,2147483839,47,95,143,47,2147483695,143,2147483743,2147483695,2147483791,47,95,2147483791,2147483791,2147483839,191,2147483743,95,2147483791,191,2147483839,2147483839,95,143,2147483695,2147483839,191,2147483695,95,2147483743,95,2147483743,191,2147483743,191,191,95,2147483743,2147483839,2147483791,47,191,95,2147483791,2147483839,2147483839,2147483695,2147483695,143,2147483695,2147483839,143,143,143,95,95,47,143,95,2147483839,47,47,2147483743,2147483791,191,2147483743,2147483839,2147483839,2147483695,47,2147483839,2147483695,47,2147483791,2147483743,2147483743,2147483791,2147483791,47,2147483743,2147483791,95,2147483695,191,191,2147483839,143,191,2147483695,2147483839,2147483743,2147483695,95,2147483743,143,191,47,2147483743,47,191,143,2147483839,2147483839,2147483791,47,2147483743,2147483791,191,191,47,2147483695,191,95,2147483839,2147483695,2147483743,2147483743,2147483743,143,2147483743,47,95,2147483791,143,143,191,2147483791,95,191,2147483791,47,143,95,2147483839,47,2147483839,2147483695,2147483839,143,2147483695,2147483695,47,2147483695,2147483743,143,2147483791,2147483839,2147483791,2147483743,191,2147483695,47,143,143,143,95,47,143,2147483839,2147483839,2147483743,95,2147483791,2147483743,2147483695,2147483791,191,2147483695,2147483743,95,2147483791,2147483743,47,191,95,2147483695,47,95,143,2147483743,2147483791,143,47,191,191,2147483695,2147483743,2147483695,2147483791,95,2147483695,2147483839,2147483839,2147483791,2147483839,2147483791,191,2147483839,143,2147483695,2147483695,143,191,143,2147483839,2147483839,95,191,47,47,2147483791,2147483791,143,2147483743,2147483743,191,2147483839,2147483839,2147483791,191,2147483839,95,95,47,47,2147483695,2147483791,2147483791,191,95,95,2147483839,191,2147483839,2147483743,95,2147483791,47,2147483839,191,2147483695,2147483839,47,95,95,2147483791,2147483839,2147483695,47,2147483743,2147483695,2147483839,2147483791,2147483791,2147483839,47,2147483695,47,191,2147483791,95,2147483743,143,2147483839,191,2147483695,2147483839,2147483791,2147483743,2147483743,143,143,47,47,2147483839,95,2147483743,191,143,143,47,47,2147483839,2147483695,2147483695,2147483695,143,2147483839,143,2147483839,2147483839,143,95,2147483743,2147483839,95,2147483695,47,191,2147483791,2147483839,191,95,191,143,47,47,2147483839,95,95,2147483839,95,47,95,2147483743,2147483695,2147483743,2147483791,95,2147483695,2147483743,2147483839,143,191,47,191,2147483839,143,2147483839,143,47,191,2147483743,2147483695,2147483743,2147483839,2147483695,2147483695,2147483839,191,143,95,2147483791,143,2147483839,143,47,95,2147483695,143,191,2147483695,143,143,2147483695,191,2147483743,2147483743,2147483695,95,47,47,2147483743,95,95,143,95,2147483791,2147483695,143,47,2147483839,2147483839,2147483839,2147483791,2147483695,47,2147483695,143,95,95,95,2147483743,2147483743,2147483791,191,2147483791,2147483695,2147483791,95,2147483695,2147483791,143,47,95,143,2147483791,2147483839,2147483791,2147483839,191,2147483695,2147483743,2147483695,95,2147483743,2147483695,95,2147483839,95,143,2147483791,143,2147483791,47,143,95,2147483791,2147483743,95,47,47,95,2147483695,191,2147483839,2147483791,2147483743,47,47,2147483695,95,2147483791,191,2147483743,47,2147483839,2147483695,95,95,143,191,2147483791,47,2147483839,2147483695,2147483743,2147483743,143,2147483839,2147483791,2147483695,2147483839,2147483695,95,2147483743,2147483791,2147483839,2147483791,47,191,95,95,95,143,2147483695,143,47,2147483839,95,2147483743,2147483743,2147483791,47,143,47,2147483695,2147483743,95,2147483743,2147483839,47,2147483791,2147483695,2147483695,2147483743,2147483743,95,191,2147483695,143,95,2147483695,2147483743,2147483743,2147483791,2147483839,47,2147483791,95,47,95,95,2147483791,191,47,191,2147483743,2147483695,95,2147483791,2147483791,2147483839,2147483695,191,2147483743,2147483695,2147483743,2147483791,2147483791,2147483839,47,191,95,2147483695,95,143,143,191,95,191,95,2147483695,2147483791,191,143,2147483695,2147483743,2147483743,95,2147483839,2147483791,47,2147483791,2147483695,2147483743,2147483743,95,191,2147483791,2147483695,143,47,2147483743,2147483743,143,191,143,2147483695,191,47,2147483743,95,143,2147483839,143,47,2147483839,47,2147483743,95,2147483791,191,2147483695,47,47,2147483695,2147483695,95,95,2147483839,191,191,2147483839,143,143,2147483743,2147483743,95,95,95,95,2147483695,2147483791,47,2147483695,2147483839,2147483839,2147483839,143,143,143,191,191,191,2147483839,95,2147483839,2147483743,191,2147483791,47,2147483695,95,191,95,2147483839,2147483743,2147483695,95,2147483839,2147483695,2147483743,2147483695,2147483791,143,95,47,2147483791,2147483839,2147483695,2147483743,2147483839,95,2147483695,143,2147483695,2147483791,191,2147483839,47,47,47,47,2147483839,2147483839,2147483791,2147483791,2147483839,191,2147483839,2147483791,2147483791,143,2147483743,95,2147483791,47,47,47,95,2147483743,2147483695,47,143,143,143,143,2147483839,2147483839,95,2147483791,2147483743,2147483839,2147483791,191,95,191,2147483791,2147483791,95,2147483791,2147483839,2147483743,2147483743,143,47,47,2147483695,2147483839,2147483839,2147483839,2147483791,2147483839,2147483791,2147483791,47,95,2147483743,95,2147483743,143,143,2147483743,2147483791,2147483695,2147483839,2147483791,191,47,2147483743,191,2147483695,2147483839,2147483791,143,191,95,143,47,143,2147483743,47,2147483695,47,2147483743,2147483791,47,2147483791,2147483743,2147483743,95,95,2147483791,191,2147483743,2147483839,143,95,2147483743,2147483743,2147483791,191,95,143,143,47,2147483743,2147483695,2147483791,95,2147483743,2147483695,143,2147483743,2147483743,2147483839,2147483839,143,143,2147483695,2147483839,2147483791,143,2147483839,2147483839,2147483791,143,95,95,47,47,95,2147483743,2147483695,2147483695,191,2147483743,47,2147483695,95,2147483743,2147483743,95,2147483695,47,2147483743,47,143,2147483695,2147483743,95,2147483695,47,95,2147483839,2147483791,2147483839,95,2147483743,2147483695,47,95,2147483695,143,191,95,2147483743,2147483695,2147483695,95,47,2147483839,2147483695,191,143,191,2147483743,2147483839,95,191,2147483791,2147483839,2147483695,47,143,2147483839,2147483791,2147483695,143,2147483839,2147483743,47,2147483695,2147483695,2147483695,2147483743,47,47,2147483743,95,2147483839,47,47,2147483743,2147483839,47,191,95,47,2147483695,95,95,2147483791,2147483695,143,2147483743,191,2147483695,95,95,2147483743,2147483791,2147483839,2147483695,143,2147483743,2147483839,2147483791,2147483791,95,47,2147483695,2147483791,47,143,2147483791,143,2147483839,2147483695,95,2147483743,95,2147483839,2147483839,2147483839,143,2147483839,47,2147483743,2147483743,2147483839,2147483839,191,2147483743,2147483791,2147483839,95,191,143,143,2147483791,2147483695,2147483839,2147483839,2147483743,191,2147483743,2147483743,2147483743,143,2147483839,47,143,2147483695,191,2147483695,47,2147483839,47,2147483695,2147483791,2147483839,47,2147483695,2147483695,2147483743,2147483743,2147483839,2147483791,191,2147483839,143,2147483791,2147483743,2147483743,2147483695,2147483743,191,143,143,2147483791,143,143,47,2147483743,2147483839,2147483791,191,191,143,2147483791,2147483839,95,191,2147483839,2147483839,2147483839,2147483695,47,2147483791,95,2147483839,2147483791,95,2147483695,2147483695,191,95,191,2147483791,47,2147483695,2147483695,143,47,2147483791,2147483839,2147483791,47,2147483695,95,2147483743,2147483695,95,2147483839,2147483791,2147483743,95,2147483743,2147483695,2147483791,47,2147483695,2147483791,2147483695,47,2147483839,2147483839,143,2147483695,95,2147483791,2147483839,2147483839,95,2147483695,2147483839,2147483791,143,143,2147483743,47,2147483791,2147483695,2147483695,143,2147483791,2147483791,95,2147483839,143,95,47,2147483791,2147483839,143,2147483791,2147483695,2147483839,47,95,2147483695,2147483695,47,191,2147483743,2147483695,95,95,2147483695,95,95,2147483839,143,95,95,143,2147483695,2147483695,2147483695,2147483695,2147483791,47,95,2147483791,47,47,47,2147483791,95,2147483695,2147483695,2147483743,2147483839,2147483839,2147483695,2147483839,2147483743,2147483839,95,143,2147483839,2147483695,95,2147483791,143,47,47,2147483791,47,2147483695,2147483695,2147483839,143,2147483743,143,2147483695,95,143,2147483791,2147483839,191,143,2147483791,2147483839,95,2147483743,143,2147483695,2147483839,95,191,2147483695,47,2147483791,191,2147483695,2147483695,2147483791,47,47,95,2147483791,47,2147483695,191,2147483791,2147483743,95,2147483743,191,2147483743,2147483695,191,191,2147483695,2147483695,2147483743,143,47,2147483695,191,143,2147483791,143,191,2147483743,2147483791,2147483791,95,191,2147483791,2147483791,2147483839,2147483743,2147483791,143,95,2147483743,143,47,2147483839,2147483791,47,2147483839,2147483743,191,143,2147483743,47,143,2147483839,2147483791,47,191,95,2147483695,143,2147483695,191,2147483743,47,191,95,191,2147483743,2147483695,191,143,47,2147483839,2147483791,143,2147483839,47,95,2147483743,2147483695,95,2147483743,143,2147483839,2147483695,47,47,2147483743,2147483743,143,2147483791,191,143,2147483791,2147483839,2147483695,2147483695,2147483743,95,95,2147483791,2147483791,2147483839,47,95,191,2147483791,2147483695,2147483695,2147483791,95,2147483791,95,191,143,95,47,143,47,143,2147483743,2147483839,2147483791,2147483695,143,2147483695,191,143,2147483743,2147483839,2147483791,191,95,2147483695,191,2147483791,47,47,47,95,143,191,2147483839,2147483695,47,2147483791,2147483743,47,2147483791,2147483743,191,2147483743,47,143,95,2147483839,2147483695,2147483839,95,2147483695,2147483839,143,47,143,2147483743,191,2147483791,95,2147483839,47,95,95,143,2147483839,47,47,47,47,2147483743,143,191,2147483839,143,2147483791,143,2147483695,191,47,191,2147483743,47,2147483791,143,143,2147483695,2147483791,2147483743,2147483743,2147483695,2147483743,95,47,2147483791,47,47,2147483839,2147483743,143,95,143,143,191,191,95,191,95,47,47,95,2147483695,2147483743,95,2147483791,2147483791,2147483743,2147483839,191,2147483791,47,2147483695,143,2147483743,191,2147483839,2147483743,2147483839,191,191,47,143,2147483695,2147483791,47,2147483839,2147483743,95,2147483743,2147483695,2147483791,143,95,2147483839,2147483743,47,143,47,2147483695,2147483743,191,47,47,2147483791,143,191,2147483839,2147483791,2147483743,143,191,95,2147483695,2147483695,47,2147483695,191,2147483791,143,47,2147483791,2147483839,191,143,2147483839,2147483791,2147483695,191,2147483695,191,143,47,95,47,95,2147483743,191,191,47,47,143,95,2147483695,2147483695,2147483743,2147483743,2147483743,191,95,95,2147483791,2147483791,191,2147483791,47,2147483695,2147483791,2147483743,191,95,191,143,2147483743,2147483791,95,2147483791,95,2147483839,191,95,2147483791,143,2147483695,143,2147483695,2147483743,2147483839,2147483743,2147483743,143,2147483695,2147483791,2147483695,2147483743,191,95,2147483743,2147483743,2147483695,143,2147483839,2147483695,2147483839,2147483695,47,143,143,47,143,191,95,2147483839,2147483839,2147483743,2147483791,2147483695,2147483791,143,2147483743,143,2147483791,95,2147483791,47,2147483791,2147483791,2147483695,2147483839,191,2147483695,95,2147483839,2147483791,143,143,191,191,2147483791,2147483791,2147483743,2147483839,191,2147483743,2147483695,47,2147483743,2147483743,47,143,2147483791,143,191,2147483839,143,2147483791,47,191,2147483839,2147483743,2147483791,143,191,191,2147483839,47,47,95,95,2147483743,2147483695,2147483695,2147483791,95,2147483743,2147483695,2147483791,2147483791,2147483839,2147483839,2147483839,47,47,2147483695,47,2147483743,47,2147483695,95,2147483695,2147483695,2147483695,47,95,2147483839,2147483839,95,47,2147483695,47,47,2147483695,191,2147483839,2147483743,2147483695,47,47,47,2147483743,2147483743,2147483743,191,2147483743,2147483791,143,2147483791,47,2147483743,95,2147483839,2147483743,143,2147483791,2147483791,143,2147483695,2147483695,47,47,2147483695,191,47,191,2147483791,2147483743,95,2147483791,143,2147483791,2147483791,95,2147483839,191,191,2147483743,2147483695,2147483695,191,143,95,2147483791,143,2147483839,2147483743,2147483743,95,2147483695,95,95,2147483743,95,143,2147483695,95,47,191,2147483791,2147483791,2147483839,47,2147483839,191,2147483791,2147483695,2147483695,47,2147483695,95,2147483839,2147483839,95,47,95,2147483743,2147483791,191,47,2147483743,191,47,143,47,2147483695,2147483791,2147483839,95,2147483839,143,47,95,2147483791,191,143,191,2147483743,2147483839,95,2147483839,95,143,2147483695,2147483695,143,2147483743,191,2147483791,2147483839,47,2147483743,2147483743,2147483695,2147483743,2147483839,2147483743,2147483743,2147483791,47,143,95,95,2147483791,2147483839,95,143,2147483695,191,2147483839,2147483791,2147483839,47,191,47,143,2147483743,2147483695,47,2147483743,191,95,143,191,143,143,47,95,2147483791,2147483791,95,2147483839,95,2147483791,95,191,191,2147483839,143,95,2147483695,2147483791,2147483695,191,2147483743,2147483695,2147483791,191,191,47,2147483791,95,2147483839,2147483791,2147483839,2147483695,47,95,2147483839,143,47,2147483839,95,2147483791,143,2147483839,95,2147483695,2147483791,2147483743,2147483839,47,2147483695,95,95,2147483791,2147483839,2147483839,95,143,2147483695,191,143,2147483839,47,47,2147483791,191,143,47,47,95,143,47,2147483791,191,2147483791,2147483695,2147483839,95,143,2147483791,2147483839,2147483743,2147483839,143,2147483743,2147483791,191,2147483791,2147483743,191,47,143,143,47,95,2147483839,2147483791,143,191,47,2147483743,2147483791,191,143,95,47,2147483743,143,2147483839,47,47,191,2147483791,95,2147483791,191,2147483791,95,2147483839,2147483743,2147483791,191,2147483839,2147483839,2147483791,2147483743,191,95,143,2147483791,191,2147483743,2147483695,191,2147483743,2147483791,191,47,2147483695,143,95,47,143,191,95,95,143,2147483695,2147483839,2147483743,2147483743,143,47,2147483791,2147483743,2147483839,95,2147483839,143,47,2147483743,2147483695,2147483791,191,2147483695,2147483839,2147483791,2147483791,2147483839,143,191,2147483791,47,2147483839,143,95,95,47,2147483839,191,2147483695,191,143,2147483695,95,2147483695,191,2147483839,47,2147483695,2147483839,191,47,191,143,143,95,2147483839,95,95,47,143,191,191,2147483743,2147483839,2147483791,2147483791,2147483695,2147483695,2147483839,143,2147483743,191,2147483791,143,2147483743,191,143,2147483743,47,47,143,2147483791,2147483743,191,95,2147483743,95,47,143,95,2147483695,2147483839,143,143,95,2147483695,95,2147483743,47,47,2147483743,95,2147483695,191,2147483695,2147483791,95,2147483695,2147483743,2147483743,2147483695,2147483839,2147483839,143,2147483743,47,2147483791,95,2147483743,191,2147483791,2147483743,47,2147483839,95,95,47,191,2147483791,2147483695,2147483839,191,191,95,47,2147483791,143,143,2147483743,47,47,95,2147483695,191,47,143,95,47,2147483839,2147483743,2147483839,2147483791,143,95,191,2147483743,2147483743,143,191,143,2147483791,95,2147483791,191,191,2147483839,2147483839,2147483791,2147483839,2147483791,47,95,47,2147483839,2147483839,2147483791,2147483839,143,2147483695,2147483743,47,191,191,2147483791,191,143,2147483695,2147483743,47,191,191,2147483791,191,143,2147483695,2147483743,47,2147483839,47,2147483839,2147483839,143,95,2147483791,2147483743,47,2147483695,2147483839,2147483695,191,2147483743,143,2147483743,47,2147483695,191,47,2147483839,2147483743,143,2147483743,47,47,2147483839,2147483695,191,2147483743,2147483791,95,47,47,191,2147483695,191,95,2147483791,95,47,2147483695,2147483839,2147483695,2147483839,2147483743,2147483791,95,47,2147483695,2147483839,47,2147483839,2147483743,143,2147483743,2147483695,47,191,47,191,2147483743,2147483791,95,2147483695,47,2147483839,47,2147483839,2147483791,2147483839,2147483743,2147483695,2147483743,47,2147483839,47,143,191,143,2147483743,95,47,2147483839,2147483695,143,191,2147483791,95,95,2147483695,191,2147483695,143,191,143,2147483743,95,47,191,47,143,2147483839,2147483791,95,95,2147483695,2147483839,47,2147483791,191,2147483791,191,2147483839,2147483743,2147483743,191,47,143,2147483743,2147483791,95,2147483695,47,2147483743,47,143,143,2147483695,191,143,2147483791,95,2147483839,95,95,143,2147483791,2147483839,2147483839,2147483695,2147483791,47,47,95,191,47,2147483839,143,47,2147483743,143,2147483695,2147483743,143,95,47,143,95,47,2147483839,47,2147483743,191,95,47,2147483743,191,143,191,143,2147483743,47,2147483791,2147483839,143,2147483743,2147483791,47,2147483791,191,2147483839,2147483743,95,143,2147483743,191,47,2147483743,95,2147483839,47,2147483743,2147483695,143,191,2147483839,2147483839,95,191,47,143,2147483743,191,95,2147483743,2147483839,2147483695,2147483791,2147483695,191,2147483791,143,2147483743,47,2147483839,2147483791,2147483839,191,2147483695,95,2147483695,2147483791,2147483695,47,95,2147483743,191,2147483743,2147483695,47,2147483743,143,191,191,2147483839,2147483695,2147483839,143,47,95,2147483695,2147483791,95,2147483839,2147483743,2147483839,2147483791,2147483791,143,2147483695,191,2147483791,191,191,2147483791,2147483839,2147483695,143,2147483839,2147483695,191,143,95,2147483695,47,143,2147483839,2147483695,2147483839,2147483791,2147483791,2147483743,95,2147483839,2147483695,95,47,2147483839,2147483791,2147483743,95,2147483791,191,2147483743,191,2147483791,2147483743,47,47,2147483839,2147483743,2147483743,47,143,47,2147483791,2147483695,191,143,143,2147483695,2147483839,47,2147483791,2147483743,47,2147483791,2147483695,2147483839,95,2147483791,2147483695,191,2147483743,2147483695,47,2147483839,95,2147483791,2147483695,47,2147483839,95,2147483839,47,2147483743,2147483695,2147483791,47,2147483839,2147483743,143,47,47,191,2147483791,47,191,95,2147483791,47,95,2147483839,2147483791,2147483695,143,143,2147483839,47,2147483743,2147483695,191,143,47,2147483743,191,143,2147483791,95,95,47,143,2147483791,95,47,47,2147483791,2147483743,47,143,2147483839,143,95,2147483743,2147483695,143,2147483743,2147483839,47,143,2147483743,95,191,2147483791,95,2147483695,2147483839,143,2147483743,143,191,2147483743,95,47,191,2147483791,95,191,2147483695,47,2147483695,47,47,47,95,95,2147483695,2147483743,47,2147483743,95,2147483695,2147483695,2147483695,2147483695,2147483743,2147483743,95,2147483743,191,47,2147483695,95,2147483791,2147483743,2147483695,2147483695,191,95,95,2147483743,143,191,2147483839,191,2147483839,2147483791,47,191,2147483695,191,47,2147483695,2147483839,143,191,2147483839,2147483695,2147483695,2147483695,2147483743,2147483695,191,95,143,191,143,2147483743,95,47,2147483839,143,95,2147483839,2147483695,143,47,2147483695,191,95,47,2147483743,47,2147483791,2147483743,191,191,2147483695,191,95,2147483743,2147483839,95,2147483839,143,47,95,2147483791,2147483743,191,47,2147483839,143,95,2147483743,143,191,2147483743,2147483839,2147483839,143,47,2147483791,2147483839,2147483743,47,191,95,47,95,2147483839,191,191,95,47,2147483743,2147483695,143,191,47,191,95,191,2147483743,47,143,2147483695,2147483695,2147483743,191,143,143,2147483695,2147483791,191,2147483791,95,2147483839,191,2147483839,2147483695,2147483743,143,47,191,95,2147483839,2147483743,47,2147483791,95,2147483743,2147483791,2147483743,2147483839,95,2147483743,191,95,95,2147483839,2147483743,2147483839,143,2147483743,2147483839,143,143,2147483839,191,95,2147483839,2147483791,95,143,2147483791,2147483695,2147483839,2147483743,2147483839,2147483695,2147483743,191,2147483839,191,191,2147483743,2147483839,191,2147483743,2147483839,191,2147483695,2147483839,95,2147483839,2147483839,2147483695,143,191,2147483791,2147483791,47,143,2147483791,47,143,2147483791,191,191,47,191,191,191,191,2147483839,2147483839,2147483839,2147483743,143,2147483839,95,2147483695,47,2147483743,95,2147483791,2147483743,95,95,47,2147483743,47,95,143,47,47,2147483743,47,2147483695,95,143,95,2147483743,2147483743,95,2147483743,95,95,2147483743,2147483695,2147483743,95,2147483743,2147483791,2147483695,143,2147483791,2147483695,2147483743,143,2147483743,143,95,2147483743,95,47,95,2147483743,2147483791,143,95,191,47,95,47,191,191,191,143,191,191,143,47,2147483839,2147483839,2147483695,2147483695,2147483695,95,47,2147483743,2147483839,2147483695,143,143,2147483695,2147483791,95,2147483743,2147483791,191,143,143,2147483695,2147483743,2147483695,2147483839,2147483743,2147483791,143,2147483791,2147483695,47,2147483839,2147483839,95,191,2147483743,2147483791,2147483743,2147483839,95,191,47,143,2147483791,2147483839,47,2147483839,95,143,191,95,2147483791,47,2147483695,191,2147483695,47,2147483743,2147483839,2147483791,191,2147483695,143,191,47,2147483743,2147483695,2147483791,2147483839,143,2147483839,143,191,2147483743,2147483791,2147483695,2147483695,143,191,191,2147483839,2147483743,2147483695,191,191,2147483791,191,2147483791,2147483743,191,47,47,47,2147483791,2147483839,2147483695,2147483695,2147483791,47,191,2147483839,2147483791,2147483743,2147483791,95,2147483743,47,2147483743,2147483791,2147483839,143,191,2147483743,2147483791,47,2147483695,2147483839,191,2147483791,2147483791,2147483839,2147483695,143,2147483839,2147483791,191,95,95,191,47,2147483839,47,2147483791,95,2147483791,2147483695,2147483743,47,2147483743,2147483839,2147483839,2147483743,143,95,143,2147483695,2147483839,2147483743,47,191,2147483695,95,2147483791,47,2147483743,2147483839,95,95,143,2147483839,2147483695,47,95,2147483791,47,2147483791,47,95,191,95,191,191,2147483695,95,47,2147483743,2147483791,2147483839,95,143,191,2147483791,143,2147483743,47,191,2147483839,191,47,2147483743,47,2147483839,191,2147483791,191,143,2147483791,143,143,2147483695,2147483791,95,95,2147483839,191,2147483743,2147483791,47,2147483695,2147483695,191,2147483743,2147483743,95,2147483839,47,47,143,2147483695,2147483791,191,191,2147483743,2147483743,2147483791,47,2147483839,47,143,2147483743,2147483791,191,143,47,95,2147483743,191,2147483839,2147483695,2147483839,2147483695,2147483791,2147483839,47,2147483791,2147483743,2147483743,2147483839,143,143,2147483791,2147483695,95,95,2147483791,2147483839,2147483695,2147483791,2147483695,2147483743,191,143,191,47,2147483839,2147483743,2147483791,47,2147483695,47,143,47,2147483743,191,47,2147483743,2147483791,95,47,2147483839,143,143,95,2147483695,2147483695,191,2147483791,2147483743,47,2147483695,2147483695,47,2147483743,47,2147483743,2147483839,2147483791,191,2147483839,47,143,143,143,2147483695,47,47,47,2147483839,47,2147483695,2147483743,2147483791,2147483743,143,2147483839,2147483695,2147483743,2147483791,95,2147483791,2147483791,2147483791,2147483839,2147483743,143,2147483839,2147483839,2147483743,47,191,2147483743,143,47,143,2147483695,143,2147483791,143,2147483791,2147483695,2147483791,191,143,47,2147483695,2147483695,143,2147483839,47,143,95,2147483839,191,2147483791,191,2147483743,2147483839,2147483695,2147483791,2147483743,2147483695,2147483695,191,2147483839,47,143,47,143,2147483791,143,2147483839,47,95,2147483791,2147483695,2147483839,143,2147483791,95,2147483743,143,2147483695,191,95,2147483695,47,2147483791,2147483839,2147483743,143,2147483695,47,2147483791,2147483791,47,2147483695,143,143,143,95,47,2147483791,143,2147483839,47,2147483695,2147483695,191,2147483791,47,47,2147483743,2147483791,143,2147483791,2147483743,47,143,95,2147483839,2147483695,143,2147483791,2147483791,191,143,143,2147483695,2147483743,47,2147483695,191,95,47,47,2147483743,95,2147483839,143,95,191,143,95,143,2147483791,2147483743,191,143,2147483743,95,191,2147483839,2147483695,143,2147483695,47,47,191,2147483743,2147483695,2147483743,47,2147483839,191,2147483791,47,2147483791,2147483791,191,47,143,2147483791,2147483695,2147483743,2147483743,143,191,2147483791,2147483839,2147483839,2147483791,2147483839,2147483695,2147483695,2147483695,2147483839,2147483743,95,2147483839,47,2147483743,2147483695,47,191,2147483839,143,95,143,2147483791,2147483791,2147483791,2147483839,2147483839,143,2147483839,2147483695,95,143,143,95,95,2147483839,2147483743,2147483791,2147483695,47,2147483695,143,2147483791,47,2147483695,2147483743,2147483743,95,2147483743,2147483695,2147483695,2147483839,143,2147483839,143,191,191,47,2147483695,143,47,95,2147483791,2147483839,2147483695,2147483791,2147483839,2147483743,2147483839,2147483839,2147483791,143,143,2147483839,95,191,2147483791,143,2147483695,47,2147483839,2147483743,143,2147483791,47,2147483839,95,2147483743,95,2147483743,143,95,2147483743,2147483791,47,47,95,191,2147483695,143,143,47,2147483839,191,2147483743,2147483839,2147483695,191,2147483839,2147483695,47,47,2147483839,47,2147483791,47,95,2147483791,95,95,47,2147483791,2147483839,2147483791,143,2147483839,2147483839,2147483839,2147483791,2147483839,95,47,2147483695,2147483791,95,143,47,191,2147483839,47,143,191,191,95,95,2147483695,47,143,2147483839,95,47,2147483839,191,2147483791,2147483791,2147483839,2147483839,47,2147483695,2147483839,191,143,2147483791,191,2147483743,2147483791,143,2147483743,2147483743,191,2147483839,2147483695,47,191,47,143,95,95,2147483695,143,2147483791,95,2147483839,47,191,2147483839,2147483839,2147483743,95,2147483839,95,2147483791,95,2147483743,2147483743,2147483791,143,2147483743,143,2147483839,143,95,143,95,47,95,47,95,143,191,2147483791,2147483791,2147483839,2147483839,2147483839,2147483791,47,2147483743,2147483839,2147483695,95,2147483695,47,191,2147483743,2147483791,2147483743,95,143,143,2147483791,95,143,95,143,2147483695,2147483743,95,191,2147483695,2147483791,2147483791,191,95,2147483791,2147483839,47,95,143,191,47,191,2147483695,2147483791,191,47,2147483743,191,47,191,47,47,143,47,143,191,2147483743,2147483839,143,2147483695,95,47,2147483743,191,2147483743,2147483695,143,2147483839,47,2147483839,95,2147483695,47,143,47,191,2147483839,2147483695,2147483743,47,2147483695,191,2147483695,2147483839,2147483743,47,2147483743,47,47,2147483839,95,2147483695,47,2147483839,47,2147483839,95,2147483695,95,47,47,191,47,47,2147483743,191,2147483695,2147483839,47,191,2147483743,2147483695,2147483743,2147483791,47,2147483839,2147483743,2147483839,47,2147483839,47,143,95,2147483839,2147483743,143,2147483695,143,2147483695,47,95,47,95,2147483839,2147483695,191,95,2147483839,2147483695,2147483791,2147483695,2147483791,47,2147483743,2147483695,2147483743,2147483839,2147483695,95,143,2147483695,95,2147483695,2147483743,95,143,95,143,47,2147483743,47,191,2147483743,2147483791,2147483743,2147483791,47,2147483743,2147483695,95,2147483695,2147483695,191,47,95,47,191,2147483743,47,191,95,2147483791,2147483791,2147483839,2147483695,143,191,2147483695,2147483839,191,2147483695,95,2147483791,2147483695,2147483743,143,2147483743,95,2147483791,2147483839,47,2147483791,191,47,191,191,2147483695,95,143,47,2147483743,143,95,2147483743,143,2147483839,47,143,2147483839,47,2147483839,2147483839,47,2147483743,2147483839,2147483695,2147483791,2147483791,2147483743,2147483743,143,191,95,143,2147483695,2147483695,47,2147483839,95,143,191,2147483743,143,143,143,95,191,47,2147483743,191,2147483695,95,2147483695,47,95,143,2147483839,95,2147483791,2147483839,143,2147483791,2147483839,47,2147483743,2147483839,47,2147483743,47,47,2147483743,2147483791,2147483839,95,2147483791,191,2147483791,2147483791,191,2147483695,95,2147483839,47,2147483743,47,2147483695,95,47,191,2147483743,2147483839,95,2147483791,47,191,2147483791,143,191,2147483743,2147483839,95,143,2147483791,47,47,2147483743,2147483839,95,191,2147483695,2147483695,2147483791,2147483791,2147483839,95,191,2147483743,143,2147483791,2147483695,47,2147483743,2147483839,2147483743,2147483839,2147483695,143,2147483839,2147483791,143,143,143,191,2147483743,95,95,2147483695,2147483743,2147483743,191,47,191,191,2147483839,143,191,2147483743,2147483743,143,95,2147483743,95,2147483839,2147483695,47,47,95,2147483695,47,191,2147483743,2147483695,2147483791,191,191,2147483791,191,95,191,143,191,2147483743,2147483839,47,2147483791,2147483695,2147483743,2147483743,2147483743,143,143,47,2147483743,191,191,143,191,95,2147483743,143,2147483839,143,95,191,191,2147483791,191,95,2147483743,2147483695,2147483839,2147483743,2147483743,47,47,2147483695,2147483695,2147483839,143,2147483695,191,143,2147483839,2147483839,2147483839,2147483791,2147483743,2147483743,2147483743,191,47,2147483743,2147483743,191,47,191,143,191,2147483791,2147483839,2147483743,2147483695,191,191,2147483743,2147483695,2147483839,191,2147483839,191,2147483791,2147483743,95,2147483695,95,95,95,2147483743,2147483839,143,2147483695,191,47,47,2147483695,95,143,47,191,2147483743,47,143,95,2147483839,95,143,2147483791,191,47,2147483791,2147483791,2147483695,2147483695,2147483791,143,2147483743,2147483839,2147483695,2147483743,143,143,47,2147483695,2147483695,2147483743,2147483791,2147483695,2147483743,2147483743,47,191,2147483791,2147483695,95,143,2147483839,2147483791,2147483743,2147483695,47,2147483743,143,191,2147483839,2147483695,95,191,2147483791,191,191,2147483791,143,2147483839,191,95,2147483743,143,2147483743,47,2147483695,143,143,2147483791,2147483743,2147483791,95,2147483743,2147483695,2147483743,143,47,191,47,191,191,47,2147483743,95,47,143,143,2147483791,2147483839,2147483743,2147483839,2147483839,143,2147483695,191,191,95,191,95,95,2147483695,2147483791,143,143,2147483839,95,143,191,2147483839,95,2147483695,47,2147483791,2147483791,2147483791,2147483695,95,95,191,191,143,191,95,2147483791,95,143,191,2147483695,47,143,47,47,47,2147483743,2147483791,2147483695,191,47,2147483839,2147483839,2147483791,191,2147483695,143,95,2147483791,2147483791,2147483743,47,95,191,2147483839,2147483791,2147483695,2147483695,143,2147483791,191,143,143,191,47,2147483695,95,47,191,143,47,2147483695,2147483695,2147483743,2147483791,2147483695,143,95,2147483695,47,2147483743,95,191,2147483839,2147483839,2147483791,95,95,95,47,95,2147483839,2147483839,2147483791,2147483743,95,191,47,95,2147483839,2147483743,95,191,2147483839,2147483839,2147483695,2147483743,191,95,2147483695,191,2147483839,47,95,143,2147483695,2147483791,143,143,2147483791,95,2147483743,143,47,95,191,143,2147483791,47,2147483839,2147483743,2147483695,2147483743,2147483791,47,47,191,143,2147483791,191,95,95,47,2147483695,95,2147483695,143,2147483839,95,2147483743,2147483743,95,47,2147483839,2147483743,191,2147483743,2147483791,2147483743,95,191,2147483791,2147483695,191,95,2147483743,2147483791,143,2147483839,2147483695,143,95,95,191,143,95,47,2147483743,191,2147483743,2147483695,2147483839,2147483839,2147483839,2147483695,2147483743,2147483743,95,47,47,2147483839,143,143,2147483839,2147483743,2147483791,2147483695,2147483839,191,2147483743,143,2147483839,2147483743,191,2147483695,143,143,2147483839,2147483791,143,2147483743,143,2147483791,191,143,2147483695,143,2147483839,143,2147483791,191,191,143,2147483695,2147483791,2147483791,2147483743,2147483791,2147483791,143,143,47,143,47,2147483839,191,2147483695,47,191,95,191,2147483743,2147483695,2147483743,95,95,47,191,2147483839,2147483743,2147483695,47,2147483743,95,47,2147483791,191,47,191,191,2147483695,2147483839,191,2147483743,2147483791,47,191,2147483839,2147483695,47,2147483791,2147483743,2147483839,2147483743,2147483839,2147483695,2147483743,2147483839,2147483695,143,2147483839,2147483743,2147483695,47,95,2147483743,95,2147483839,2147483695,143,2147483695,2147483743,143,2147483695,95,2147483839,2147483695,143,95,95,2147483791,95,2147483743,2147483839,2147483743,2147483695,47,2147483791,2147483839,95,143,47,143,191,47,2147483791,47,2147483791,2147483695,2147483695,143,2147483839,2147483839,143,2147483695,2147483743,191,2147483695,2147483791,191,2147483695,2147483791,47,143,47,2147483695,2147483743,2147483791,2147483791,2147483743,2147483839,191,143,2147483743,47,2147483743,2147483791,95,191,2147483695,143,191,2147483695,2147483791,2147483743,95,2147483791,143,143,95,2147483695,2147483839,2147483791,95,2147483695,47,2147483791,95,47,2147483743,95,2147483839,47,47,143,95,47,47,47,143,47,2147483695,143,2147483695,47,2147483839,143,2147483839,2147483791,191,2147483791,143,47,2147483695,2147483791,143,2147483791,143,2147483791,143,47,191,2147483791,2147483695,2147483695,2147483743,2147483791,2147483791,2147483695,2147483791,2147483695,2147483695,2147483695,143,143,2147483791,143,191,2147483839,2147483839,2147483839,191,47,191,2147483791,2147483839,47,2147483839,47,2147483791,2147483839,2147483791,95,2147483839,2147483839,95,2147483791,2147483743,47,2147483839,95,191,2147483743,47,2147483743,143,2147483839,143,2147483791,95,191,2147483695,2147483695,95,95,95,47,143,2147483743,95,2147483791,95,2147483695,2147483743,47,2147483791,2147483743,2147483839,47,2147483695,2147483839,2147483743,47,2147483791,2147483695,2147483839,47,95,191,2147483743,2147483791,143,2147483791,2147483743,2147483695,143,143,2147483791,143,143,2147483839,143,2147483695,2147483743,2147483743,2147483839,2147483791,2147483791,2147483743,47,191,2147483791,143,2147483791,191,2147483791,47,47,47,47,2147483839,143,2147483791,2147483791,95,2147483743,47,2147483695,95,95,2147483791,191,2147483791,2147483791,2147483695,47,143,143,143,2147483695,47,2147483791,2147483791,47,2147483791,2147483695,191,47,47,191,191,143,143,2147483743,2147483791,47,2147483695,2147483695,2147483695,2147483791,143,47,2147483791,143,143,2147483695,2147483695,2147483791,143,2147483695,2147483743,2147483743,191,143,95,2147483743,2147483695,2147483695,95,95,2147483839,2147483791,2147483743,143,2147483743,2147483743,47,2147483695,2147483839,2147483839,143,2147483791,47,2147483695,95,47,95,47,2147483839,2147483791,2147483743,47,2147483695,2147483839,2147483839,2147483695,47,191,2147483839,95,47,2147483791,2147483791,2147483695,47,2147483839,2147483839,143,2147483839,95,2147483743,2147483743,95,2147483839,47,2147483743,47,2147483791,191,95,2147483743,2147483839,191,95,2147483791,2147483791,2147483695,47,2147483791,143,47,95,143,143,2147483695,2147483839,2147483791,191,2147483791,47,47,95,47,143,95,47,95,95,143,191,2147483743,2147483695,2147483839,2147483791,2147483839,191,2147483839,2147483743,47,2147483743,95,47,2147483695,2147483695,143,95,47,143,2147483743,2147483695,2147483743,2147483743,2147483839,191,143,191,2147483791,2147483791,143,2147483791,95,2147483743,2147483839,143,2147483695,47,95,95,191,2147483839,2147483743,2147483695,191,191,191,191,2147483791,2147483743,47,2147483791,95,2147483743,143,2147483791,2147483839,2147483791,143,47,2147483791,2147483695,2147483839,2147483839,2147483791,2147483743,47,143,95,47,47,2147483695,2147483791,2147483743,2147483743,2147483791,2147483743,143,95,2147483743,47,2147483839,2147483791,2147483695,191,47,2147483839,191,95,2147483695,95,143,47,143,47,2147483743,2147483695,191,2147483695,47,191,2147483839,2147483839,2147483839,2147483743,2147483695,143,95,47,95,95,47,2147483839,2147483791,2147483839,2147483695,2147483791,191,143,191,2147483839,143,2147483695,191,143,47,2147483839,47,95,47,2147483791,95,47,2147483743,95,2147483695,191,191,47,2147483695,143,2147483791,2147483695,2147483839,143,143,191,47,2147483839,191,2147483695,2147483791,95,143,191,2147483743,143,191,191,2147483791,2147483743,191,2147483695,95,2147483743,2147483791,191,2147483743,2147483839,47,95,95,47,2147483839,2147483743,2147483839,2147483839,2147483839,2147483695,2147483743,47,2147483695,95,2147483839,143,191,47,2147483695,191,143,2147483791,2147483743,95,2147483839,191,47,2147483839,2147483743,2147483791,95,191,95,47,2147483695,47,2147483839,47,191,2147483839,95,2147483839,2147483695,2147483695,191,2147483695,191,2147483791,47,191,2147483743,47,2147483839,2147483839,2147483791,2147483791,47,2147483695,95,2147483695,2147483791,2147483839,143,47,2147483791,2147483743,2147483743,2147483743,2147483839,143,95,95,2147483839,191,143,143,2147483791,2147483695,2147483743,47,143,2147483839,2147483839,143,2147483743,2147483695,47,2147483695,2147483791,47,191,2147483791,2147483695,191,47,143,47,2147483743,2147483791,2147483839,143,2147483695,2147483791,2147483791,47,47,95,2147483839,143,95,47,143,47,2147483695,191,191,95,47,2147483791,47,143,2147483791,2147483695,2147483695,2147483791,2147483791,2147483839,2147483743,2147483839,191,143,2147483791,47,191,95,2147483839,143,95,2147483695,47,2147483839,143,191,191,191,2147483791,143,2147483791,2147483695,143,47,2147483695,47,191,2147483839,191,143,191,2147483791,143,143,47,2147483839,2147483839,95,2147483839,143,2147483791,2147483791,2147483695,95,95,2147483839,95,47,2147483839,2147483839,95,47,2147483791,143,2147483791,191,95,95,2147483839,143,2147483695,2147483695,95,143,2147483839,2147483839,143,2147483743,143,143,2147483791,2147483695,2147483743,95,2147483839,143,2147483839,2147483839,2147483695,2147483743,2147483743,2147483791,143,191,2147483695,2147483743,95,95,2147483695,2147483791,2147483743,191,191,95,2147483791,2147483791,2147483791,2147483695,191,2147483695,95,2147483791,2147483839,47,191,95,2147483695,2147483791,143,47,95,2147483743,2147483791,143,2147483791,2147483695,2147483743,2147483743,191,95,2147483695,2147483695,47,143,2147483839,143,2147483695,2147483695,2147483791,2147483791,2147483839,143,95,2147483695,2147483791,2147483791,47,2147483695,2147483695,2147483695,2147483743,2147483695,2147483743,2147483743,191,2147483839,2147483839,2147483695,2147483791,143,143,2147483791,2147483695,2147483743,143,2147483743,47,191,47,2147483839,2147483839,143,143,2147483791,2147483743,2147483695,143,143,2147483791,47,47,47,47,47,47,47,191,2147483791,2147483791,191,2147483839,2147483743,95,2147483743,95,2147483743,95,2147483743,2147483695,191,191,2147483839,191,2147483839,143,2147483791,2147483743,2147483743,2147483791,143,95,95,47,2147483695,191,2147483695,191,191,2147483791,2147483791,2147483743,191,2147483791,2147483791,95,2147483743,47,2147483695,2147483743,2147483743,2147483695,2147483695,191,191,2147483839,191,2147483839,143,95,2147483743,95,2147483743,47,47,47,191,2147483791,2147483695,47,143,2147483791,143,143,191,2147483791,143,2147483791,2147483743,2147483695,2147483695,143,2147483743,2147483695,47,2147483695,2147483839,143,2147483791,143,143,2147483695,2147483695,2147483695,2147483743,2147483695,2147483839,2147483695,191,143,2147483695,47,95,2147483743,95,191,2147483791,2147483791,2147483695,2147483695,191,191,191,95,2147483695,47,143,143,2147483743,143,143,2147483839,2147483791,2147483791,47,47,191,2147483695,2147483695,95,2147483695,95,2147483839,143,2147483743,2147483791,143,191,2147483791,191,95,2147483695,191,2147483695,2147483695,95,2147483695,95,191,2147483791,95,143,143,47,191,191,2147483743,47,191,2147483695,47,2147483791,2147483743,95,2147483839,2147483839,2147483791,143,2147483791,2147483695,191,2147483839,2147483743,95,47,47,47,2147483791,95,2147483743,2147483839,2147483839,143,2147483839,143,2147483695,2147483839,191,2147483743,95,2147483695,2147483743,95,2147483791,95,143,47,191,143,2147483839,191,2147483695,2147483839,2147483695,2147483791,2147483743,2147483695,95,95,191,95,143,2147483695,2147483791,143,2147483839,191,2147483791,191,47,143,47,47,95,2147483743,47,2147483791,143,2147483695,2147483839,2147483839,2147483839,191,143,47,47,143,2147483743,2147483743,95,95,2147483695,2147483791,2147483791,47,191,2147483743,95,2147483791,2147483839,2147483695,2147483695,2147483695,2147483743,2147483791,95,191,191,2147483743,143,95,2147483695,95,143,191,2147483695,2147483839,2147483839,143,2147483743,143,143,2147483791,191,2147483695,47,2147483839,143,2147483839,143,2147483791,2147483743,2147483695,95,2147483839,2147483791,2147483695,95,95,47,2147483839,2147483695,2147483743,143,2147483743,143,143,2147483743,191,47,143,191,2147483791,191,2147483743,95,2147483839,47,2147483791,2147483695,143,47,2147483791,2147483839,2147483743,191,191,95,143,2147483695,143,47,2147483743,2147483695,143,143,2147483839,143,2147483839,2147483743,2147483743,191,191,191,2147483695,143,2147483839,2147483839,2147483695,191,2147483791,143,2147483839,143,2147483743,47,47,2147483743,143,2147483839,2147483791,191,2147483791,191,95,143,95,143,143,2147483695,143,47,191,95,95,143,143,191,2147483791,2147483791,191,95,95,2147483839,2147483839,143,191,143,95,2147483743,47,2147483839,2147483839,143,2147483839,2147483791,95,2147483743,2147483791,2147483743,95,191,95,47,95,2147483695,47,2147483743,2147483695,2147483695,2147483839,95,191,2147483791,2147483791,2147483839,143,2147483695,143,2147483743,143,95,95,2147483791,95,2147483791,191,143,191,2147483791,143,191,143,143,143,2147483791,2147483791,2147483743,2147483743,2147483695,95,95,2147483695,47,47,2147483839,191,2147483791,191,2147483839,2147483839,191,2147483743,47,47,2147483791,2147483695,2147483839,2147483839,2147483839,2147483839,2147483791,143,2147483695,2147483791,143,143,143,2147483839,2147483743,2147483839,191,2147483791,47,47,47,95,191,95,2147483695,2147483839,143,2147483791,2147483791,2147483839,95,2147483839,2147483839,2147483791,2147483695,47,2147483695,143,191,2147483791,143,95,47,191,2147483743,2147483695,191,47,2147483695,95,47,191,2147483695,47,2147483839,2147483695,191,2147483839,191,2147483743,191,191,143,191,2147483791,143,95,47,2147483743,2147483743,47,2147483743,47,2147483695,191,2147483839,191,191,143,47,143,47,2147483743,2147483743,95,2147483743,2147483695,191,2147483743,2147483743,143,95,191,2147483839,2147483791,191,143,2147483839,143,143,47,143,95,2147483791,95,191,2147483695,2147483791,47,2147483791,2147483743,191,191,2147483695,191,95,2147483839,2147483791,2147483791,191,2147483839,47,143,47,143,2147483791,47,2147483791,2147483743,2147483791,2147483743,2147483743,2147483839,2147483791,2147483839,2147483743,2147483743,2147483791,191,2147483791,2147483839,2147483839,2147483695,2147483839,2147483839,2147483743,2147483695,2147483791,2147483695,143,2147483695,2147483695,191,47,2147483791,191,191,2147483791,47,191,95,2147483839,2147483791,2147483839,191,2147483791,47,2147483791,2147483743,2147483791,191,2147483743,2147483695,2147483791,47,2147483791,143,47,2147483839,2147483695,2147483839,143,2147483839,191,2147483791,47,2147483743,2147483839,2147483791,143,191,143,2147483695,2147483695,47,2147483743,95,47,2147483791,47,2147483743,47,2147483743,2147483791,2147483791,2147483695,95,47,143,2147483791,2147483743,143,95,191,95,2147483743,143,95,191,47,47,95,2147483743,47,143,47,2147483839,47,47,143,2147483743,191,2147483743,143,95,2147483695,2147483839,2147483743,95,47,2147483839,2147483839,2147483743,47,2147483839,95,95,2147483743,191,2147483839,95,2147483695,143,95,2147483743,47,191,2147483839,95,2147483791,47,143,143,2147483791,2147483695,47,2147483791,2147483791,95,191,47,143,2147483743,95,2147483791,191,2147483743,2147483839,2147483695,191,2147483743,95,143,143,95,143,191,2147483743,2147483695,47,2147483695,95,2147483695,2147483791,143,2147483743,2147483695,47,143,2147483839,47,191,2147483695,47,95,2147483743,2147483743,191,2147483743,191,2147483839,2147483791,2147483791,2147483791,2147483839,47,95,47,2147483743,95,2147483791,143,143,2147483695,143,47,2147483743,143,143,2147483791,47,95,95,2147483743,2147483791,191,2147483839,191,191,2147483743,2147483839,95,143,191,191,191,2147483839,2147483743,143,2147483743,95,143,2147483791,191,2147483839,47,191,2147483743,95,2147483839,191,191,143,2147483839,47,191,47,95,2147483695,2147483695,2147483791,2147483839,95,47,47,2147483743,2147483743,143,191,191,143,2147483839,2147483743,2147483839,2147483695,2147483695,191,47,191,191,47,2147483791,2147483839,2147483839,2147483791,2147483791,143,95,191,2147483743,47,47,2147483791,2147483743,47,47,2147483695,143,2147483839,2147483839,2147483839,2147483695,143,95,2147483791,95,2147483695,95,143,2147483743,2147483839,47,95,2147483695,2147483695,95,2147483839,2147483695,143,143,2147483839,191,191,2147483743,143,2147483839,2147483743,2147483791,2147483839,47,47,2147483743,2147483695,47,2147483695,2147483743,191,2147483743,143,143,47,47,2147483743,95,2147483839,2147483695,95,95,47,47,2147483839,2147483839,95,191,2147483743,2147483743,2147483695,47,143,2147483791,47,191,2147483743,95,2147483743,2147483791,2147483695,143,191,2147483839,191,47,2147483743,191,47,2147483839,2147483695,2147483839,191,47,2147483791,191,191,95,143,2147483791,143,47,2147483743,2147483839,143,95,2147483791,2147483791,2147483839,47,191,2147483839,95,2147483839,2147483791,2147483695,2147483743,95,2147483839,191,2147483791,47,143,2147483839,47,2147483791,95,2147483695,143,2147483839,2147483743,2147483695,2147483839,2147483695,95,191,95,2147483839,2147483839,95,47,95,95,2147483839,2147483791,47,2147483791,95,2147483839,47,95,95,191,2147483743,2147483791,2147483743,2147483839,2147483743,95,143,143,95,95,143,191,2147483839,2147483743,143,2147483791,143,2147483791,191,2147483839,191,2147483695,2147483743,95,2147483839,2147483839,47,191,191,2147483743,191,2147483839,2147483839,191,191,191,2147483839,191,143,47,95,47,143,2147483743,2147483839,2147483695,2147483791,2147483695,95,2147483695,2147483695,2147483791,47,191,95,2147483695,143,2147483743,2147483839,95,143,191,143,2147483791,191,143,191,143,2147483839,191,2147483695,47,2147483839,191,2147483695,47,2147483695,2147483743,47,47,191,2147483743,95,2147483791,2147483743,2147483695,143,47,47,143,2147483743,143,2147483695,95,2147483839,95,47,143,2147483695,2147483791,47,191,2147483839,2147483839,191,191,191,2147483839,47,191,2147483839,143,2147483791,191,95,95,143,2147483839,2147483791,2147483743,2147483695,2147483695,95,143,191,95,47,191,191,95,2147483839,47,143,2147483791,143,95,2147483695,2147483695,95,2147483791,2147483839,47,2147483791,2147483743,2147483743,2147483695,95,191,47,143,2147483695,191,2147483791,2147483743,191,47,95,47,2147483743,2147483743,2147483695,2147483839,2147483743,143,47,2147483743,2147483695,2147483839,2147483839,2147483791,47,95,2147483791,95,143,143,95,47,95,191,47,2147483791,2147483839,2147483695,191,2147483743,95,2147483695,2147483791,47,143,2147483743,2147483743,2147483839,95,95,191,47,143,143,2147483743,2147483839,191,191,2147483695,191,47,2147483839,2147483839,143,2147483743,95,2147483791,47,95,2147483839,2147483743,191,2147483839,143,47,95,47,2147483839,2147483839,2147483695,47,143,143,143,95,95,2147483695,95,143,2147483695,2147483839,47,2147483839,2147483791,2147483791,191,2147483695,95,95,47,191,2147483839,143,191,95,2147483791,2147483839,191,95,95,2147483695,2147483791,2147483791,2147483695,2147483839,95,2147483743,95,191,47,2147483695,95,95,95,47,2147483695,191,2147483743,47,95,2147483743,2147483695,47,47,2147483695,2147483743,47,2147483695,47,47,47,95,191,47,2147483839,2147483695,2147483695,143,143,143,47,2147483839,95,2147483791,2147483791,2147483791,2147483743,95,47,191,95,2147483791,2147483791,95,95,2147483743,2147483839,143,47,47,47,2147483839,47,47,191,2147483791,191,47,47,95,191,2147483743,2147483839,2147483791,2147483695,2147483791,2147483791,2147483743,2147483839,2147483695,2147483839,143,2147483743,95,2147483791,2147483695,2147483791,2147483695,2147483695,2147483839,2147483743,47,2147483743,2147483695,95,95,2147483695,191,2147483695,47,95,2147483791,2147483839,143,2147483695,191,2147483743,191,2147483695,2147483791,2147483743,143,95,2147483839,191,191,2147483695,2147483743,2147483695,143,143,2147483695,191,191,2147483839,2147483743,47,191,143,47,143,143,2147483839,2147483839,143,2147483695,2147483743,47,2147483839,2147483839,95,2147483839,143,2147483839,2147483695,2147483695,2147483695,47,191,47,2147483791,143,2147483743,47,191,143,2147483839,2147483695,191,2147483791,2147483743,2147483839,2147483791,2147483743,2147483791,191,2147483791,95,2147483695,191,2147483791,2147483743,2147483791,2147483839,191,2147483791,2147483743,2147483695,2147483839,143,2147483839,2147483791,2147483839,47,2147483743,47,191,191,2147483839,95,143,2147483839,95,191,191,191,2147483839,95,191,2147483839,191,95,95,95,2147483743,191,2147483743,2147483743,2147483839,143,2147483743,95,2147483743,2147483839,2147483695,95,47,2147483743,2147483791,95,2147483791,2147483839,2147483695,95,2147483695,95,191,143,2147483839,2147483695,95,143,2147483743,2147483791,2147483839,143,191,47,2147483743,2147483743,47,95,143,2147483743,143,2147483743,47,2147483839,2147483695,2147483839,143,95,47,2147483743,191,95,143,47,47,2147483791,95,95,191,2147483791,143,191,47,95,47,95,2147483791,2147483743,2147483791,2147483839,47,2147483743,2147483695,143,2147483695,2147483791,2147483791,47,143,2147483791,143,143,47,2147483791,2147483839,2147483695,2147483791,95,2147483839,2147483743,47,47,2147483743,2147483839,2147483791,191,95,2147483839,95,2147483743,191,191,143,143,2147483839,2147483743,47,2147483695,2147483839,95,2147483695,47,2147483743,2147483839,191,2147483839,47,2147483791,95,2147483743,2147483791,143,2147483839,2147483839,2147483743,2147483695,2147483743,2147483695,95,47,2147483791,143,191,143,2147483743,2147483743,2147483839,143,2147483839,2147483839,2147483791,2147483743,2147483791,2147483839,2147483695,2147483839,143,2147483791,47,2147483839,2147483695,47,2147483791,2147483791,95,2147483839,2147483743,2147483695,2147483839,191,2147483743,47,2147483791,2147483743,2147483839,143,2147483743,47,2147483791,95,191,143,2147483743,2147483743,191,143,2147483695,191,95,143,47,191,2147483791,2147483695,2147483791,2147483791,47,47,47,47,2147483791,143,2147483695,95,2147483743,191,2147483791,191,2147483743,143,2147483743,191,191,2147483743,143,191,191,95,47,2147483743,2147483743,95,191,2147483743,2147483743,191,143,191,191,47,95,2147483743,2147483743,191,2147483695,2147483743,2147483743,2147483791,143,2147483839,95,191,191,95,95,2147483695,143,95,2147483743,47,2147483791,2147483839,191,191,2147483695,191,191,2147483791,47,2147483743,2147483743,95,143,95,2147483743,2147483743,143,191,47,191,2147483695,191,47,2147483839,2147483695,2147483743,2147483791,95,2147483791,95,2147483791,95,2147483791,47,2147483695,2147483839,47,2147483839,2147483695,2147483839,2147483695,143,143,2147483743,143,2147483791,143,2147483743,143,2147483695,2147483695,2147483839,95,47,47,2147483839,47,2147483791,143,95,2147483839,143,2147483791,2147483743,2147483839,47,47,47,95,2147483695,47,191,2147483743,143,2147483791,2147483791,191,2147483791,143,2147483791,2147483839,2147483695,95,2147483695,2147483743,2147483695,47,47,95,143,2147483839,143,2147483839,143,191,143,191,143,2147483743,143,95,2147483791,2147483743,2147483791,95,2147483695,2147483839,95,191,2147483695,2147483839,47,191,143,95,2147483839,2147483743,2147483791,95,191,95,47,2147483839,2147483743,47,47,191,2147483743,191,143,2147483743,191,143,143,2147483743,2147483839,2147483695,95,95,2147483791,143,191,2147483743,191,191,2147483839,191,47,2147483695,2147483839,95,47,2147483695,2147483743,95,2147483839,95,2147483791,2147483695,2147483839,2147483839,191,143,2147483695,47,95,2147483839,2147483791,2147483791,2147483743,47,47,2147483743,47,47,2147483695,2147483743,191,2147483791,2147483791,191,2147483743,2147483695,143,191,2147483791,47,2147483695,2147483743,2147483839,2147483839,143,2147483839,2147483743,2147483791,2147483791,191,95,2147483791,2147483695,2147483743,2147483695,2147483695,2147483839,191,143,2147483695,2147483839,191,2147483791,143,95,95,47,2147483743,2147483791,2147483791,143,143,47,2147483839,2147483791,2147483695,95,2147483743,2147483695,2147483695,2147483695,2147483695,47,143,2147483791,143,2147483791,2147483839,191,143,47,2147483839,2147483743,2147483839,2147483791,143,95,2147483743,47,2147483695,2147483695,2147483743,2147483743,95,47,2147483743,2147483743,191,143,2147483839,2147483791,143,47,191,191,95,2147483695,2147483743,191,2147483743,2147483791,2147483839,2147483743,2147483791,191,2147483839,2147483743,2147483695,2147483743,95,2147483839,95,2147483791,47,143,2147483743,2147483695,2147483695,2147483839,2147483791,2147483743,191,47,191,143,143,143,2147483695,2147483695,95,2147483839,2147483791,95,2147483743,2147483695,191,2147483839,2147483695,2147483743,2147483839,2147483839,2147483791,2147483791,47,2147483695,2147483743,143,2147483791,191,95,2147483695,2147483839,2147483695,47,47,2147483695,2147483743,191,191,95,143,143,191,2147483839,47,2147483695,191,2147483791,2147483839,2147483839,191,191,191,143,2147483743,191,95,47,143,143,191,2147483791,2147483743,2147483743,2147483695,2147483743,2147483695,2147483695,95,47,2147483791,143,2147483743,143,2147483791,143,2147483791,143,47,95,47,2147483743,191,2147483695,2147483743,95,2147483839,47,143,191,2147483695,191,2147483791,2147483839,2147483839,143,95,47,95,2147483839,2147483791,191,47,143,2147483839,2147483791,2147483695,95,95,143,191,2147483743,2147483791,2147483743,2147483791,47,2147483695,2147483695,95,2147483839,2147483695,191,2147483695,191,2147483743,143,191,143,2147483791,2147483839,2147483791,2147483743,191,47,2147483743,95,2147483743,2147483695,143,47,2147483791,95,95,95,2147483695,2147483695,47,2147483791,2147483743,2147483791,143,2147483791,143,2147483791,2147483839,95,2147483839,47,47,2147483695,2147483743,2147483743,95,2147483791,2147483695,2147483791,191,191,2147483839,2147483839,95,2147483839,2147483743,2147483695,143,2147483695,191,191,191,2147483743,2147483695,143,2147483695,95,95,2147483743,2147483791,2147483695,143,47,2147483839,95,2147483743,95,143,143,95,2147483791,2147483743,191,2147483839,191,2147483791,2147483791,2147483791,47,191,2147483695,47,47,47,2147483695,47,2147483791,2147483743,95,2147483743,2147483743,2147483839,2147483839,191,47,143,2147483695,2147483743,2147483743,95,95,47,95,47,2147483791,143,143,2147483743,2147483743,2147483743,191,2147483791,2147483839,143,95,2147483839,2147483743,47,2147483695,47,2147483839,191,191,2147483791,95,2147483791,95,95,2147483791,2147483743,143,2147483695,143,2147483839,191,2147483839,47,2147483695,47,2147483695,191,47,191,2147483743,2147483743,95,2147483695,143,95,2147483839,2147483743,2147483839,143,143,95,95,47,47,95,191,2147483743,47,143,95,47,2147483743,95,2147483695,2147483791,191,143,2147483695,47,47,95,2147483839,2147483743,2147483839,2147483791,2147483695,2147483743,2147483791,143,95,2147483839,95,191,2147483791,2147483791,2147483791,191,191,191,2147483791,2147483695,2147483743,191,2147483839,191,2147483839,47,2147483791,2147483695,95,143,2147483791,2147483791,2147483743,2147483743,47,2147483839,47,2147483743,95,2147483743,95,2147483791,2147483695,191,95,191,2147483791,191,2147483791,2147483743,2147483743,47,2147483743,2147483791,143,2147483839,143,2147483839,143,95,2147483791,47,2147483839,2147483695,2147483839,2147483791,143,2147483743,2147483791,2147483695,2147483695,2147483695,191,2147483839,143,95,2147483839,2147483743,191,95,47,2147483839,2147483695,2147483791,95,2147483743,2147483791,95,2147483791,47,191,143,2147483743,2147483695,2147483743,2147483743,143,191,2147483791,2147483791,2147483695,47,143,47,2147483743,2147483695,191,2147483743,2147483839,2147483839,191,191,2147483695,143,47,191,2147483839,2147483839,2147483695,2147483695,2147483695,143,95,2147483743,2147483791,2147483743,2147483743,2147483743,47,2147483743,143,95,47,47,47,2147483839,2147483743,95,2147483695,143,2147483791,2147483743,2147483743,2147483839,2147483791,2147483839,143,2147483743,47,95,143,47,47,95,191,2147483791,191,2147483839,143,191,47,2147483839,2147483791,2147483791,2147483695,2147483743,2147483695,2147483695,143,2147483839,2147483695,47,2147483791,191,95,2147483695,143,2147483695,2147483791,2147483791,47,191,143,143,2147483695,191,47,47,2147483695,2147483839,2147483839,143,2147483791,143,47,191,2147483791,95,2147483791,2147483743,2147483695,2147483839,95,2147483695,2147483695,2147483791,191,2147483743,2147483695,2147483695,2147483695,143,143,2147483695,2147483839,143,95,191,2147483743,47,2147483695,2147483695,2147483839,47,2147483791,2147483695,95,2147483743,2147483695,191,143,2147483839,143,143,2147483695,191,191,2147483743,2147483695,191,2147483791,2147483839,95,95,47,2147483839,47,95,47,2147483791,2147483695,2147483839,2147483695,2147483743,2147483743,95,2147483791,2147483743,95,95,143,2147483695,47,191,2147483695,2147483791,143,95,95,2147483839,2147483839,143,2147483839,47,2147483791,143,2147483839,95,2147483695,2147483695,2147483791,191,2147483695,2147483695,2147483695,191,2147483791,191,2147483695,2147483743,95,2147483743,2147483791,143,2147483791,2147483743,143,2147483839,47,2147483695,2147483695,143,143,2147483695,191,2147483791,143,2147483695,191,191,2147483695,143,95,95,2147483695,143,47,2147483743,143,2147483791,2147483695,2147483695,143,47,2147483791,95,95,2147483695,143,95,2147483695,2147483791,191,2147483791,2147483743,47,95,143,47,47,95,47,143,2147483791,2147483839,2147483743,2147483839,143,191,2147483743,95,95,2147483839,191,2147483695,47,2147483743,191,2147483695,2147483695,2147483743,2147483743,2147483791,143,191,47,2147483743,2147483791,95,2147483695,191,2147483791,2147483695,95,2147483695,2147483839,2147483791,2147483791,2147483791,2147483839,2147483743,2147483791,143,2147483839,2147483791,2147483743,2147483743,2147483743,2147483839,2147483743,95,95,191,143,2147483791,2147483839,2147483695,2147483839,2147483743,2147483791,2147483791,191,95,2147483743,2147483791,95,2147483791,2147483839,47,2147483839,95,2147483743,2147483791,95,2147483743,2147483791,2147483839,191,47,2147483695,2147483791,47,2147483695,2147483791,143,143,2147483695,95,2147483791,2147483695,47,143,143,2147483791,2147483695,2147483695,2147483791,2147483791,143,2147483743,47,2147483695,191,191,95,2147483791,2147483791,2147483695,191,95,143,2147483791,95,143,2147483791,47,191,2147483695,143,143,2147483743,2147483791,143,95,47,2147483743,2147483839,2147483839,2147483791,191,2147483839,95,2147483695,95,2147483839,191,143,143,191,95,47,2147483791,2147483839,2147483839,143,143,143,95,47,47,143,2147483791,47,47,95,191,143,47,2147483743,95,2147483695,2147483695,2147483743,191,143,47,2147483743,95,47,2147483695,143,2147483791,2147483791,47,47,95,2147483695,2147483695,95,191,143,2147483695,47,2147483743,191,2147483839,143,2147483791,95,47,2147483695,47,191,2147483839,95,2147483791,95,191,191,2147483695,2147483743,143,2147483695,47,47,143,143,47,2147483791,2147483791,191,191,47,95,95,143,2147483743,95,191,2147483839,191,2147483743,2147483791,2147483695,95,2147483695,2147483791,191,2147483695,2147483743,2147483791,2147483695,2147483695,47,2147483791,191,47,95,2147483743,191,47,2147483695,143,191,2147483839,47,2147483743,191,143,143,2147483839,2147483695,143,2147483743,191,2147483743,2147483791,95,191,2147483839,2147483743,2147483791,2147483839,95,2147483743,2147483695,143,191,2147483743,2147483743,47,2147483839,191,47,2147483791,191,95,2147483695,2147483695,2147483839,95,2147483839,191,2147483839,95,95,143,95,95,143,143,2147483839,2147483743,143,2147483791,2147483695,2147483695,2147483791,143,2147483695,2147483791,143,2147483743,47,2147483695,95,2147483839,2147483695,2147483743,95,2147483743,191,2147483791,191,2147483695,47,143,2147483791,2147483695,191,191,95,95,2147483743,2147483839,47,191,2147483839,143,47,95,143,2147483695,47,191,2147483791,2147483791,2147483695,143,143,2147483695,2147483839,2147483791,143,2147483695,2147483791,191,2147483695,2147483695,2147483695,191,47,47,2147483791,143,2147483695,2147483695,2147483743,2147483695,2147483791,2147483839,2147483743,95,143,2147483791,47,2147483695,2147483695,95,2147483839,2147483839,2147483743,2147483695,143,2147483743,2147483743,191,47,95,2147483791,143,2147483695,2147483839,191,95,2147483839,2147483839,2147483743,95,143,143,2147483791,95,95,2147483839,191,2147483791,2147483743,95,47,191,2147483839,47,47,47,2147483791,191,143,95,2147483743,2147483791,2147483743,2147483695,143,191,143,95,2147483743,191,2147483839,2147483791,47,2147483743,47,2147483791,143,2147483695,2147483791,47,2147483839,191,2147483839,95,47,2147483791,2147483695,2147483791,2147483791,143,2147483791,2147483839,191,95,2147483791,95,2147483695,2147483695,47,2147483743,95,2147483791,2147483695,2147483791,2147483791,95,95,47,191,2147483791,2147483791,143,2147483695,2147483839,95,2147483695,2147483839,47,2147483791,143,2147483695,2147483839,191,191,95,143,47,191,95,95,2147483743,2147483695,191,47,2147483791,2147483743,191,191,191,191,2147483839,2147483791,47,2147483695,2147483695,143,2147483839,95,95,95,2147483791,143,95,191,143,95,2147483695,2147483695,47,191,2147483839,47,2147483695,2147483839,95,143,143,191,2147483695,143,2147483791,2147483743,47,95,2147483791,95,2147483743,2147483695,2147483695,2147483839,191,191,2147483839,2147483791,191,95,95,95,191,2147483695,2147483695,191,2147483839,47,2147483695,2147483695,2147483791,2147483791,143,143,2147483839,2147483791,143,143,191,2147483695,95,2147483743,47,2147483839,2147483839,2147483839,143,191,2147483839,2147483791,143,2147483743,2147483743,143,47,2147483695,47,2147483695,47,47,2147483839,191,143,2147483791,2147483791,95,191,2147483743,2147483743,2147483743,2147483839,2147483839,2147483743,47,95,2147483839,143,2147483791,95,191,2147483839,191,2147483839,2147483743,2147483743,2147483743,2147483695,2147483743,191,2147483839,47,2147483839,143,143,95,95,95,2147483695,191,2147483839,2147483695,47,191,191,2147483743,2147483695,95,2147483743,191,2147483839,2147483743,191,2147483791,2147483791,2147483839,191,47,47,2147483839,191,2147483695,2147483791,2147483839,191,2147483839,2147483791,95,95,2147483743,2147483695,2147483839,2147483839,2147483791,47,2147483839,143,2147483743,2147483695,191,95,47,2147483791,95,47,191,2147483791,95,47,191,47,2147483839,2147483791,95,2147483695,2147483839,2147483791,2147483743,143,95,47,2147483839,2147483791,2147483743,2147483695,2147483839,47,2147483839,143,2147483743,47,191,2147483791,95,2147483791,2147483743,2147483695,191,143,95,2147483695,2147483839,47,2147483839,2147483791,2147483743,47,191,2147483791,2147483743,2147483791,95,47,2147483839,2147483791,2147483743,47,191,2147483743,2147483695,2147483839,143,47,191,143,2147483743,191,143,2147483743,2147483695,2147483839,143,2147483743,2147483695,2147483743,2147483695,2147483839,2147483791,95,47,2147483839,143,191,2147483791,95,47,191,2147483791,2147483743,47,2147483743,47,2147483839,2147483791,2147483743,2147483695,2147483839,143,191,2147483791,95,2147483695,2147483839,2147483791,2147483743,47,2147483743,2147483695,2147483839,143,95,2147483695,2147483839,143,191,2147483791,95,47,2147483839,143,2147483743,2147483695,143,2147483695,191,2147483791,2147483743,2147483695,191,2147483791,2147483695,2147483839,2147483791,95,2147483695,2147483839,95,191,2147483839,143,47,95,143,2147483791,47,143,2147483791,47,2147483791,2147483839,95,143,143,2147483839,2147483695,143,2147483695,2147483695,47,2147483743,95,2147483791,2147483791,2147483839,2147483743,191,191,2147483839,2147483695,95,47,95,143,47,2147483791,95,95,2147483695,143,2147483791,2147483839,2147483791,2147483695,95,2147483695,143,47,95,2147483791,2147483695,2147483791,2147483695,2147483839,2147483791,191,191,2147483839,143,47,191,95,2147483695,2147483839,2147483743,2147483695,95,2147483743,2147483743,95,143,2147483743,191,2147483791,47,191,143,191,95,47,191,2147483791,95,2147483743,2147483743,2147483791,2147483695,2147483791,2147483743,143,2147483839,143,2147483839,2147483695,95,47,47,2147483743,2147483743,143,2147483695,191,143,2147483839,2147483839,95,2147483839,95,2147483743,2147483839,2147483695,143,2147483791,2147483839,47,143,47,95,2147483791,47,2147483839,191,143,2147483695,2147483791,2147483839,2147483695,2147483695,143,143,2147483791,2147483791,2147483839,143,143,2147483791,95,2147483695,47,47,143,143,2147483839,95,143,95,2147483839,2147483791,191,191,143,191,47,2147483839,95,2147483743,2147483791,2147483743,47,2147483791,2147483839,2147483839,47,2147483839,47,47,191,47,2147483743,2147483695,2147483743,2147483695,2147483743,95,47,2147483695,191,47,47,191,2147483695,2147483743,2147483839,2147483839,2147483791,143,2147483791,143,2147483791,2147483839,2147483743,2147483743,47,95,2147483839,143,2147483839,2147483695,95,2147483743,2147483695,95,2147483743,2147483695,95,143,2147483839,47,2147483839,2147483695,2147483743,191,191,2147483743,47,143,2147483743,143,2147483839,2147483743,2147483695,143,95,2147483695,2147483839,47,95,2147483839,2147483791,2147483743,2147483695,2147483791,2147483743,2147483791,191,2147483743,2147483743,191,2147483791,2147483839,2147483695,191,2147483791,95,2147483839,143,2147483839,191,47,95,143,95,2147483839,2147483791,2147483743,2147483743,191,47,2147483743,47,143,2147483743,2147483695,47,2147483743,2147483791,2147483839,2147483791,2147483695,191,143,95,47,47,95,47,2147483695,2147483743,143,191,2147483791,2147483791,2147483839,143,143,2147483839,191,95,95,191,2147483839,143,2147483743,47,2147483743,2147483743,143,2147483695,2147483839,143,2147483695,47,95,95,2147483743,191,95,2147483743,2147483839,2147483695,95,95,47,191,95,143,47,47,2147483791,47,2147483695,143,2147483791,2147483695,2147483695,2147483839,47,2147483695,95,2147483839,143,2147483695,191,191,47,47,47,2147483791,2147483791,47,2147483695,95,2147483791,143,95,191,2147483791,2147483695,2147483743,95,143,2147483695,2147483839,191,143,95,47,191,2147483743,2147483743,191,47,2147483791,95,2147483695,2147483695,95,2147483743,191,2147483839,2147483743,191,191,47,2147483743,95,2147483839,143,2147483743,2147483839,2147483695,2147483695,95,47,143,2147483791,2147483743,2147483695,47,2147483791,2147483839,2147483791,95,2147483695,47,2147483791,95,191,2147483839,2147483839,2147483743,47,2147483839,95,2147483743,2147483791,2147483839,2147483839,2147483743,2147483839,2147483839,2147483743,143,191,191,95,47,2147483839,2147483743,143,95,2147483839,143,143,47,2147483695,2147483791,2147483791,95,143,2147483839,2147483839,95,2147483743,2147483695,143,143,95,95,191,143,2147483791,2147483695,191,2147483839,95,2147483743,2147483839,2147483743,2147483743,2147483695,2147483791,143,2147483743,95,2147483839,2147483839,191,95,47,2147483695,143,2147483791,2147483695,191,2147483839,2147483791,95,2147483695,191,191,47,2147483695,2147483695,143,2147483743,95,191,2147483839,47,191,191,2147483743,2147483695,2147483839,95,2147483791,2147483839,143,2147483839,2147483695,2147483695,191,2147483743,95,2147483695,2147483695,191,2147483791,2147483743,2147483839,191,191,2147483695,47,47,2147483743,95,95,47,2147483695,95,2147483743,2147483695,191,2147483791,2147483695,2147483695,2147483695,2147483743,95,95,143,2147483791,2147483695,2147483839,47,143,143,47,47,2147483839,95,95,2147483743,2147483791,2147483791,2147483695,191,2147483839,2147483743,2147483791,95,143,2147483791,47,2147483839,2147483839,95,95,2147483743,2147483743,2147483791,2147483695,2147483839,2147483839,2147483743,95,47,2147483695,2147483695,143,2147483791,95,191,191,2147483791,2147483695,47,2147483839,191,95,47,2147483695,47,2147483743,143,2147483839,47,2147483839,143,47,47,191,2147483743,143,143,2147483839,143,95,95,95,143,2147483839,2147483791,2147483743,2147483695,191,191,191,2147483791,191,191,2147483839,143,2147483743,95,2147483743,47,191,143,191,2147483839,2147483839,95,2147483839,2147483791,2147483791,191,2147483695,47,143,2147483839,95,191,191,191,47,95,191,95,143,47,2147483695,95,2147483839,2147483695,95,191,2147483791,2147483695,47,95,2147483695,191,2147483743,95,2147483743,2147483791,2147483839,191,143,2147483695,191,191,2147483791,2147483839,2147483695,191,2147483791,2147483743,95,95,47,2147483743,95,95,47,47,191,191,2147483839,2147483743,2147483743,2147483839,95,95,191,2147483695,2147483791,2147483695,95,143,191,191,191,2147483791,47,2147483791,2147483839,143,2147483839,2147483695,47,2147483695,2147483743,47,2147483695,2147483695,2147483743,2147483839,191,2147483791,95,143,47,2147483839,2147483839,143,47,47,191,95,2147483839,143,2147483743,191,2147483743,2147483695,2147483839,2147483743,2147483695,2147483743,2147483791,95,2147483839,2147483695,2147483743,2147483791,2147483743,143,2147483743,2147483695,143,191,2147483839,2147483695,47,2147483791,2147483839,2147483791,2147483839,47,95,2147483695,191,2147483695,95,47,2147483743,2147483839,2147483839,191,2147483839,2147483839,95,191,191,191,2147483743,2147483743,95,95,47,2147483839,95,95,2147483839,191,191,95,2147483839,2147483743,191,191,95,2147483791,2147483791,143,2147483743,143,95,2147483743,2147483791,2147483839,2147483791,2147483839,2147483695,191,95,191,47,2147483743,191,95,2147483791,191,2147483695,2147483743,95,2147483839,2147483791,47,2147483743,95,95,2147483791,2147483839,95,95,2147483839,2147483695,2147483791,47,2147483743,2147483743,95,2147483791,2147483743,47,2147483791,2147483695,47,2147483743,191,2147483839,2147483791,2147483839,47,95,143,143,2147483695,2147483743,143,2147483839,143,191,2147483695,2147483743,2147483791,47,2147483695,2147483743,2147483839,47,143,2147483743,2147483695,2147483695,2147483743,47,2147483743,2147483695,47,2147483839,2147483791,2147483743,2147483791,95,47,47,2147483695,95,143,95,2147483695,143,47,2147483791,191,95,2147483743,95,47,2147483743,47,143,2147483839,2147483695,2147483743,2147483743,2147483695,2147483791,2147483695,95,2147483839,95,191,2147483839,2147483839,47,2147483791,47,143,2147483695,2147483839,2147483839,2147483791,191,143,47,2147483743,2147483695,2147483839,191,143,191,143,47,2147483743,191,191,191,2147483839,2147483695,2147483839,95,2147483791,2147483743,47,191,2147483839,2147483695,2147483839,95,2147483791,47,191,47,191,191,47,2147483695,2147483743,2147483743,191,2147483839,2147483839,191,143,191,47,2147483839,95,2147483791,95,143,2147483791,2147483791,47,2147483839,2147483743,2147483743,95,2147483791,143,2147483839,2147483695,143,2147483743,2147483839,47,2147483743,2147483791,143,2147483839,2147483743,95,2147483695,2147483743,47,2147483743,2147483839,47,2147483695,47,2147483695,47,191,2147483743,191,2147483839,95,47,2147483839,2147483695,191,2147483743,2147483791,2147483839,2147483839,2147483791,2147483791,2147483791,143,47,2147483743,143,2147483839,191,143,2147483743,2147483791,191,2147483695]},{"id":2,"name":"marsh","type":"tilelayer","x":0,"y":0,"opacity":1,"visible":true,"width":144,"height":96,"data":[0,0,0,0,0,0,0,0,0,0,0,0,0,0,0,0,0,0,0,0,0,0,0,0,0,0,0,0,0,0,0,0,0,0,0,0,0,0,0,0,0,0,0,0,0,0,0,0,0,0,0,0,0,0,0,0,0,0,0,0,0,0,0,0,0,0,0,0,0,0,0,0,0,0,0,0,0,0,0,0,0,0,0,0,0,0,0,0,0,0,0,0,0,0,0,0,0,0,0,0,0,0,0,0,0,0,0,0,0,0,0,0,0,0,0,0,0,0,0,0,0,0,0,0,0,0,0,0,0,0,0,0,0,0,0,0,0,0,0,0,0,0,0,0,0,0,0,0,0,0,0,0,0,0,0,0,0,0,0,0,0,0,0,0,0,0,0,0,0,0,0,0,0,0,0,0,0,0,0,0,0,0,0,0,0,0,0,0,0,0,0,0,0,0,0,0,0,0,0,0,0,0,0,0,0,0,0,0,0,0,0,0,0,0,0,0,0,0,0,0,0,0,0,0,0,0,0,0,0,0,0,0,0,0,0,0,0,0,0,0,0,0,0,0,0,0,0,0,0,0,0,0,0,0,0,0,0,0,0,0,0,0,0,0,0,0,0,0,0,0,0,0,0,0,0,0,0,0,0,0,0,0,0,0,0,0,0,0,0,0,0,0,0,0,0,0,0,0,0,0,0,0,0,0,0,0,0,0,0,0,0,0,0,0,0,0,0,0,0,0,0,0,0,0,0,0,0,0,0,0,0,0,0,0,0,0,0,0,0,0,0,0,0,0,0,0,0,0,0,0,0,0,0,0,0,0,0,0,0,0,0,0,0,0,0,0,0,0,0,0,0,0,0,0,0,0,0,0,0,0,0,0,0,0,0,0,0,0,0,0,0,0,0,0,0,0,0,0,0,0,0,0,0,0,0,0,0,0,0,0,0,0,0,0,0,0,0,0,0,0,0,0,0,0,0,0,0,0,0,0,0,0,0,0,0,0,0,0,0,0,0,0,0,0,0,0,0,0,0,0,0,0,0,0,0,0,0,0,0,0,0,0,0,0,0,0,0,0,0,0,0,0,0,0,0,0,0,0,0,0,0,0,0,0,0,0,0,0,0,0,0,0,0,0,0,0,0,0,0,0,0,0,0,0,0,0,0,0,0,0,0,0,0,0,0,0,0,0,0,0,0,0,0,0,0,0,0,0,0,0,0,0,0,0,0,0,0,0,0,0,0,0,0,0,0,0,0,0,0,0,0,0,0,0,0,0,0,0,0,0,0,0,0,0,0,0,0,0,0,0,0,0,0,0,0,0,0,0,0,0,0,0,0,0,0,0,0,0,0,0,0,0,0,0,0,0,0,0,0,0,0,0,0,0,0,0,0,0,0,0,0,0,0,0,0,0,0,0,0,0,0,0,0,0,0,0,0,0,0,0,0,0,0,0,0,0,0,0,0,0,0,0,0,0,0,0,0,0,0,0,0,0,0,0,0,0,0,0,0,0,0,0,0,0,0,0,0,0,0,0,0,0,0,0,0,0,0,0,0,0,0,0,0,0,0,0,0,0,0,0,0,0,0,0,0,0,0,0,0,0,0,0,0,0,0,0,0,0,0,0,0,0,0,0,0,0,0,0,0,0,0,0,0,0,0,0,0,0,0,0,0,0,0,0,0,0,0,0,0,0,0,0,0,0,0,0,0,0,0,0,0,0,0,0,0,0,0,0,0,0,0,0,0,0,0,0,0,0,0,0,0,0,0,0,0,0,0,0,0,0,0,0,0,0,0,0,0,0,0,0,0,0,0,0,0,0,0,0,0,0,0,0,0,0,0,0,0,0,0,0,0,0,0,0,0,0,0,0,0,0,0,0,0,0,0,0,0,0,0,0,0,0,0,0,0,0,0,0,0,0,0,0,0,0,0,0,0,0,0,0,0,0,0,0,0,0,0,0,0,0,0,0,0,0,0,0,0,0,0,0,0,0,0,0,0,0,0,0,0,0,0,0,0,0,0,0,0,0,0,0,0,0,0,0,0,0,0,0,0,0,0,0,0,0,0,0,0,0,0,0,0,0,0,0,0,0,0,0,0,0,0,0,0,0,0,0,0,0,0,0,0,0,0,0,0,0,0,0,0,0,0,0,0,0,0,0,0,0,0,0,0,0,0,0,0,0,0,0,0,0,0,0,0,0,0,0,0,0,0,0,0,0,0,0,0,0,0,0,0,0,0,0,0,0,0,0,0,0,0,0,0,0,0,0,0,0,0,0,0,0,0,0,0,0,0,0,0,0,0,0,0,0,0,0,0,0,0,0,0,0,0,0,0,0,0,0,0,0,0,0,0,0,0,0,0,0,0,0,0,0,0,0,0,0,0,0,0,0,0,0,0,0,0,0,0,0,0,0,0,0,0,0,0,0,0,0,0,0,0,0,0,0,0,0,0,0,0,0,0,0,0,0,0,0,0,0,0,0,0,0,0,0,0,0,0,0,0,0,0,0,0,0,0,0,0,0,0,0,0,0,0,0,0,0,0,0,0,0,0,0,0,0,0,0,0,0,0,0,0,0,0,0,0,0,0,0,0,0,0,0,0,0,0,0,0,0,0,0,0,0,0,0,0,0,0,0,0,0,0,0,0,0,0,0,0,0,0,0,0,0,0,0,0,0,0,0,0,0,0,0,0,0,0,0,0,0,0,0,0,0,0,0,0,0,0,0,0,0,0,0,0,0,0,0,0,0,0,0,0,0,0,0,0,0,0,0,0,0,0,0,0,0,0,0,0,0,0,0,0,0,0,0,0,0,0,0,0,0,0,0,0,0,0,0,0,0,0,0,0,0,0,0,0,0,0,0,0,0,0,0,0,0,0,0,0,0,0,0,0,0,0,0,0,0,0,0,0,0,0,0,0,0,0,0,0,0,0,0,0,0,0,0,0,0,0,0,0,0,0,0,0,0,0,0,0,0,0,0,0,0,0,0,0,0,0,0,0,0,0,0,0,0,0,0,0,0,0,0,0,0,0,0,0,0,0,0,0,0,0,0,0,0,0,0,0,0,0,0,0,0,0,0,0,0,0,0,0,0,0,0,0,0,0,0,0,0,0,0,0,0,0,0,0,0,0,0,0,0,0,0,0,0,0,0,0,0,0,0,0,0,0,0,0,0,0,0,0,0,0,0,0,0,0,0,0,0,0,0,0,0,0,0,0,0,0,0,0,0,0,0,0,0,0,0,0,0,0,0,0,0,0,0,0,0,0,0,0,0,0,0,0,0,0,0,0,0,0,0,0,0,0,0,0,0,0,0,0,0,0,0,0,0,0,0,0,0,0,0,0,0,0,0,0,0,0,0,0,0,0,0,0,0,0,0,0,0,0,0,0,0,0,0,0,0,0,0,0,0,0,0,0,0,0,0,0,0,0,0,0,0,0,0,0,0,0,0,0,0,0,0,0,0,0,0,0,0,0,0,0,0,0,0,0,0,0,0,0,0,0,0,0,0,0,0,0,0,0,0,0,0,0,0,0,0,0,0,0,0,0,0,0,0,0,0,0,0,0,0,0,0,0,0,0,0,0,0,0,0,0,0,0,0,0,0,0,0,0,0,0,0,0,0,0,0,0,0,0,0,0,0,0,0,0,0,0,0,0,0,0,0,0,0,0,0,0,0,0,0,0,0,0,0,0,0,0,0,0,0,0,0,0,0,0,0,0,0,0,0,0,0,0,0,0,0,0,0,0,0,0,0,0,0,0,0,0,0,0,0,0,0,0,0,0,0,0,0,0,0,0,0,0,0,0,0,0,0,0,0,0,0,0,0,0,0,0,0,0,0,0,0,0,0,0,0,0,0,0,0,0,0,0,0,0,0,0,0,0,0,0,0,0,0,0,0,0,0,0,0,0,0,0,0,0,0,0,0,0,0,0,0,0,0,0,0,0,0,0,0,0,0,0,0,0,0,0,0,0,0,0,0,0,0,0,0,0,0,0,0,0,0,0,0,0,0,0,0,0,0,0,0,0,0,0,0,0,0,0,0,0,0,0,0,0,0,0,0,0,0,0,0,0,0,0,0,0,0,0,0,0,0,0,0,0,0,0,0,0,0,0,0,0,0,0,0,0,0,0,0,0,0,0,0,0,0,0,0,0,0,0,0,0,0,0,0,0,0,0,0,0,0,0,0,0,0,0,0,0,0,0,0,0,0,0,0,0,0,0,0,0,0,0,0,0,0,0,0,0,0,0,0,0,0,0,0,0,0,0,0,0,0,0,0,0,0,0,0,0,0,0,0,0,0,0,0,0,0,0,0,0,0,0,0,0,0,0,0,0,0,0,0,0,0,0,0,0,0,0,0,0,0,0,0,0,0,0,0,0,0,0,0,0,0,0,0,0,0,0,0,0,0,0,0,0,0,0,0,0,0,0,0,0,0,0,0,0,0,0,0,0,0,0,0,0,0,0,0,0,0,0,0,0,0,0,0,0,0,0,0,0,0,0,0,0,0,0,0,0,0,0,0,0,0,0,0,0,0,0,0,0,0,0,0,0,0,0,0,0,0,0,0,0,0,0,0,0,0,0,0,0,0,0,0,0,0,0,0,0,0,0,0,0,0,0,0,0,0,0,0,0,0,0,0,0,0,0,0,0,0,0,0,0,0,0,0,0,0,0,0,0,0,0,0,0,0,0,0,0,0,0,0,0,0,0,0,0,0,0,0,0,0,0,0,0,0,0,0,0,0,0,0,0,0,0,0,0,0,0,0,0,0,0,0,0,0,0,0,0,0,0,0,0,0,0,0,0,0,0,0,0,0,0,0,0,0,0,0,0,0,0,0,0,0,0,0,0,0,0,0,0,0,0,0,0,0,0,0,0,0,0,0,0,0,0,0,0,0,0,0,0,0,0,0,0,0,0,0,0,0,0,0,0,0,0,0,0,0,0,0,0,0,0,0,0,0,0,0,0,0,0,0,0,0,0,0,0,0,0,0,0,0,0,0,0,0,0,0,0,0,0,0,0,0,0,0,0,0,0,0,0,0,0,0,0,0,0,0,0,0,0,0,0,0,0,0,0,0,0,0,0,0,0,0,0,0,0,0,0,0,0,0,0,0,0,0,0,0,0,0,0,0,0,0,0,0,0,0,0,0,0,0,0,0,0,0,0,0,0,0,0,0,0,0,0,0,0,0,0,0,0,0,0,0,0,0,0,0,0,0,0,0,0,0,0,0,0,0,0,0,0,0,0,0,0,0,0,0,0,0,0,0,0,0,0,0,0,0,0,0,0,0,0,0,0,0,0,0,0,0,0,0,0,0,0,0,0,0,0,0,0,0,0,0,0,0,0,0,0,0,0,0,0,0,0,0,0,0,0,0,0,0,0,0,0,0,0,0,0,0,0,0,0,0,0,0,0,0,0,0,0,0,0,0,0,0,0,0,0,0,0,0,0,0,0,0,0,0,0,0,0,0,0,0,0,0,0,0,0,0,0,0,0,0,0,0,0,0,0,0,0,0,0,0,0,0,0,0,0,0,0,0,0,0,0,0,0,0,0,0,0,0,0,0,0,0,0,0,0,0,0,0,0,0,0,0,0,0,0,0,0,0,0,0,0,0,0,0,0,0,0,0,0,0,0,0,0,0,0,0,0,0,0,0,0,0,0,0,0,0,0,0,0,0,0,0,0,0,0,0,0,0,0,0,0,0,0,0,0,0,0,0,0,0,0,0,0,0,0,0,0,0,0,0,0,0,0,0,0,0,0,0,0,0,0,0,0,0,0,0,0,0,3104,3104,3106,3167,2147486767,3263,3263,3263,0,0,0,0,0,0,0,0,0,0,0,0,0,0,0,0,0,0,0,0,0,0,0,0,0,0,0,0,0,0,0,0,0,0,0,0,0,0,0,0,0,0,0,0,0,0,0,0,0,0,0,0,0,0,0,0,0,0,0,0,0,0,0,0,0,0,0,0,0,0,0,0,0,0,0,0,0,0,0,0,0,0,0,0,0,0,0,0,0,0,0,0,0,0,0,0,0,0,0,0,0,0,0,0,0,0,0,0,0,0,0,0,0,0,0,0,0,0,0,0,0,0,0,0,0,0,0,0,0,0,0,0,0,0,3104,3106,2147486863,3167,3167,2147486911,2147486863,2147486767,2147486863,3167,2147486767,3115,0,0,0,0,0,0,0,0,0,0,0,0,0,0,0,0,0,0,0,0,0,0,0,0,0,0,0,0,0,0,0,0,0,0,0,0,0,0,0,0,0,0,0,0,0,0,0,0,0,0,0,0,0,0,0,0,0,0,0,0,0,0,0,0,0,0,0,0,0,0,0,0,0,0,0,0,0,0,0,0,0,0,0,0,0,0,0,0,0,0,0,0,0,0,0,0,0,0,0,0,0,0,0,0,0,0,0,0,0,0,0,0,0,0,0,0,0,0,0,0,0,0,0,0,0,0,0,0,0,0,0,0,3263,2147486815,2147486863,3167,2147486767,2147486863,3167,3167,3215,3117,3109,3113,0,0,0,0,0,0,0,0,0,0,0,0,0,0,0,0,0,0,0,0,0,0,0,0,0,0,0,0,0,0,0,0,0,0,0,0,0,0,0,0,0,0,0,0,0,0,0,0,0,0,0,0,0,0,0,0,0,0,0,0,0,0,0,0,0,0,0,0,0,0,0,0,0,0,0,0,0,0,0,0,0,0,0,0,0,0,0,0,0,0,0,0,0,0,0,0,0,0,0,0,0,0,0,0,0,0,0,0,0,0,0,0,0,0,0,0,0,0,0,0,0,0,0,0,0,0,0,0,0,0,0,0,0,0,2147486911,2147486767,2147486911,3215,3263,3215,3263,3115,0,0,0,0,0,0,0,0,0,0,0,0,0,0,0,0,0,0,0,0,0,0,0,0,0,0,0,0,0,0,0,0,0,0,0,0,0,0,0,0,0,0,0,0,0,0,0,0,0,0,0,0,0,0,0,0,0,0,0,0,0,0,0,0,0,0,0,0,0,0,0,0,0,0,0,0,0,0,0,0,0,0,0,0,0,0,0,0,0,0,0,0,0,0,0,0,0,0,0,0,0,0,0,0,0,0,0,0,0,0,0,0,0,0,0,0,0,0,0,0,0,0,0,0,0,0,0,0,0,0,0,0,0,0,0,0,0,0,0,0,0,0,0,0,0,0,0,0,0,0,0,0,0,0,0,0,0,0,0,0,0,0,0,0,0,0,0,0,0,0,0,0,0,0,0,0,0,0,0,0,0,0,0,0,0,0,0,0,0,0,0,0,0,0,0,0,0,0,0,0,0,0,0,0,0,0,0,0,0,0,0,0,0,0,0,0,0,0,0,0,0,0,0,0,0,0,0,0,0,0,0,0,0,0,0,0,0,0,0,0,0,0,0,0,0,0,0,0,0,0,0,0,0,0,0,0,0,0,0,0,0,0,0,0,0,0,0,0,0,0,0,0,0,0,0,0,0,0,0,0,0,0,0,0,0,0,0,0,0,0,0,0,0,0,0,0,0,0,0,0,0,0,0,0,0,0,0,0,0,0,0,0,0,0,0,0,0,0,0,0,0,0,0,0,0,0,0,0,0,0,0,0,0,0,0,0,0,0,0,0,0,0,0,0,0,0,0,0,0,0,0,0,0,0,0,0,0,0,0,0,0,0,0,0,0,0,0,0,0,0,0,0,0,0,0,0,0,0,0,0,0,0,0,0,0,0,0,0,0,0,0,0,0,0,0,0,0,0,0,0,0,0,0,0,0,0,0,0,0,0,0,0,0,0,0,0,0,0,0,0,0,0,0,0,0,0,0,0,0,0,0,0,0,0,0,0,0,0,0,0,0,0,0,0,0,0,0,0,0,0,0,0,0,0,0,0,0,0,0,0,0,0,0,0,0,0,0,0,0,0,0,0,0,0,0,0,0,0,0,0,0,0,0,0,0,0,0,0,0,0,0,0,0,0,0,0,0,0,0,0,0,0,0,0,0,0,0,0,0,0,0,0,0,0,0,0,0,0,0,0,0,0,0,0,0,0,0,0,0,0,0,0,0,0,0,0,0,0,0,0,0,0,0,0,0,0,0,0,0,0,0,0,0,0,0,0,0,0,0,0,0,0,0,0,0,0,0,0,0,0,0,0,0,0,0,0,0,0,0,0,0,0,0,0,0,0,0,0,0,0,0,0,0,0,0,0,0,0,0,0,0,0,0,0,0,0,0,0,0,0,0,0,0,0,0,0,0,0,0,0,0,0,0,0,0,0,0,0,0,0,0,0,0,0,0,0,0,0,0,0,0,0,0,0,0,0,0,0,0,0,0,0,0,0,0,0,0,0,0,0,0,0,0,0,0,0,0,0,0,0,0,0,0,0,0,0,0,0,0,0,0,0,0,0,0,0,0,0,0,0,0,0,0,0,0,0,0,0,0,0,0,0,0,0,0,0,0,0,0,0,0,0,0,0,0,0,0,0,0,0,0,0,0,0,0,0,0,0,0,0,0,0,0,0,0,0,0,0,0,0,0,0,0,0,0,0,0,0,0,0,0,0,0,0,0,0,0,0,0,0,0,0,0,0,0,0,0,0,0,0,0,0,0,0,0,0,0,0,0,0,0,0,0,0,0,0,0,0,0,0,0,0,0,0,0,0,0,0,0,0,0,0,0,0,0,0,0,0,0,0,0,0,0,0,0,0,0,0,0,0,0,0,0,0,0,0,0,0,0,0,0,0,0,0,0,0,0,0,0,0,0,0,0,0,0,0,0,0,0,0,0,0,0,0,0,0,0,0,0,0,0,0,0,0,0,0,0,0,0,0,0,0,0,0,0,0,0,0,0,0,0,0,0,0,0,0,0,0,0,0,0,0,0,0,0,0,0,0,0,0,0,0,0,0,0,0,0,0,0,0,0,0,0,0,0,0,0,0,0,0,0,0,0,0,0,0,0,0,0,0,0,0,0,0,0,0,0,0,0,0,0,0,0,0,0,0,0,0,0,0,0,0,0,0,0,0,0,0,0,0,0,0,0,0,0,0,0,0,0,0,0,0,0,0,0,0,0,0,0,0,0,0,0,0,0,0,0,0,0,0,0,0,0,0,0,0,0,0,0,0,0,0,0,0,0,0,0,0,0,0,0,0,0,0,0,0,0,0,0,0,0,0,0,0,0,0,0,0,0,0,0,0,0,0,0,0,0,0,0,0,0,0,0,0,0,0,0,0,0,0,0,0,0,0,0,0,0,0,0,0,0,0,0,0,0,0,0,0,0,0,0,0,0,0,0,0,0,0,0,0,0,0,0,0,0,0,0,0,0,0,0,0,0,0,0,0,0,0,0,0,0,0,0,0,0,0,0,0,0,0,0,0,0,0,0,0,0,0,0,0,0,0,0,0,0,0,0,0,0,0,0,0,0,0,0,0,0,0,0,0,0,0,0,0,0,0,0,0,0,0,0,0,0,0,0,0,0,0,0,0,0,0,0,0,0,0,0,0,0,0,0,0,0,0,0,0,0,0,0,0,0,0,0,0,0,0,0,0,0,0,0,0,0,0,0,0,0,0,0,0,0,0,0,0,0,0,0,0,0,0,0,0,0,0,0,0,0,0,0,0,0,0,0,0,0,0,0,0,0,0,0,0,0,0,0,0,0,0,0,0,0,0,0,0,0,0,0,0,0,0,0,0,0,0,0,0,0,0,0,0,0,0,0,0,0,0,0,0,0,0,0,0,0,0,0,0,0,0,0,0,0,0,0,0,0,0,0,0,0,0,0,0,0,0,0,0,0,0,0,0,0,0,0,0,0,0,0,0,0,0,0,0,0,0,0,0,0,0,0,0,0,0,0,0,0,0,0,0,0,0,0,0,0,0,0,0,0,0,0,0,0,0,0,0,0,0,0,0,0,0,0,0,0,0,0,0,0,0,0,0,0,0,0,0,0,0,0,0,0,0,0,0,0,0,0,0,0,0,0,0,0,0,0,0,0,0,0,0,0,0,0,0,0,0,0,0,0,0,0,0,0,0,0,0,0,0,0,0,0,0,0,0,0,0,0,0,0,0,0,0,0,0,0,0,0,0,0,0,0,0,0,0,0,0,0,0,0,0,0,0,0,0,0,0,0,0,0,0,0,0,0,0,0,0,0,0,0,0,0,0,0,0,0,0,0,0,0,0,0,0,0,0,0,0,0,0,0,0,0,0,0,0,0,0,0,0,0,0,0,0,0,0,0,0,0,0,0,0,0,0,0,0,0,0,0,0,0,0,0,0,0,0,0,0,0,0,0,0,0,0,0,0,0,0,0,0,0,0,0,0,0,0,0,0,0,0,0,0,0,0,0,0,0,0,0,0,0,0,0,0,0,0,0,0,0,0,0,0,0,0,0,0,0,0,0,0,0,0,0,0,0,0,0,0,0,0,0,0,0,0,0,0,0,0,0,0,0,0,0,0,0,0,0,0,0,0,0,0,0,0,0,0,0,0,0,0,0,0,0,0,0,0,0,0,0,0,0,0,0,0,0,0,0,0,0,0,0,0,0,0,0,0,0,0,0,0,0,0,0,0,0,0,0,0,0,0,0,0,0,0,0,0,0,0,0,0,0,0,0,0,0,0,0,0,0,0,0,0,0,0,0,0,0,0,0,0,0,0,0,0,0,0,0,0,0,0,0,0,0,0,0,0,0,0,0,0,0,0,0,0,0,0,0,0,0,0,0,0,0,0,0,0,0,0,0,0,0,0,0,0,0,0,0,0,0,0,0,0,0,0,0,0,0,0,0,0,0,0,0,0,0,0,0,0,0,0,0,0,0,0,0,0,0,0,0,0,0,0,0,0,0,0,0,0,0,0,0,0,0,0,0,0,0,0,0,0,0,0,0,0,0,0,0,0,0,0,0,0,0,0,0,0,0,0,0,0,0,0,0,0,0,0,0,0,0,0,0,0,0,0,0,0,0,0,0,0,0,0,0,0,0,0,0,0,0,0,0,0,0,0,0,0,0,0,0,0,0,0,0,0,0,0,0,0,0,0,0,0,0,0,0,0,0,0,0,0,0,0,0,0,0,0,0,0,0,0,0,0,0,0,0,0,0,0,0,0,0,0,0,0,0,0,0,0,0,0,0,0,0,0,0,0,0,0,0,0,0,0,0,0,0,0,0,0,0,0,0,0,0,0,0,0,0,0,0,0,0,0,0,0,0,0,0,0,0,0,0,0,0,0,0,0,0,0,0,0,0,0,0,0,0,0,0,0,0,0,0,0,0,0,0,0,0,0,0,0,0,0,0,0,0,0,0,0,0,0,0,0,0,0,0,0,0,0,0,0,0,0,0,0,0,0,0,0,0,0,0,0,0,0,0,0,0,0,0,0,0,0,0,0,0,0,0,0,0,0,0,0,0,0,0,0,0,0,0,0,0,0,0,0,0,0,0,0,0,0,0,0,0,0,0,0,0,0,0,0,0,0,0,0,0,0,0,0,0,0,0,0,0,0,0,0,0,0,0,0,0,0,0,0,0,0,0,0,0,0,0,0,0,0,0,0,0,0,0,0,0,0,0,0,0,0,0,0,0,0,0,0,0,0,0,0,0,0,0,0,0,0,0,0,0,0,0,0,0,0,0,0,0,0,0,0,0,0,0,0,0,0,0,0,0,0,0,0,0,0,0,0,0,0,0,0,0,0,0,0,0,0,0,0,0,0,0,0,0,0,0,0,0,0,0,0,0,0,0,0,0,0,0,0,0,0,0,0,0,0,0,0,0,0,0,0,0,0,0,0,0,0,0,0,0,0,0,0,0,0,0,0,0,0,0,0,0,0,0,0,0,0,0,0,0,0,0,0,0,0,0,0,0,0,0,0,0,0,0,0,0,0,0,0,0,0,0,0,0,0,0,0,0,0,0,0,0,0,0,0,0,0,0,0,0,0,0,0,0,0,0,0,0,0,0,0,0,0,0,0,0,0,0,0,0,0,0,0,0,0,0,0,0,0,0,0,0,0,0,0,0,0,0,0,0,0,0,0,0,0,0,0,0,0,0,0,0,0,0,0,0,0,0,0,0,0,0,0,0,0,0,0,0,0,0,0,0,0,0,0,0,0,0,0,0,0,0,0,0,0,0,0,0,0,0,0,0,0,0,0,0,0,0,0,0,0,0,0,0,0,0,0,0,0,0,0,0,0,0,0,0,0,0,0,0,0,0,0,0,0,0,0,0,0,0,0,0,0,0,0,0,0,0,0,0,0,0,0,0,0,0,0,0,0,0,0,0,0,0,0,0,0,0,0,0,0,0,0,0,0,0,0,0,0,0,0,0,0,0,0,0,0,0,0,0,0,0,0,0,0,0,0,0,0,0,0,0,0,0,0,0,0,0,0,0,0,0,0,0,0,0,0,0,0,0,0,0,0,0,0,0,0,0,0,0,0,0,0,0,0,0,0,0,0,0,0,0,0,0,0,0,0,0,0,0,0,0,0,0,0,0,0,0,0,0,0,0,0,0,0,0,0,0,0,0,0,0,0,0,0,0,0,0,0,0,0,0,0,0,0,0,0,0,0,0,0,0,0,0,0,0,0,0,0,0,0,0,0,0,0,0,0,0,0,0,0,0,0,0,0,0,0,0,0,0,0,0,0,0,0,0,0,0,0,0,0,0,0,0,0,0,0,0,0,0,0,0,0,0,0,0,0,0,0,0,0,0,0,0,0,0,0,0,0,0,0,0,0,0,0,0,0,0,0,0,0,0,0,0,0,0,0,0,0,0,0,0,0,0,0,0,0,0,0,0,0,0,0,0,0,0,0,0,0,0,0,0,0,0,0,0,0,0,0,0,0,0,0,0,0,0,0,0,0,0,0,0,0,0,0,0,0,0,0,0,0,0,0,0,0,0,0,0,0,0,0,0,0,0,0,0,0,0,0,0,0,0,0,0,0,0,0,0,0,0,0,0,0,0,0,0,0,0,0,0,0,0,0,0,0,0,0,0,0,0,0,0,0,0,0,0,0,0,0,0,0,0,0,0,0,0,0,0,0,0,0,0,0,0,0,0,0,0,0,0,0,0,0,0,0,0,0,0,0,0,0,0,0,0,0,0,0,0,0,0,0,0,0,0,0,0,0,0,0,0,0,0,0,0,0,0,0,0,0,0,0,0,0,0,0,0,0,0,0,0,0,0,0,0,0,0,0,0,0,0,0,0,0,0,0,0,0,0,0,0,0,0,0,0,0,0,0,0,0,0,0,0,0,0,0,0,0,0,0,0,0,0,0,0,0,0,0,0,0,0,0,0,0,0,0,0,0,0,0,0,0,0,0,0,0,0,0,0,0,0,0,0,0,0,0,0,0,0,0,0,0,0,0,0,0,0,0,0,0,0,0,0,0,0,0,0,0,0,0,0,0,0,0,0,0,0,0,0,0,0,0,0,0,0,0,0,0,0,0,0,0,0,0,0,0,0,0,0,0,0,0,0,0,0,0,0,0,0,0,0,0,0,0,0,0,0,0,0,0,0,0,0,0,0,0,0,0,0,0,0,0,0,0,0,0,0,0,0,0,0,0,0,0,0,0,0,0,0,0,0,0,0,0,0,0,0,0,0,0,0,0,0,0,0,0,0,0,0,0,0,0,0,0,0,0,0,0,0,0,0,0,0,0,0,0,0,0,0,0,0,0,0,0,0,0,0,0,0,0,0,0,0,0,0,0,0,0,0,0,0,0,0,0,0,0,0,0,0,0,0,0,0,0,0,0,0,0,0,0,0,0,0,0,0,0,0,0,0,0,0,0,0,0,0,0,0,0,0,0,0,0,0,0,0,0,0,0,0,0,0,0,0,0,0,0,0,0,0,0,0,0,0,0,0,0,0,0,0,0,0,0,0,0,0,0,0,0,0,0,0,0,0,0,0,0,0,0,0,0,0,0,0,0,0,0,0,0,0,0,0,0,0,0,0,0,0,0,0,0,0,0,0,0,0,0,0,0,0,0,0,0,0,0,0,0,0,0,0,0,0,0,0,0,0,0,0,0,0,0,0,0,0,0,0,0,0,0,0,0,0,0,0,0,0,0,0,0,0,0,0,0,0,0,0,0,0,0,0,0,0,0,0,0,0,0,0,0,0,0,0,0,0,0,0,0,0,0,0,0,0,0,0,0,0,0,0,0,0,0,0,0,0,0,0,0,0,0,0,0,0,0,0,0,0,0,0,0,0,0,0,0,0,0,0,0,0,0,0,0,0,0,0,0,0,0,0,0,0,0,0,0,0,0,0,0,0,0,0,0,0,0,0,0,0,0,0,0,0,0,0,0,0,0,0,0,0,0,0,0,0,0,0,0,0,0,0,0,0,0,0,0,0,0,0,0,0,0,0,0,0,0,0,0,0,0,0,0,0,0,0,0,0,0,0,0,0,0,0,0,0,0,0,0,0,0,0,0,0,0,0,0,0,0,0,0,0,0,0,0,0,0,0,0,0,0,0,0,0,0,0,0,0,0,0,0,0,0,0,0,0,0,0,0,0,0,0,0,0,0,0,0,0,0,0,0,0,0,0,0,0,0,0,0,0,0,0,0,0,0,0,0,0,0,0,0,0,0,0,0,0,0,0,0,0,0,0,0,0,0,0,0,0,0,0,0,0,0,0,0,0,0,0,0,0,0,0,0,0,0,0,0,0,0,0,0,0,0,0,0,0,0,0,0,0,0,0,0,0,0,0,0,0,0,0,0,0,0,0,0,0,0,0,0,0,0,0,0,0,0,0,0,0,0,0,0,0,0,0,0,0,0,0,0,0,0,0,0,0,0,0,0,0,0,0,0,0,0,0,0,0,0,0,0,0,0,0,0,0,0,0,0,0,0,0,0,0,0,0,0,0,0,0,0,0,0,0,0,0,0,0,0,0,0,0,0,0,0,0,0,0,0,0,0,0,0,0,0,0,0,0,0,0,0,0,0,0,0,0,0,0,0,0,0,0,0,0,0,0,0,0,0,0,0,0,0,0,0,0,0,0,0,0,0,0,0,0,0,0,0,0,0,0,0,0,0,0,0,0,0,0,0,0,0,0,0,0,0,0,0,0,0,0,0,0,0,0,0,0,0,0,0,0,0,0,0,0,0,0,0,0,0,0,0,0,0,0,0,0,0,0,0,0,0,0,0,0,0,0,0,0,0,0,0,0,0,0,0,0,0,0,0,0,0,0,0,0,0,0,0,0,0,0,0,0,0,0,0,0,0,0,0,0,0,0,0,0,0,0,0,0,0,0,0,0,0,0,0,0,0,0,0,0,0,0,0,0,0,0,0,0,0,0,0,0,0,0,0,0,0,0,0,0,0,0,0,0,0,0,0,0,0,0,0,0,0,0,0,0,0,0,0,0,0,0,0,0,0,0,0,0,0,0,0,0,0,0,0,0,0,0,0,0,0,0,0,0,0,0,0,0,0,0,0,0,0,0,0,0,0,0,0,0,0,0,0,0,0,0,0,0,0,0,0,0,0,0,0,0,0,0,0,0,0,0,0,0,0,0,0,0,0,0,0,0,0,0,0,0,0,0,0,0,0,0,0,0,0,0,0,0,0,0,0,0,0,0,0,0,0,0,0,0,0,0,0,0,0,0,0,0,0,0,0,0,0,0,0,0,0,0,0,0,0,0,0,0,0,0,0,0,0,0,0,0,0,0,0,0,0,0,0,0,0,0,0,0,0,0,0,0,0,0,0,0,0,0,0,0,0,0,0,0,0,0,0,0,0,0,0,0,0,0,0,0,0,0,0,0,0,0,0,0,0,0,0,0,0,0,0,0,0,0,0,0,0,0,0,0,0,0,0,0,0,0,0,0,0,0,0,0,0,0,0,0,0,0,0,0,0,0,0,0,0,0,0,0,0,0,0,0,0,0,0,0,0,0,0,0,0,0,0,0,0,0,0,0,0,0,0,0,0,0,0,0,0,0,0,0,0,0,0,0,0,0,0,0,0,0,0,0,0,0,0,0,0,0,0,0,0,0,0,0,0,0,0,0,0,0,0,0,0,0,0,0,0,0,0,0,0,0,0,0,0,0,0,0,0,0,0,0,0,0,0,0,0,0,0,0,0,0,0,0,0,0,0,0,0,0,0,0,0,0,0,0,0,0,0,0,0,0,0,0,0,0,0,0,0,0,0,0,0,0,0,0,0,0,0,0,0,0,0,0,0,0,0,0,0,0,0,0,0,0,0,0,0,0,0,0,0,0,0,0,0,0,0,0,0,0,0,0,0,0,0,0,0,0,0,0,0,0,0,0,0,0,0,0,0,0,0,0,0,0,0,0,0,0,0,0,0,0,0,0,0,0,0,0,0,0,0,0,0,0,0,0,0,0,0,0,0,0,0,0,0,0,0,0,0,0,0,0,0,0,0,0,0,0,0,0,0,0,0,0,0,0,0,0,0,0,0,0,0,0,0,0,0,0,0,0,0,0,0,0,0,0,0,0,0,0,0,0,0,0,0,0,0,0,0,0,0,0,0,0,0,0,0,0,0,0,0,0,0,0,0,0,0,0,0,0,0,0,0,0,0,0,0,0,0,0,0,0,0,0,0,0,0,0,0,0,0,0,0,0,0,0,0,0,0,0,0,0,0,0,0,0,0,0,0,0,0,0,0,0,0,0,0,0,0,0,0,0,0,0,0,0,0,0,0,0,0,0,0,0,0,0,0,0,0,0,0,0,0,0,0,0,0,0,0,0,0,0,0,0,0,0,0,0,0,0,0,0,0,0,0,0,0,0,0,0,0,0,0,0,0,0,0,0,0,0,0,0,0,0,0,0,0,0,0,0,0,0,0,0,0,0,0,0,0,0,0,0,0,0,0,0,0,0,0,0,0,0,0,0,0,0,0,0,0,0,0,0,0,0,0,0,0,0,0,0,0,0,0,0,0,0,0,0,0,0,0,0,0,0,0,0,0,0,0,0,0,0,0,0,0,0,0,0,0,0,0,0,0,0,0,0,0,0,0,0,0,0,0,0,0,0,0,0,0,0,0,0,0,0,0,0,0,0,0,0,0,0,0,0,0,0,0,0,0,0,0,0,0,0,0,0,0,0,0,0,0,0,0,0,0,0,0,0,0,0,0,0,0,0,0,0,0,0,0,0,0,0,0,0,0,0,0,0,0,0,0,0,0,0,0,0,0,0,0,0,0,0,0,0,0,0,0,0,0,0,0,0,0,0,0,0,0,0,0,0,0,0,0,0,0,0,0,0,0,0,0,0,0,0,0,0,0,0,0,0,0,0,0,0,0,0,0,0,0,0,0,0,0,0,0,0,0,0,0,0,0,0,0,0,0,0,0,0,0,0,0,0,0,0,0,0,0,0,0,0,0,0,0,0,0,0,0,0,0,0,0,0,0,0,0,0,0,0,0,0,0,0,0,0,0,0,0,0,0,0,0,0,0,0,0,0,0,0,0,0,0,0,0,0,0,0,0,0,0,0,0,0,0,0,0,0,0,0,0,0,0,0,0,0,0,0,0,0,0,0,0,0,0,0,0,0,0,0,0,0,0,0,0,0,0,0,0,0,0,0,0,0,0,0,0,0,0,0,0,0,0,0,0,0,0,0,0,0,0,0,0,0,0,0,0,0,0,0,0,0,0,0,0,0,0,0,0,0,0,0,0,0,0,0,0,0,0,0,0,0,0,0,0,0,0,0,0,0,0,0,0,0,0,0,0,0,0,0,0,0,0,0,0,0,0,0,0,0,0,0,0,0,0,0,0,0,0,0,0,0,0,0,0,0,0,0,0,0,0,0,0,0,0,0,0,0,0,0,0,0,0,0,0,0,0,0,0,0,0,0,0,0,0,0,0,0,0,0,0,0,0,0,0,0,0,0,0,0,0,0,0,0,0,0,0,0,0,0,0,0,0,0,0,0,0,0,0,0,0,0,0,0,0,0,0,0,0,0,0,0,0,0,0,0,0,0,0,0,0,0,0,0,0,0,0,0,0,0,0,0,0,0,0,0,0,0,0,0,0,0,0,0,0,0,0,0,0,0,0,0,0,0,0,0,0,0,0,0,0,0,0,0,0,0,0,0,0,0,0,0,0,0,0,0,0,0,0,0,0,0,0,0,0,0,0,0,0,0,0,0,0,0,0,0,0,0,0,0,0,0,0,0,0,0,0,0,0,0,0,0,0,0,0,0,0,0,0,0,0,0,0,0,0,0,0,0,0,0,0,0,0,0,0,0,0,0,0,0,0,0,0,0,0,0,0,0,0,0,0,3104,3106,2147486863,3119,3263,2147486863,3215,3118,3104,0,0,0,0,0,0,0,0,0,0,0,0,0,0,0,0,0,0,0,0,0,0,0,0,0,0,0,0,0,0,0,0,0,0,0,0,0,0,0,0,0,0,0,0,0,0,0,0,0,0,0,0,0,0,0,0,0,0,0,0,0,0,0,0,0,0,0,0,0,0,0,0,0,0,0,0,0,0,0,0,0,0,0,0,0,0,0,0,0,0,0,0,0,0,0,0,0,0,0,0,0,0,0,0,0,0,0,0,0,0,0,0,0,0,0,0,0,0,0,0,0,0,0,0,0,0,0,0,0,0,0,0,0,3083,3106,2147486815,2147486767,2147486911,3263,2147486911,3263,2147486863,2147486815,3167,2147486767,3167,3167,3118,3099,0,0,0,0,0,0,0,0,0,0,0,0,0,0,0,0,0,0,0,0,0,0,0,0,0,0,0,0,0,0,0,0,0,0,0,0,0,0,0,0,0,0,0,0,0,0,0,0,0,0,0,0,0,0,0,0,0,0,0,0,0,0,0,0,0,0,0,0,0,0,0,0,0,0,0,0,0,0,0,0,0,0,0,0,0,0,0,0,0,0,0,0,0,0,0,0,0,0,0,0,0,0,0,0,0,0,0,0,0,0,0,0,0,0,0,0,0,0,0,0,0,0,0,0,0,0,0,0,3077,3114,3167,3215,3263,2147486767,3119,3215,3119,3119,3119,2147486815,2147486863,2147486767,3263,3118,3099,0,0,0,0,0,0,0,0,0,0,0,0,0,0,0,0,0,0,0,0,0,0,0,0,0,0,0,0,0,0,0,0,0,0,0,0,0,0,0,0,0,0,0,0,0,0,0,0,0,0,0,0,0,0,0,0,0,0,0,0,0,0,0,0,0,0,0,0,0,0,0,0,0,0,0,0,0,0,0,0,0,0,0,0,0,0,0,0,0,0,0,0,0,0,0,0,0,0,0,0,0,0,0,0,0,0,0,0,0,0,0,0,0,0,0,0,0,0,0,0,0,0,0,0,0,0,0,0,3085,3167,3167,3263,3215,3167,3119,2147486815,3263,2147486815,2147486767,2147486911,2147486911,2147486911,2147486767,3118,3099,0,0,0,0,0,0,0,0,0,0,0,0,0,0,0,0,0,0,0,0,0,0,0,0,0,0,0,0,0,0,0,0,0,0,0,0,0,0,0,0,0,0,0,0,0,0,0,0,0,0,0,0,0,0,0,0,0,0,0,0,0,0,0,0,0,0,0,0,0,0,0,0,0,0,0,0,0,0,0,0,0,0,0,0,0,0,0,0,0,0,0,0,0,0,0,0,0,0,0,0,0,0,0,0,0,0,0,0,0,0,0,0,0,0,0,0,0,0,0,0,0,0,0,0,0,0,0,0,0,0,2147486863,2147486767,3117,3109,3109,3114,3215,2147486767,2147486815,3263,2147486767,2147486863,3263,3118,3099,0,0,0,0,0,0,0,0,0,0,0,0,0,0,0,0,0,0,0,0,0,0,0,0,0,0,0,0,0,0,0,0,0,0,0,0,0,0,0,0,0,0,0,0,0,0,0,0,0,0,0,0,0,0,0,0,0,0,0,0,0,0,0,0,0,0,0,0,0,0,0,0,0,0,0,0,0,0,0,0,0,0,0,0,0,0,0,0,0,0,0,0,0,0,0,0,0,0,0,0,0,0,0,0,0,0,0,0,0,0,0,0,0,0,0,0,0,0,0,0,0,0,0,0,0,0,0,0,0,0,0,0,0,0,3077,3114,3119,2147486767,2147486911,2147486815,3119,2147486863,2147486767,0,0,0,0,0,0,0,0,0,0,0,0,0,0,0,0,0,0,0,0,0,0,0,0,0,0,0,0,0,0,0,0,0,0,0,0,0,0,0,0,0,0,0,0,0,0,0,0,0,0,0,0,0,0,0,0,0,0,0,0,0,0,0,0,0,0,0,0,0,0,0,0,0,0,0,0,0,0,0,0,0,0,0,0,0,0,0,0,0,0,0,0,0,0,0,0,0,0,0,0,0,0,0,0,0,0,0,0,0,0,0,0,0,0,0,0,0,0,0,0,0,0,0,0,0,0,0,0,0,0,0,0,0,0,0,0,3085,3167,2147486911,3119,0,0,0,0,0,0,0,0,0,0,0,0,0,0,0,0,0,0,0,0,0,0,0,0,0,0,0,0,0,0,0,0,0,0,0,0,0,0,0,0,0,0,0,0,0,0,0,0,0,0,0,0,0,0,0,0,0,0,0,0,0,0,0,0,0,0,0,0,0,0,0,0,0,0,0,0,0,0,0,0,0,0,0,0,0,0,0,0,0,0,0,0,0,0,0,0,0,0,0,0,0,0,0,0,0,0,0,0,0,0,0,0,0,0,0,0,0,0,0,0,0,0,0,0,0,0,0,0,0,0,0,0,0,0,0,0,0,0,0,0,0,0,0,0,0,0,0,0,0,0,0,0,0,0,0,0,0,0,0,0,0,0,0,0,0,0,0,0,0,0,0,0,0,0,0,0,0,0,0,0,0,0,0,0,0,0,0,0,0,0,0,0,0,0,0,0,0,0,0,0,0,0,0,0,0,0,0,0,0,0,0,0,0,0,0,0,0,0,0,0,0,0,0,0,0,0,0,0,0,0,0,0,0,0,0,0,0,0,0,0,0,0,0,0,0,0,0,0,0,0,0,0,0,0,0,0,0,0,0,0,0,0,0,0,0,0,0,0,0,0,0,0,0,0,0,0,0,0,0,0,0,0,0,0,0,0,0,0,0,0,0,0,0,0,0,0,0,0,0,0,0,0,0,0,0,0,0,0,0,0,0,0,0,0,0,0,0,0,0,0,0,0,0,0,0,0,0,0,0,0,0,0,0,0,0,0,0,0,0,0,0,0,0,0,0,0,0,0,0,0,0,0,0,0,0,0,0,0,0,0,0,0,0,0,0,0,0,0,0,0,0,0,0,0,0,0,0,0,0,0,0,0,0,0,0,0,0,0,0,0,0,0,0,0,0,0,0,0,0,0,0,0,0,0,0,0,0,0,0,0,0,0,0,0,0,0,0,0,0,0,0,0,0,0,0,0,0,0,0,0,0,0,0,0,0,0,0,0,0,0,0,0,0,0,0,0,0,0,0,0,0,0,0,0,0,0,0,0,0,0,0,0,0,0,0,0,0,0,0,0,0,0,0,0,0,0,0,0,0,0,0,0,0,0,0,0,0,0,0,0,0,0,0,0,0,0,0,0,0,0,0,0,0,0,0,0,0,0,0,0,0,0,0,0,0,0,0,0,0,0,0,0,0,0,0,0,0,0,0,0,0,0,0,0,0,0,0,0,0,0,0,0,0,0,0,0,0,0,0,0,0,0,0,0,0,0,0,0,0,0,0,0,0,0,0,0,0,0,0,0,0,0,0,0,0,0,0,0,0,0,0,0,0,0,0,0,0,0,0,0,0,0,0,0,0,0,0,0,0,0,0,0,0,0,0,0,0,0,0,0,0,0,0,0,0,0,0,0,0,0,0,0,0,0,0,0,0,0,0,0,0,0,0,0,0,0,0,0,0,0,0,0,0,0,0,0,0,0,0,0,0,0,0,0,0,0,0,0,0,0,0,0,0,0,0,0,0,0,0,0,0,0,0,0,0,0,0,0,0,0,0,0,0,0,0,0,0,0,0,0,0,0,0,0,0,0,0,0,0,0,0,0,0,0,0,0,0,0,0,0,0,0,0,0,0,0,0,0,0,0,0,0,0,0,0,0,0,0,0,0,0,0,0,0,0,0,0,0,0,0,0,0,0,0,0,0,0,0,0,0,0,0,0,0,0,0,0,0,0,0,0,0,0,0,0,0,0,0,0,0,0,0,0,0,0,0,0,0,0,0,0,0,0,0,0,0,0,0,0,0,0,0,0,0,0,0,0,0,0,0,0,0,0,0,0,0,0,0,0,0,0,0,0,0,0,0,0,0,0,0,0,0,0,0,0,0,0,0,0,0,0,0,0,0,0,0,0,0,0,0,0,0,0,0,0,0,0,0,0,0,0,0,0,0,0,0,0,0,0,0,0,0,0,0,0,0,0,0,0,0,0,0,0,0,0,0,0,0,0,0,0,0,0,0,0,0,0,0,0,0,0,0,0,0,0,0,0,0,0,0,0,0,0,0,0,0,0,0,0,0,0,0,0,0,0,0,0,0,0,0,0,0,0,0,0,0,0,0,0,0,0,0,0,0,0,0,0,0,0,0,0,0,0,0,0,0,0,0,0,0,0,0,0,0,0,0,0,0,0,0,0,0,0,0,0,0,0,0,0,0,0,0,0,0,0,0,0,0,0,0,0,0,0,0,0,0,0,0,0,0,0,0,0,0,0,0,0,0,0,0,0,0,0,0,0,0,0,0,0,0,0,0,0,0,0,0,0,0,0,0,0,0,0,0,0,0,0,0,0,0,0,0,0,0,0,0,0,0,0,0,0,0,0,0,0,0,0,0,0,0,0,0,0,0,0,0,0,0,0,0,0,0,0,0,0,0,0,0,0,0,0,0,0,0,0,0,0,0,0,0,0,0,0,0,0,0,0,0,0,0,0,0,0,0,0,0,0,0,0,0,0,0,0,0,0,0,0,0,0,0,0,0,0,0,0,0,0,0,0,0,0,0,0,0,0,0,0,0,0,0,0,0,0,0,0,0,0,0,0,0,0,0,0,0,0,0,0,0,0,0,0,0,0,0,0,0,0,0,0,0,0,0,0,0,0,0,0,0,0,0,0,0,0,0,0,0,0,0,0,0,0,0,0,0,0,0,0,0,0,0,0,0,0,0,0,0,0,0,0,0,0,0,0,0,0,0,0,0,0,0,0,0,0,0,0,0,0,0,0,0,0,0,0,0,0,0,0,0,0,0,0,0,0,0,0,0,0,0,0,0,0,0,0,0,0,0,0,0,0,0,0,0,0,0,0,0,0,0,0,0,0,0,0,0,0,0,0,0,0,0,0,0,0,0,0,0,0,0,0,0,0,0,0,0,0,0,0,0,0,0,0,0,0,0,0,0,0,0,0,0,0,0,0,0,0,0,0,0,0,0,0,0,0,0,0,0,0,0,0,0,0,0,0,0,0,0,0,0,0,0,0,0,0,0,0,0,0,0,0,0,0,0,0,0,0,0,0,0,0,0,0,0,0,0,0,0,0,0,0,0,0,0,0,0,0,0,0,0,0,0,0,0,0,0,0,0,0,0,0,0,0,0,0,0,0,0,0,0,0,0,0,0,0,0,0,0,0,0,0,0,0,0,0,0,0,0,0,0,0,0,0,0,0,0,0,0,0,0,0,0,0,0,0,0,0,0,0,0,0,0,0,0,0,0,0,0,0,0,0,0,0,0,0,0,0,0,0,0,0,0,0,0,0,0,0,0,0,0,0,0,0,0,0,0,0,0,0,0,0,0,0,0,0,0,0,0,0,0,0,0,0,0,0,0,0,0,0,0,0,0,0,0,0,0,0,0,0,0,0,0,0,0,0,0,0,0,0,0,0,0,0,0,0,0,0,0,0,0,0,0,0,0,0,0,0,0,0,0,0,0,0,0,0,0,0,0,0,0,0,0,0,0,0,0,0,0,0,0,0,0,0,0,0,0,0,0,0,0,0,0,0,0,0,0,0,0,0,0,0,0,0,0,0,0,0,0,0,0,0,0,0,0,0,0,0,0,0,0,0,0,0,0,0,0,0,0,0,0,0,0,0,0,0,0,0,0,0,0,0,0,0,0,0,0,0,0,0,0,0,0,0,0,0,0,0,0,0,0,0,0,0,0,0,0,0,0,0,0,0,0,0,0,0,0,0,0,0,0,0,0,0,0,0,0,0,0,0,0,0,0,0,0,0,0,0,0,0,0,0,0,0,0,0,0,0,0,0,0,0,0,0,0,0,0,0,0,0,0,0,0,0,0,0,0,0,0,0,0,0,0,0,0,0,0,0,0,0,0,0,0,0,0,0,0,0,0,0,0,0,0,0,0,0,0,0,0,0,0,0,0,0,0,0,0,0,0,0,0,0,0,0,0,0,0,0,0,0,0,0,0,0,0,0,0,0,0,0,0,0,0,0,0,0,0,0,0,0,0,0,0,0,0,0,0,0,0,0,0,0,0,0,0,0,0,0,0,0,0,0,0,0,0,0,0,0,0,0,0,0,0,0,0,0,0,0,0,0,0,0,0,0,0,0,0,0,0,3104,3106,3263,2147486815,2147486911,2147486863,2147486767,2147486863,0,0,0,0,0,0,0,0,0,0,0,0,0,0,0,0,0,0,0,0,0,0,0,0,0,0,0,0,0,0,0,0,0,0,0,0,0,0,0,0,0,0,0,0,0,0,0,0,0,0,0,0,0,0,0,0,0,0,0,0,0,0,0,0,0,0,0,0,0,0,0,0,0,0,0,0,0,0,0,0,0,0,0,0,0,0,0,0,0,0,0,0,0,0,0,0,0,0,0,0,0,0,0,0,0,0,0,0,0,0,0,0,0,0,0,0,0,0,0,0,0,0,0,0,0,0,0,0,0,0,0,0,0,3106,2147486815,3167,2147486815,2147486911,2147486767,3167,3119,2147486815,2147486863,3167,2147486863,2147486911,2147486767,0,0,0,0,0,0,0,0,0,0,0,0,0,0,0,0,0,0,0,0,0,0,0,0,0,0,0,0,0,0,0,0,0,0,0,0,0,0,0,0,0,0,0,0,0,0,0,0,0,0,0,0,0,0,0,0,0,0,0,0,0,0,0,0,0,0,0,0,0,0,0,0,0,0,0,0,0,0,0,0,0,0,0,0,0,0,0,0,0,0,0,0,0,0,0,0,0,0,0,0,0,0,0,0,0,0,0,0,0,0,0,0,0,0,0,0,0,0,0,0,0,0,0,0,0,0,0,0,0,3085,2147486911,2147486767,3119,2147486863,2147486863,3167,2147486911,2147486815,2147486767,2147486911,3263,2147486815,3119,2147486863,3117,0,0,0,0,0,0,0,0,0,0,0,0,0,0,0,0,0,0,0,0,0,0,0,0,0,0,0,0,0,0,0,0,0,0,0,0,0,0,0,0,0,0,0,0,0,0,0,0,0,0,0,0,0,0,0,0,0,0,0,0,0,0,0,0,0,0,0,0,0,0,0,0,0,0,0,0,0,0,0,0,0,0,0,0,0,0,0,0,0,0,0,0,0,0,0,0,0,0,0,0,0,0,0,0,0,0,0,0,0,0,0,0,0,0,0,0,0,0,0,0,0,0,0,0,0,0,0,0,3085,3119,3119,2147486911,3119,2147486863,3215,3167,2147486911,3215,2147486863,2147486815,2147486911,3119,3117,3107,0,0,0,0,0,0,0,0,0,0,0,0,0,0,0,0,0,0,0,0,0,0,0,0,0,0,0,0,0,0,0,0,0,0,0,0,0,0,0,0,0,0,0,0,0,0,0,0,0,0,0,0,0,0,0,0,0,0,0,0,0,0,0,0,0,0,0,0,0,0,0,0,0,0,0,0,0,0,0,0,0,0,0,0,0,0,0,0,0,0,0,0,0,0,0,0,0,0,0,0,0,0,0,0,0,0,0,0,0,0,0,0,0,0,0,0,0,0,0,0,0,0,0,0,0,0,0,0,0,3167,2147486863,2147486767,2147486815,2147486767,2147486767,2147486911,3263,3215,2147486767,3117,3109,3109,3107,0,0,0,0,0,0,0,0,0,0,0,0,0,0,0,0,0,0,0,0,0,0,0,0,0,0,0,0,0,0,0,0,0,0,0,0,0,0,0,0,0,0,0,0,0,0,0,0,0,0,0,0,0,0,0,0,0,0,0,0,0,0,0,0,0,0,0,0,0,0,0,0,0,0,0,0,0,0,0,0,0,0,0,0,0,0,0,0,0,0,0,0,0,0,0,0,0,0,0,0,0,0,0,0,0,0,0,0,0,0,0,0,0,0,0,0,0,0,0,0,0,0,0,0,0,0,0,0,0,0,0,0,0,3119,3215,3215,3263,2147486863,2147486815,3117,3107,0,0,0,0,0,0,0,0,0,0,0,0,0,0,0,0,0,0,0,0,0,0,0,0,0,0,0,0,0,0,0,0,0,0,0,0,0,0,0,0,0,0,0,0,0,0,0,0,0,0,0,0,0,0,0,0,0,0,0,0,0,0,0,0,0,0,0,0,0,0,0,0,0,0,0,0,0,0,0,0,0,0,0,0,0,0,0,0,0,0,0,0,0,0,0,0,0,0,0,0,0,0,0,0,0,0,0,0,0,0,0,0,0,0,0,0,0,0,0,0,0,0,0,0,0,0,0,0,0,0,0,0,0,0,0,0,0,0,0,0,0,0,0,0,0,0,0,0,0,0,0,0,0,0,0,0,0,0,0,0,0,0,0,0,0,0,0,0,0,0,0,0,0,0,0,0,0,0,0,0,0,0,0,0,0,0,0,0,0,0,0,0,0,0,0,0,0,0,0,0,0,0,0,0,0,0,0,0,0,0,0,0,0,0,0,0,0,0,0,0,0,0,0,0,0,0,0,0,0,0,0,0,0,0,0,0,0,0,0,0,0,0,0,0,0,0,0,0,0,0,0,0,0,0,0,0,0,0,0,0,0,0,0,0,0,0,0,0,0,0,0,0,0,0,0,0,0,0,0,0,0,0,0,0,0,0,0,0,0,0,0,0,0,0,0,0,0,0,0,0,0,0,0,0,0,0,0,0,0,0,0,0,0,0,0,0,0,0,0,0,0,0,0,0,0,0,0,0,0,0,0,0,0,0,0,0,0,0,0,0,0,0,0,0,0,0,0,0,0,0,0,0,0,0,0,0,0,0,0,0,0,0,0,0,0,0,0,0,0,0,0,0,0,0,0,0,0,0,0,0,0,0,0,0,0,0,0,0,0,0,0,0,0,0,0,0,0,0,0,0,0,0,0,0,0,0,0,0,0,0,0,0,0,0,0,0,0,0,0,0,0,0,0,0,0,0,0,0,0,0,0,0,0,0,0,0,0,0,0,0,0,0,0,0,0,0,0,0,0,0,0,0,0,0,0,0,0,0,0,0,0,0,0,0,0,0,0,0,0,0,0,0,0,0,0,0,0,0,0,0,0,0,0,0,0,0,0,0,0,0,0,0,0,0,0,0,0,0,0,0,0,0,0,0,0,0,0,0,0,0,0,0,0,0,0,0,0,0,0,0,0,0,0,0,0,0,0,0,0,0,0,0,0,0,0,0,0,0,0,0,0,0,0,0,0,0,0,0,0,0,0,0,0,0,0,0,0,0,0,0,0,0,0,0,0,0,0,0,0,0,0,0,0,0,0,0,0,0,0,0,0,0,0,0,0,0,0,0,0,0,0,0,0,0,0,0,0,0,0,0,0,0,0,0,0,0,0,0,0,0,0,0,0,0,0,0,0,0,0,0,0,0,0,0,0,0,0,0,0,0,0,0,0,0,0,0,0,0,0,0,0,0,0,0,0,0,0,0,0,0,0,0,0,0,0,0,0,0,0,0,0,0,0,0,0,0,0,0,0,0,0,0,0,0,0,0,0,0,0,0,0,0,0,0,0,0,0,0,0,0,0,0,0,0,0,0,0,0,0,0,0,0,0,0,0,0,0,0,0,0,0,0,0,0,0,0,0,0,0,0,0,0,0,0,0,0,0,0,0,0,0,0,0,0,0,0,0,0,0,0,0,0,0,0,0,0,0,0,0,0,0,0,0,0,0,0,0,0,0,0,0,0,0,0,0,0,0,0,0,0,0,0,0,0,0,0,0,0,0,0,0,0,0,0,0,0,0,0,0,0,0,0,0,0,0,0,0,0,0,0,0,0,0,0,0,0,0,0,0,0,0,0,0,0,0,0,0,0,0,0,0,0,0,0,0,0,0,0,0,0,0,0,0,0,0,0,0,0,0,0,0,0,0,0,0,0,0,0,0,0,0,0,0,0,0,0,0,0,0,0,0,0,0,0,0,0,0,0,0,0,0,0,0,0,0,0,0,0,0,0,0,0,0,0,0,0,0,0,0,0,0,0,0,0,0,0,0,0,0,0,0,0,0,0,0,0,0,0,0,0,0,0,0,0,0,0,0,0,0,0,0,0,0,0,0,0,0,0,0,0,0,0,0,0,0,0,0,0,0,0,0,0,0,0,0,0,0,0,0,0,0,0,0,0,0,0,0,0,0,0,0,0,0,0,0,0,0,0,0,0,0,0,0,0,0,0,0,0,0,0,0,0,0,0,0,0,0,0,0,0,0,0,0,0,0,0,0,0,0,0,0,0,0,0,0,0,0,0,0,0,0,0,0,0,0,0,0,0,0,0,0,0,0,0,0,0,0,0,0,0,0,0,0,0,0,0,0,0,0,0,0,0,0,0,0,0,0,0,0,0,0,0,0,0,0,0,0,0,0,0,0,0,0,0,0,0,0,0,0,0,0,0,0,0,0,0,0,0,0,0,0,0,0,0,0,0,0,0,0,0,0,0,0,0,0,0,0,0,0,0,0,0,0,0,0,0,0,0,0,0,0,0,0,0,0,0,0,0,0,0,0,0,0,0,0,0,0,0,0,0,0,0,0,0,0,0,0,0,0,0,0,0,0,0,0,0,0,0,0,0,0,0,0,0,0,0,0,0,0,0,0,0,0,0,0,0,0,0,0,0,0,0,0,0,0,0,0,0,0,0,0,0,0,0,0,0,0,0,0,0,0,0,0,0,0,0,0,0,0,0,0,0,0,0,0,0,0,0,0,0,0,0,0,0,0,0,0,0,0,0,0,0,0,0,0,0,0,0,0,0,0,0,0,0,0,0,0,0,0,0,0,0,0,0,0,0,0,0,0,0,0,0,0,0,0,0,0,0,0,0,0,0,0,0,0,0,0,0,0,0,0,0,0,0,0,0,0,0,0,0,0,0,0,0,0,0,0,0,0,0,0,0,0,0,0,0,0,0,0,0,0,0,0,0,0,0,0,0,0,0,0,0,0,0,0,0,0,0,0,0,0,0,0,0,0,0,0,0,0,0,0,0,0,0,0,0,0,0,0,0,0,0,0,0,0,0,0,0,0,0,0,0,0,0,0,0,0,0,0,0,0,0,0,0,0,0,0,0,0,0,0,0,0,0,0,0,0,0,0,0,0,0,0,0,0,0,0,0,0,0,0,0,0,0,0,0,0,0,0,0,0,0,0,0,0,0,0,0,0,0,0,0,0,0,0,0,0,0,0,0,0,0,0,0,0,0,0,0,0,0,0,0,0,0,0,0,0,0,0,0,0,0,0,0,0,0,0,0,0,0,0,0,0,0,0,0,0,0,0,0,0,0,0,0,0,0,0,0,0,0,0,0,0,0,0,0,0,0,0,0,0,0,0,0,0,0,0,0,0,0,0,0,0,0,0,0,0,0,0,0,0,0,0,0,0,0,0,0,0,0,0,0,0,0,0,0,0,0,0,0,0,0,0,0,0,0,0,0,0,0,0,0,0,0,0,0,0,0,0,0,0,0,0,0,0,0,0,0,0,0,0,0,0,0,0,0,0,0,0,0,0,0,0,0,0,0,0,0,0,0,0,0,0,0,0,0,0,0,0,0,0,0,0,0,0,0,0,0,0,0,0,0,0,0,0,0,0,0,0,0,0,0,0,0,0,0,0,0,0,0,0,0,0,0,0,0,0,0,0,0,0,0,0,0,0,0,0,0,0,0,0,0,0,0,0,0,0,0,0,0,0,0,0,0,0,0,0,0,0,0,0,0,0,0,0,0,0,0,0,0,0,0,0,0,0,0,0,0,0,0,0,0,0,0,0,0,0,0,0,0,0,0,0,0,0,0,0,0,0,0,0,0,0,0,0,0,0,0,0,0,0,0,0,0,0,0,0,0,0,0,0,0,0,0,0,0,0,0,0,0,0,0,0,0,0,0,0,0,0,0,0,0,0,0,0,0,0,0,0,0,0,0,0,0,0,0,0,0,0,0,0,0,0,0,0,0,0,0,0,0,0,0,0,0,0,0,0,0,0,0,0,0,0,0,0,0,0,0,0,0,0,0,0,0,0,0,0,0,0,0,0,0,0,0,0,0,0,0,0,0,0,0,0,0,0,0,0,0,0,0,0,0,0,0,0,0,0,0,0,0,0,0,0,0,0,0,0,0,0,0,0,0,0,0,0,0,0,0,0,0,0,0,0,0,0,0,0,0,0,0,0,0,0,0,0,0,0,0,0,0,0,0,0,0,0,0,0,0,0,0,0,0,0,0,0,0,0,0,0,0,0,0,0,0,0,0,0,0,0,0,0,0,0,0,0,0,0,0,0,0,0,0,0,0,0,0,0,0,0,0,0,0,0,0,0,0,0,0,0,0,0,0,0,0,0,0,0,0,0,0,0,0,0,0,0,0,0,0,0,0,0,0,0,0,0,0,0,0,0,0,0,0,0,0,0,0,0,0,0,0,0,0,0,0,0,0,0,0,0,0,0,0,0,0,0,0,0,0,0,0,0,0,0,0,0,0,0,0,0,0,0,0,0,0,0,0,0,0,0,0,0,0,0,0,0,0,0,0,0,0,0,0,0,0,0,0,0,0,0,0,0,0,0,0,0,0,0,0,0,0,0,0,0,0,0,0,0,0,0,0,0,0,0,0,0,0,0,0,0,0,0,0,0,0,0,0,0,0,0,0,0,0,0,0,0,0,0,0,0,0,0,0,0,0,0,0,0,0,0,0,0,0,0,0,0,0,0,0,0,0,0,0,0,0,0,0,0,0,0,0,0,0,0,0,0,0,0,0,0,0,0,0,0,0,0,0,0,0,0,0,0,0,0,0,0,0,0,0,0,0,0,0,0,0,0,0,0,0,0,0,0,0,0,0,0,0,0,0,0,0,0,0,0,0,0,0,0,0,0,0,0,0,0,0,0,0,0,0,0,0,0,0,0,0,0,0,0,0,0,0,0,0,0,0,0,0,0,0,0,0,0,0,0,0,0,0,0,0,0,0,0,0,0,0,0,0,0,0,0,0,0,0,0,0,0,0,0,0,0,0,0,0,0,0,0,0,0,0,0,0,0,0,0,0,0,0,0,0,0,0,0,0,0,0,0,0,0,0,0,0,0,0,0,0,0,0,0,0,0,0,0,0,0,0,0,0,0,0,0,0,0,0,0,0,0,0,0,0,0,0,0,0,0,0,0,0,0,0,0,0,0,0,0,0,0,0,0,0,0,0,0,0,0,0,0,0,0,0,0,0,0,0,0,0,0,0,0,0,0,0,0,0,0,0,0,0,0,0,0,0,0,0,0,0,0,0,0,0,0,0,0,0,0,0,0,0,0,0,0,0,0,0,0,0,0,0,0,0,0,0,0,0,0,0,0,0,0,0,0,0,0,0,0,0,0,0]},{"id":3,"name":"tallgrass","type":"tilelayer","x":0,"y":0,"opacity":1,"visible":true,"width":144,"height":96,"data":[0,0,0,0,0,0,0,0,0,0,0,0,0,0,0,0,0,0,0,0,0,0,0,0,0,0,0,0,0,0,0,0,0,0,0,0,0,0,0,0,0,0,0,0,0,0,0,0,0,0,0,0,0,0,0,0,0,0,0,0,0,0,0,0,0,0,0,0,0,0,0,0,0,0,0,0,0,0,0,0,0,0,0,0,0,0,0,0,0,0,0,0,0,0,0,0,0,0,0,0,0,0,0,0,0,0,0,0,0,0,0,0,0,0,0,0,0,0,0,0,0,0,0,0,0,0,0,0,0,0,0,0,0,0,0,0,0,0,0,0,0,0,0,0,0,0,0,0,0,0,0,0,0,0,0,0,0,0,0,0,0,0,0,0,0,0,0,0,0,0,0,0,0,0,0,0,0,0,0,0,0,0,0,0,0,0,0,0,0,0,0,0,0,0,0,0,0,0,0,0,0,0,0,0,0,0,0,0,0,0,0,0,0,0,0,0,0,0,0,0,0,0,0,0,0,0,0,0,0,0,0,0,0,0,0,0,0,0,0,0,0,0,0,0,0,0,0,0,0,0,0,0,0,0,0,0,0,0,0,0,0,0,0,0,0,0,0,0,0,0,0,0,0,0,0,0,0,0,0,0,0,0,0,0,0,0,0,0,0,0,0,0,0,0,0,0,0,0,0,0,0,0,0,0,0,0,0,0,0,0,0,0,0,0,0,0,0,0,0,0,0,0,0,0,0,0,0,0,0,0,0,0,0,0,0,0,0,0,0,0,0,0,0,0,0,0,0,0,0,0,0,0,0,0,0,0,0,0,0,0,0,0,0,0,0,0,0,0,0,0,0,0,0,0,0,0,0,0,0,0,0,0,0,0,0,0,0,0,0,0,0,0,0,0,0,0,0,0,0,0,0,0,0,0,0,0,0,0,0,0,0,0,0,0,0,0,0,0,0,0,0,0,0,0,0,0,0,0,0,0,0,0,0,0,0,0,0,0,0,0,0,0,0,0,0,0,0,0,0,0,0,0,0,0,0,0,0,0,0,0,0,0,0,0,0,0,0,0,0,0,0,0,0,0,0,0,0,0,0,0,0,0,0,0,0,0,0,0,0,0,0,0,0,0,0,0,0,0,0,0,0,0,0,0,0,0,0,0,0,0,0,0,0,0,0,0,0,0,0,0,0,0,0,0,0,0,0,0,0,0,0,0,0,0,0,0,0,0,0,0,0,0,0,0,0,0,0,0,0,0,0,0,0,0,0,0,0,0,0,0,0,0,0,0,0,0,0,0,0,0,0,0,0,0,0,0,0,0,0,0,0,0,0,0,0,0,0,0,0,0,0,0,0,0,0,0,0,0,0,0,0,0,0,0,0,0,0,0,0,0,0,0,0,0,0,0,0,0,0,0,0,0,0,0,0,0,0,0,0,0,0,0,0,0,0,0,0,0,0,0,0,0,0,0,0,0,0,0,0,0,0,0,0,0,0,0,0,0,0,0,0,0,0,0,0,0,0,0,0,0,0,0,0,0,0,0,0,0,0,0,0,0,0,0,0,0,0,0,0,0,0,0,0,0,0,0,0,0,0,0,0,0,0,0,0,0,0,0,0,0,0,0,0,0,0,0,0,0,0,0,0,0,0,0,0,0,0,0,0,0,0,0,0,0,0,0,0,0,0,0,0,0,0,0,0,0,0,0,0,0,0,0,0,0,0,0,0,0,0,0,0,0,0,0,0,0,0,0,0,0,0,0,0,0,0,0,0,0,0,0,0,0,0,0,0,0,0,0,0,0,0,0,0,0,0,0,0,0,0,0,0,0,0,0,0,0,0,0,0,0,0,0,0,0,0,0,0,0,0,0,0,0,0,0,0,0,0,0,0,0,0,0,0,0,0,0,0,0,0,0,0,0,0,0,0,0,0,0,0,0,0,0,0,0,0,0,0,0,0,0,0,0,0,0,0,0,0,0,0,0,0,0,0,0,0,0,0,0,0,0,0,0,0,0,0,0,0,0,0,0,0,0,0,0,0,0,0,0,0,0,0,0,0,0,0,0,0,0,0,0,0,0,0,0,0,0,0,0,0,0,0,0,0,0,0,0,0,0,0,0,0,0,0,0,0,0,0,0,0,0,0,0,0,0,0,0,0,0,0,0,0,0,0,0,0,0,0,0,0,0,0,0,0,0,0,0,0,0,0,0,0,0,0,0,0,0,0,0,0,0,0,0,0,0,0,0,0,0,0,0,0,0,0,0,0,0,0,0,0,0,0,0,0,0,0,0,0,0,0,0,0,0,0,0,0,0,0,0,0,0,0,0,0,0,0,0,0,0,0,0,0,0,0,0,0,0,0,0,0,0,0,0,0,0,0,0,0,0,0,0,0,0,0,0,0,0,0,0,0,0,0,0,0,0,0,0,0,0,0,0,0,0,0,0,0,0,0,0,0,0,0,0,0,0,0,0,0,0,0,0,0,0,0,0,0,0,0,0,0,0,0,0,0,0,0,0,0,0,0,0,0,0,0,0,0,0,0,0,0,0,0,0,0,0,0,0,0,0,0,0,0,0,0,0,0,0,0,0,0,0,0,0,0,0,0,0,0,0,0,0,0,0,0,0,0,0,0,0,0,0,0,0,0,0,0,0,0,0,0,0,0,0,0,0,0,0,0,0,0,0,0,0,0,0,0,0,0,0,0,0,0,0,0,0,0,0,0,0,0,0,0,0,0,0,0,0,0,0,0,0,0,0,0,0,0,0,0,0,0,0,0,0,0,0,0,0,0,0,0,0,0,0,0,0,0,0,0,0,0,0,0,0,0,0,0,0,0,0,0,0,0,0,0,0,0,0,0,0,0,0,0,0,0,0,0,0,0,0,0,0,0,0,0,0,0,0,0,0,0,0,0,0,0,0,0,0,0,0,0,0,0,0,0,0,0,0,0,0,0,0,0,0,0,0,0,0,0,0,0,0,0,0,0,0,0,0,0,0,0,0,0,0,0,0,0,0,0,0,0,0,0,0,0,0,0,0,0,0,0,0,0,0,0,0,0,0,0,0,0,0,0,0,0,0,0,0,0,0,0,0,0,0,0,0,0,0,0,0,0,0,0,0,0,0,0,0,0,0,0,0,0,0,0,0,0,0,0,0,0,0,0,0,0,0,0,0,0,0,0,0,0,0,0,0,0,0,0,0,0,0,0,0,0,0,0,0,0,0,0,0,0,0,0,0,0,0,0,0,0,0,0,0,0,0,0,0,0,0,0,0,0,0,0,0,0,0,0,0,0,0,0,0,0,0,0,0,0,0,0,0,0,0,0,0,0,0,0,0,0,0,0,0,0,0,0,0,0,0,0,0,0,0,0,0,0,0,0,0,0,0,0,0,0,0,0,0,0,0,0,0,0,0,0,0,0,0,0,0,0,0,0,0,0,0,0,0,0,0,0,0,0,0,0,0,0,0,0,0,0,0,0,0,0,0,0,0,0,0,0,0,0,0,0,0,0,0,0,0,0,0,0,0,0,0,0,0,0,0,0,0,0,0,0,0,0,0,0,0,0,0,0,0,0,0,0,0,0,0,0,0,0,0,0,0,0,0,0,0,0,0,0,0,0,0,0,0,0,0,0,0,0,0,0,0,0,0,0,0,0,0,0,0,0,0,0,0,0,0,0,0,0,0,0,0,0,0,0,0,0,0,0,0,0,0,0,0,0,0,0,0,0,0,0,0,0,0,0,0,0,0,0,0,0,0,0,0,0,0,0,0,0,0,0,0,0,0,0,0,0,0,0,0,0,0,0,0,0,0,0,0,0,0,0,0,0,0,0,0,0,0,0,0,0,0,0,0,0,0,0,0,0,0,0,0,0,0,0,0,0,0,0,0,0,0,0,0,0,0,0,0,0,0,0,0,0,0,0,0,0,0,0,0,0,0,0,0,0,0,0,0,0,0,0,0,0,0,0,0,0,0,0,0,0,0,0,0,0,0,0,0,0,0,0,0,0,0,0,0,0,0,0,0,0,0,0,0,0,0,0,0,0,0,0,0,0,0,0,0,0,0,0,0,0,0,0,0,0,0,0,0,0,0,0,0,0,0,0,0,0,0,0,0,0,0,0,0,0,0,0,0,0,0,0,0,0,0,0,0,0,0,0,0,0,0,0,0,0,0,0,0,0,0,0,0,0,0,0,0,0,0,0,0,0,0,0,0,0,0,0,0,0,0,0,0,0,0,0,0,0,0,0,0,0,0,0,0,0,0,0,0,0,0,0,0,0,0,0,0,0,0,0,0,0,0,0,0,0,0,0,0,0,0,0,0,0,0,0,0,0,0,0,0,0,0,0,0,0,0,0,0,0,0,0,0,0,0,0,0,0,0,0,0,0,0,0,0,0,0,0,0,0,0,0,0,0,0,0,0,0,0,0,0,0,0,0,0,0,0,0,0,0,0,0,0,0,0,0,0,0,0,0,0,0,0,0,0,0,0,0,0,0,0,0,0,0,0,0,0,0,0,0,0,0,0,0,0,0,0,0,0,0,0,0,0,0,0,0,0,0,0,0,0,0,0,0,0,0,0,0,0,0,0,0,0,0,0,0,0,0,0,0,0,0,0,0,0,0,0,0,0,0,0,0,0,0,0,0,0,0,0,0,0,0,0,0,0,0,0,0,0,0,0,0,0,0,0,0,0,0,0,0,0,0,0,0,0,0,0,0,0,0,0,0,0,0,0,0,0,0,0,0,0,0,0,0,0,0,0,0,0,0,0,0,0,0,0,0,0,0,0,0,0,0,0,0,0,0,0,0,0,0,0,0,0,0,0,0,0,0,0,0,0,0,0,0,0,0,0,0,0,0,0,0,0,0,0,0,0,0,0,0,0,0,0,0,0,0,0,0,0,0,0,0,0,0,0,0,0,0,0,0,0,0,0,0,0,0,0,0,0,0,0,0,0,0,0,0,0,0,0,0,0,0,0,0,0,0,0,0,0,0,0,0,0,0,0,0,0,0,0,0,0,0,0,0,0,0,0,0,0,0,0,0,0,0,0,0,0,0,0,0,0,0,0,0,0,0,0,0,0,0,0,0,0,0,0,0,0,0,0,0,0,0,0,0,0,0,0,0,0,0,0,0,0,0,0,0,0,0,0,0,0,0,0,0,0,0,0,0,0,0,0,0,0,0,0,0,0,0,0,0,0,0,0,0,0,0,0,0,0,0,0,0,0,0,0,0,0,0,0,0,0,0,0,0,0,0,0,0,0,0,0,0,0,0,0,0,0,0,0,0,0,0,0,0,0,0,0,0,0,0,0,0,0,0,0,0,0,0,0,0,0,0,0,0,0,0,0,0,0,0,0,0,0,0,0,0,0,0,0,0,0,0,0,0,0,0,0,0,0,0,0,0,0,0,0,0,0,0,0,0,0,0,0,0,0,0,0,0,0,0,0,0,0,0,0,0,0,0,0,0,0,0,0,0,0,0,0,0,0,0,0,0,0,0,0,0,0,0,0,0,0,0,0,0,0,0,0,0,0,0,0,0,0,0,0,0,0,0,0,0,0,0,0,0,0,0,0,0,0,0,0,0,0,0,0,0,0,0,0,0,0,0,0,0,0,0,0,0,0,0,0,0,0,0,0,0,0,0,0,0,0,0,0,0,0,0,0,0,0,0,0,0,0,0,0,0,0,0,0,0,0,0,0,0,0,0,0,0,0,0,0,0,0,0,0,0,0,0,0,0,0,0,0,0,0,0,0,203,224,224,224,224,224,224,224,224,221,208,3758,0,0,0,0,0,0,0,0,0,0,0,0,0,0,0,0,0,0,0,0,0,0,0,0,0,0,0,0,0,0,0,0,0,0,0,0,0,0,0,0,0,0,0,0,0,0,0,0,0,0,0,0,0,0,0,0,0,0,0,0,0,0,0,0,0,0,0,0,0,0,0,0,0,0,0,0,0,0,0,0,0,0,0,0,0,0,0,0,0,0,0,0,0,0,0,0,0,0,0,0,0,0,0,0,0,0,0,0,0,0,0,0,0,0,0,0,0,0,0,0,0,0,0,0,0,0,0,0,203,224,224,224,226,239,2147483983,335,2147483887,2147483887,239,287,239,3787,0,0,0,0,0,0,0,0,0,0,0,0,0,0,0,0,0,0,0,0,0,0,0,0,0,0,0,0,0,0,0,0,0,0,0,0,0,0,0,0,0,0,0,0,0,0,0,0,0,0,0,0,0,0,0,0,0,0,0,0,0,0,0,0,0,0,0,0,0,0,0,0,0,0,0,0,0,0,0,0,0,0,0,0,0,0,0,0,0,0,0,0,0,0,0,0,0,0,0,0,0,0,0,0,0,0,0,0,0,0,0,0,0,0,0,0,0,0,0,0,0,0,0,0,0,0,0,0,203,224,226,335,2147483887,2147484031,2147483983,2147484031,2147483887,383,383,239,2147483983,383,2147483983,3787,0,0,0,0,0,0,0,0,0,0,0,0,0,0,0,0,0,0,0,0,0,0,0,0,0,0,0,0,0,0,0,0,0,0,0,0,0,0,0,0,0,0,0,0,0,0,0,0,0,0,0,0,0,0,0,0,0,0,0,0,0,0,0,0,0,0,0,0,0,0,0,0,0,0,0,0,0,0,0,0,0,0,0,0,0,0,0,0,0,0,0,0,0,0,0,0,0,0,0,0,0,0,0,0,0,0,0,0,0,0,0,0,0,0,0,0,0,0,0,0,0,0,0,0,0,0,0,203,226,2147484031,287,2147483935,2147483983,335,2147483983,335,2147483935,2147483983,2147483887,2147483887,287,2147483887,335,3790,3776,3771,0,0,0,0,0,0,0,0,0,0,0,0,0,0,0,0,0,0,0,0,0,0,0,0,0,0,0,0,0,0,0,0,0,0,0,0,0,0,0,0,0,0,0,0,0,0,0,0,0,0,0,0,0,0,0,0,0,0,0,0,0,0,0,0,0,0,0,0,0,0,0,0,0,0,0,0,0,0,0,0,0,0,0,0,0,0,0,0,0,0,0,0,0,0,0,0,0,0,0,0,0,0,0,0,0,0,0,0,0,0,0,0,0,0,0,0,0,0,0,0,0,0,0,0,203,226,2147484031,287,2147483935,2147483983,239,2147483887,2147483983,383,2147483983,2147484031,239,2147483887,335,2147483983,383,239,2147483887,3790,3776,3776,3776,3776,3776,3776,3771,0,0,0,0,0,0,0,0,0,0,0,0,0,0,0,0,0,0,0,0,0,0,0,0,0,0,0,0,0,0,0,0,0,0,0,0,0,0,0,0,0,0,0,0,0,0,0,0,0,0,0,0,0,0,0,0,0,0,0,0,0,0,0,0,0,0,0,0,0,0,0,0,0,0,0,0,0,0,0,0,0,0,0,0,0,0,0,0,0,0,0,0,0,0,0,0,0,0,0,0,0,0,0,0,0,0,0,0,0,0,0,0,0,0,0,0,0,197,234,239,239,239,2147483887,2147484031,2147483983,335,335,287,2147483887,239,2147483887,383,335,2147483983,2147483983,2147483935,239,239,2147483887,383,335,2147483983,237,0,0,0,0,0,0,0,0,0,0,0,0,0,0,0,0,0,0,0,0,0,0,0,0,0,0,0,0,0,0,0,0,0,0,0,0,0,0,0,0,0,0,0,0,0,0,0,0,0,0,0,0,0,0,0,0,0,0,0,0,0,0,0,0,0,0,0,0,0,0,0,0,0,0,0,0,0,0,0,0,0,0,0,0,0,0,0,0,0,0,0,0,0,0,0,0,0,0,0,0,0,0,0,0,0,0,0,0,0,0,0,0,0,0,0,0,0,0,0,197,234,335,2147484031,383,2147483887,335,2147484031,287,2147483983,2147483983,2147484031,2147484031,2147483887,287,239,287,2147483935,2147484031,2147483983,2147484031,2147483983,2147484031,0,0,0,0,0,0,0,0,0,0,0,0,0,0,0,0,0,0,0,0,0,0,0,0,0,0,0,0,0,0,0,0,0,0,0,0,0,0,0,0,0,0,0,0,0,0,0,0,0,0,0,0,0,0,0,0,0,0,0,0,0,0,0,0,0,0,0,0,0,0,0,0,0,0,0,0,0,0,0,0,0,0,0,0,0,0,0,0,0,0,0,0,0,0,0,0,0,0,0,0,0,0,0,0,0,0,0,0,0,0,0,0,0,0,0,0,0,0,0,0,0,0,197,229,234,383,2147483983,2147483887,239,2147483983,383,2147483983,335,2147483983,287,2147483887,2147483983,2147484031,335,335,287,2147483935,2147483935,0,0,0,0,0,0,0,0,0,0,0,0,0,0,0,0,0,0,0,0,0,0,0,0,0,0,0,0,0,0,0,0,0,0,0,0,0,0,0,0,0,0,0,0,0,0,0,0,0,0,0,0,0,0,0,0,0,0,0,0,0,0,0,0,0,0,0,0,0,0,0,0,0,0,0,0,0,0,0,0,0,0,0,0,0,0,0,0,0,0,0,0,0,0,0,0,0,0,0,0,0,0,0,0,0,0,0,0,0,0,0,0,0,0,0,0,0,0,0,0,0,0,0,0,0,205,287,2147483983,2147483887,335,335,287,335,239,2147484031,239,2147483935,2147483983,2147484031,2147484031,239,237,0,0,0,0,0,0,0,0,0,0,0,0,0,0,0,0,0,0,0,0,0,0,0,0,0,0,0,0,0,0,0,0,0,0,0,0,0,0,0,0,0,0,0,0,0,0,0,0,0,0,0,0,0,0,0,0,0,0,0,0,0,0,0,0,0,0,0,0,0,0,0,0,0,0,0,0,0,0,0,0,0,0,0,0,0,0,0,0,0,0,0,0,0,0,0,0,0,0,0,0,0,0,0,0,0,0,0,0,0,0,0,0,0,0,0,0,0,0,0,0,0,0,0,0,0,0,0,0,0,0,0,0,239,2147483935,237,229,229,229,234,2147483887,0,0,0,0,0,0,0,0,0,0,0,0,0,0,0,0,0,0,0,0,0,0,0,0,0,0,0,0,0,0,0,0,0,0,0,0,0,0,0,0,0,0,0,0,0,0,0,0,0,0,0,0,0,0,0,0,0,0,0,0,0,0,0,0,0,0,0,0,0,0,0,0,0,0,0,0,0,0,0,0,0,0,0,0,0,0,0,0,0,0,0,0,0,0,0,0,0,0,0,0,0,0,0,0,0,0,0,0,0,0,0,0,0,0,0,0,0,0,0,0,0,0,0,0,0,0,0,0,0,0,0,0,0,0,0,0,0,0,0,0,0,0,0,0,0,0,0,0,0,0,0,0,0,0,0,0,0,0,0,0,0,0,0,0,0,0,0,0,0,0,0,0,0,0,0,0,0,0,0,0,0,0,0,0,0,0,0,0,0,0,0,0,0,0,0,0,0,0,0,0,0,0,0,0,0,0,0,0,0,0,0,0,0,0,0,0,0,0,0,0,0,0,0,0,0,0,0,0,0,0,0,0,0,0,0,0,0,0,0,0,0,0,0,0,0,0,0,0,0,0,0,0,0,0,0,0,0,0,0,0,0,0,0,0,0,0,0,0,0,0,0,0,0,0,0,0,0,0,0,0,0,0,0,0,0,0,0,0,0,0,0,0,0,0,0,0,0,0,0,0,0,0,0,0,0,0,0,0,0,0,0,0,0,0,0,0,0,0,0,0,0,0,0,0,0,0,0,0,0,0,0,0,0,0,0,0,0,0,0,0,0,0,0,0,0,0,0,0,0,0,0,0,0,0,0,0,0,0,0,0,0,0,0,0,0,0,0,0,0,0,0,0,0,0,0,0,0,0,0,0,0,0,0,0,0,0,0,0,0,0,0,0,0,0,0,0,0,0,0,0,0,0,0,0,0,0,0,0,0,0,0,0,0,0,0,0,0,0,0,0,0,0,0,0,0,0,0,0,0,0,0,0,0,0,0,0,0,0,0,0,0,0,0,0,0,0,0,0,0,0,0,0,0,0,0,0,0,0,0,0,0,0,0,0,0,0,0,0,0,0,0,0,0,0,0,0,0,0,0,0,0,0,0,0,0,0,0,0,0,0,0,0,0,0,0,0,0,0,0,0,0,0,0,0,0,0,0,0,0,0,0,0,0,0,0,0,0,0,0,0,0,0,0,0,0,0,0,0,0,0,0,0,0,0,0,0,0,0,0,0,0,0,0,0,0,0,0,0,0,0,0,0,0,0,0,0,0,0,0,0,0,0,0,0,0,0,0,0,0,0,0,0,0,0,0,0,0,0,0,0,0,0,0,0,0,0,0,0,0,0,0,0,0,0,0,0,0,0,0,0,0,0,0,0,0,0,0,0,0,0,0,0,0,0,0,0,0,0,0,0,0,0,0,0,0,0,0,0,0,0,0,0,0,0,0,0,0,0,0,0,0,0,0,0,0,0,0,0,0,0,0,0,0,0,0,0,0,0,0,0,0,0,0,0,0,0,0,0,0,0,0,0,0,0,0,0,0,0,0,0,0,0,0,0,0,0,0,0,0,0,0,0,0,0,0,0,0,0,0,0,0,0,0,0,0,0,0,0,0,0,0,0,0,0,0,0,0,0,0,0,0,0,0,0,0,0,0,0,0,0,0,0,0,0,0,0,0,0,0,0,0,0,0,0,0,0,0,0,0,0,0,0,0,0,0,0,0,0,0,0,0,0,0,0,0,0,0,0,0,0,0,0,0,0,0,0,0,0,0,0,0,0,0,0,0,0,0,0,0,0,0,0,0,0,0,0,0,0,0,0,0,0,0,0,0,0,0,0,0,0,0,0,0,0,0,0,0,0,0,0,0,0,0,0,0,0,0,0,0,0,0,0,0,0,0,0,0,0,0,0,0,0,0,0,0,0,0,0,0,0,0,0,0,0,0,0,0,0,0,0,0,0,0,0,0,0,0,0,0,0,0,0,0,0,0,0,0,0,0,0,0,0,0,0,0,0,0,0,0,0,0,0,0,0,0,0,0,0,0,0,0,0,0,0,0,0,0,0,0,0,0,0,0,0,0,0,0,0,0,0,0,0,0,0,0,0,0,0,0,0,0,0,0,0,0,0,0,0,0,0,0,0,0,0,0,0,0,0,0,0,0,0,0,0,0,0,0,0,0,0,0,0,0,0,0,0,0,0,0,0,0,0,0,0,0,0,0,0,0,0,0,0,0,0,0,0,0,0,0,0,0,0,0,0,0,0,0,0,0,0,0,0,0,0,0,0,0,0,0,0,0,0,0,0,0,0,0,0,0,0,0,0,0,0,0,0,0,0,0,0,0,0,0,0,0,0,0,0,0,0,0,0,0,0,0,0,0,0,0,0,0,0,0,0,0,0,0,0,0,0,0,0,0,0,0,0,0,0,0,0,0,0,0,0,0,0,0,0,0,0,0,0,0,0,0,0,0,0,0,0,0,0,0,0,0,0,0,0,0,0,0,0,0,0,0,0,0,0,0,0,0,0,0,0,0,0,0,0,0,0,0,0,0,0,0,0,0,0,0,0,0,0,0,0,0,0,0,0,0,0,0,0,0,0,0,0,0,0,0,0,0,0,0,0,0,0,0,0,0,0,0,0,0,0,0,0,0,0,0,0,0,0,0,0,0,0,0,0,0,0,0,0,0,0,0,0,0,0,0,0,0,0,0,0,0,0,0,0,0,0,0,0,0,0,0,0,0,0,0,0,0,0,0,0,0,0,0,0,0,0,0,0,0,0,0,0,0,0,0,0,0,0,0,0,0,0,0,0,0,0,0,0,0,0,0,0,0,0,0,0,0,0,0,0,0,0,0,0,0,0,0,0,0,0,0,0,0,0,0,0,0,0,0,0,0,0,0,0,0,0,0,0,0,0,0,0,0,0,0,0,0,0,0,0,0,0,0,0,0,0,0,0,0,0,0,0,0,0,0,0,0,0,0,0,0,0,0,0,0,0,0,0,0,0,0,0,0,0,0,0,0,0,0,0,0,0,0,0,0,0,0,0,0,0,0,0,0,0,0,0,0,0,0,0,0,0,0,0,0,0,0,0,0,0,0,0,0,0,0,0,0,0,0,0,0,0,0,0,0,0,0,0,0,0,0,0,0,0,0,0,0,0,0,0,0,0,0,0,0,0,0,0,0,0,0,0,0,0,0,0,0,0,0,0,0,0,0,0,0,0,0,0,0,0,0,0,0,0,0,0,0,0,0,0,0,0,0,0,0,0,0,0,0,0,0,0,0,0,0,0,0,0,0,0,0,0,0,0,0,0,0,0,0,0,0,0,0,0,0,0,0,0,0,0,0,0,0,0,0,0,0,0,0,0,0,0,0,0,0,0,0,0,0,0,0,0,0,0,0,0,0,0,0,0,0,0,0,0,0,0,0,0,0,0,0,0,0,0,0,0,0,0,0,0,0,0,0,0,0,0,0,0,0,0,0,0,0,0,0,0,0,0,0,0,0,0,0,0,0,0,0,0,0,0,0,0,0,0,0,0,0,0,0,0,0,0,0,0,0,0,0,0,0,0,0,0,0,0,0,0,0,0,0,0,0,0,0,0,0,0,0,0,0,0,0,0,0,0,0,0,0,0,0,0,0,0,0,0,0,0,0,0,0,0,0,0,0,0,0,0,0,0,0,0,0,0,0,0,0,0,0,0,0,0,0,0,0,0,0,0,0,0,0,0,0,0,0,0,0,0,0,0,0,0,0,0,0,0,0,0,0,0,0,0,0,0,0,0,0,0,0,0,0,0,0,0,0,0,0,0,0,0,0,0,0,0,0,0,0,0,0,0,0,0,0,0,0,0,0,0,0,0,0,0,0,0,0,0,0,0,0,0,0,0,0,0,0,0,0,0,0,0,0,0,0,0,0,0,0,0,0,0,0,0,0,0,0,0,0,0,0,0,0,0,0,0,0,0,0,0,0,0,0,0,0,0,0,0,0,0,0,0,0,0,0,0,0,0,0,0,0,0,0,0,0,0,0,0,0,0,0,0,0,0,0,0,0,0,0,0,0,0,0,0,0,0,0,0,0,0,0,0,0,0,0,0,0,0,0,0,0,0,0,0,0,0,0,0,0,0,0,0,0,0,0,0,0,0,0,0,0,0,0,0,0,0,0,0,0,0,0,0,0,0,0,0,0,0,0,0,0,0,0,0,0,0,0,0,0,0,0,0,0,0,0,0,0,0,0,0,0,0,0,0,0,0,0,0,0,0,0,0,0,0,0,0,0,0,0,0,0,0,0,0,0,0,0,0,0,0,0,0,0,0,0,0,0,0,0,0,0,0,0,0,0,0,0,0,0,0,0,0,0,0,0,0,0,0,0,0,0,0,0,0,0,0,0,0,0,0,0,0,0,0,0,0,0,0,0,0,0,0,0,0,0,0,0,0,0,0,0,0,0,0,0,0,0,0,0,0,0,0,0,0,0,0,0,0,0,0,0,0,0,0,0,0,0,0,0,0,0,0,0,0,0,0,0,0,0,0,0,0,0,0,0,0,0,0,0,0,0,0,0,0,0,0,0,0,0,0,0,0,0,0,0,0,0,0,0,0,0,0,0,0,0,0,0,0,0,0,0,0,0,0,0,0,0,0,0,0,0,0,0,0,0,0,0,0,0,0,0,0,0,0,0,0,0,0,0,0,0,0,0,0,0,0,0,0,0,0,0,0,0,0,0,0,0,0,0,0,0,0,0,0,0,0,0,0,0,0,0,0,0,0,0,0,0,0,0,0,0,0,0,0,0,0,0,0,0,0,0,0,0,0,0,0,0,0,0,0,0,0,0,0,0,0,0,0,0,0,0,0,0,0,0,0,0,0,0,0,0,0,0,0,0,0,0,0,0,0,0,0,0,0,0,0,0,0,0,0,0,0,0,0,0,0,0,0,0,0,0,0,0,0,0,0,0,0,0,0,0,0,0,0,0,0,0,0,0,0,0,0,0,0,0,0,0,0,0,0,0,0,0,0,0,0,0,0,0,0,0,0,0,0,0,0,0,0,0,0,0,0,0,0,0,0,0,0,0,0,0,0,0,0,0,0,0,0,0,0,0,0,0,0,0,0,0,0,0,0,0,0,0,0,0,0,0,0,0,0,0,0,0,0,0,0,0,0,0,0,0,0,0,0,0,0,0,0,0,0,0,0,0,0,0,0,0,0,0,0,0,0,0,0,0,0,0,0,0,0,0,0,0,0,0,0,0,0,0,0,0,0,0,0,0,0,0,0,0,0,0,0,0,0,0,0,0,0,0,0,0,0,0,0,0,0,0,0,0,0,0,0,0,0,0,0,0,0,0,0,0,0,0,0,0,0,0,0,0,0,0,0,0,0,0,0,0,0,0,0,0,0,0,0,0,0,0,0,0,0,0,0,0,0,0,0,0,0,0,0,0,0,0,0,0,0,0,0,0,0,0,0,0,0,0,0,0,0,0,0,0,0,0,0,0,0,0,0,0,0,0,0,0,0,0,0,0,0,0,0,0,0,0,0,0,0,0,0,0,0,0,0,0,0,0,0,0,0,0,0,0,0,0,0,0,0,0,0,0,0,0,0,0,0,0,0,0,0,0,0,0,0,0,0,0,0,0,0,0,0,0,0,0,0,0,0,0,0,0,0,0,0,0,0,0,0,0,0,0,0,0,0,0,0,0,0,0,0,0,0,0,0,0,0,0,0,0,0,0,0,0,0,0,0,0,0,0,0,0,0,0,0,0,0,0,0,0,0,0,0,0,0,0,0,0,0,0,0,0,0,0,0,0,0,0,0,0,0,0,0,0,0,0,0,0,0,0,0,0,0,0,0,0,0,0,0,0,0,0,0,0,0,0,0,0,0,0,0,0,0,0,0,0,0,0,0,0,0,0,0,0,0,0,0,0,0,0,0,0,0,0,0,0,0,0,0,0,0,0,0,0,0,0,0,0,0,0,0,0,0,0,0,0,0,0,0,0,0,0,0,0,0,0,0,0,0,0,0,0,0,0,0,0,0,0,0,0,0,0,0,0,0,0,0,0,0,0,0,0,0,0,0,0,0,0,0,0,0,0,0,0,0,0,0,0,0,0,0,0,0,0,0,0,0,0,0,0,0,0,0,0,0,0,0,0,0,0,0,0,0,0,0,0,0,0,0,0,0,0,0,0,0,0,0,0,0,0,0,0,0,0,0,0,0,0,0,0,0,0,0,0,0,0,0,0,0,0,0,0,0,0,0,0,0,0,0,0,0,0,0,0,0,0,0,0,0,0,0,0,0,0,0,0,0,0,0,0,0,0,0,0,0,0,0,0,0,0,0,0,0,0,0,0,0,0,0,0,0,0,0,0,0,0,0,0,0,0,0,0,0,0,0,0,0,0,0,0,0,0,0,0,0,0,0,0,0,0,0,0,0,0,0,0,0,0,0,0,0,0,0,0,0,0,0,0,0,0,0,0,0,0,0,0,0,0,0,0,0,0,0,0,0,0,0,0,0,0,0,0,0,0,0,0,0,0,0,0,0,0,0,0,0,0,0,0,0,0,0,0,0,0,0,0,0,0,0,0,0,0,0,0,0,0,0,0,0,0,0,0,0,0,0,0,0,0,0,0,0,0,0,0,0,0,0,0,0,0,0,0,0,0,0,0,0,0,0,0,0,0,0,0,0,0,0,0,0,0,0,0,0,0,0,0,0,0,0,0,0,0,0,0,0,0,0,0,0,0,0,0,0,0,0,0,0,0,0,0,0,0,0,0,0,0,0,0,0,0,0,0,0,0,0,0,0,0,0,0,0,0,0,0,0,0,0,0,0,0,0,0,0,0,0,0,0,0,0,0,0,0,0,0,0,0,0,0,0,0,0,0,0,0,0,0,0,0,0,0,0,0,0,0,0,0,0,0,0,0,0,0,0,0,0,0,0,0,0,0,0,0,0,0,0,0,0,0,0,0,0,0,0,0,0,0,0,0,0,0,0,0,0,0,0,0,0,0,0,0,0,0,0,0,0,0,0,0,0,0,0,0,0,0,0,0,0,0,0,0,0,0,0,0,0,0,0,0,0,0,0,0,0,0,0,0,0,0,0,0,0,0,0,0,0,0,0,0,0,0,0,0,0,0,0,0,0,0,0,0,0,0,0,0,0,0,0,0,0,0,0,0,0,0,0,0,0,0,0,0,0,0,0,0,0,0,0,0,0,0,0,0,0,0,0,0,0,0,0,0,0,0,0,0,0,0,0,0,0,0,0,0,0,0,0,0,0,0,0,0,0,0,0,0,0,0,0,0,0,0,0,0,0,0,0,0,0,0,0,0,0,0,0,0,0,0,0,0,0,0,0,0,0,0,0,0,0,0,0,0,0,0,0,0,0,0,0,0,0,0,0,0,0,0,0,0,0,0,0,0,0,0,0,0,0,0,0,0,0,0,0,0,0,0,0,0,0,0,0,0,0,0,0,0,0,0,0,0,0,0,0,0,0,0,0,0,0,0,0,0,0,0,0,0,0,0,0,0,0,0,0,0,0,0,0,0,0,0,0,0,0,0,0,0,0,0,0,0,0,0,0,0,0,0,0,0,0,0,0,0,0,0,0,0,0,0,0,0,0,0,0,0,0,0,0,0,0,0,0,0,0,0,0,0,0,0,0,0,0,0,0,0,0,0,0,0,0,0,0,0,0,0,0,0,0,0,0,0,0,0,0,0,0,0,0,0,0,0,0,0,0,0,0,0,0,0,0,0,0,0,0,0,0,0,0,0,0,0,0,0,0,0,0,0,0,0,0,0,0,0,0,0,0,0,0,0,0,0,0,0,0,0,0,0,0,0,0,0,0,0,0,0,0,0,0,0,0,0,0,0,0,0,0,0,0,0,0,0,0,0,0,0,0,0,0,0,0,0,0,0,0,0,0,0,0,0,0,0,0,0,0,0,0,0,0,0,0,0,0,0,0,0,0,0,0,0,0,0,0,0,0,0,0,0,0,0,0,0,0,0,0,0,0,0,0,0,0,0,0,0,0,0,0,0,0,0,0,0,0,0,0,0,0,0,0,0,0,0,0,0,0,0,0,0,0,0,0,0,0,0,0,0,0,0,0,0,0,0,0,0,0,0,0,0,0,0,0,0,0,0,0,0,0,0,0,0,0,0,0,0,0,0,0,0,0,0,0,0,0,0,0,0,0,0,0,0,0,0,0,0,0,0,0,0,0,0,0,0,0,0,0,0,0,0,0,0,0,0,0,0,0,0,0,0,0,0,0,0,0,0,0,0,0,0,0,0,0,0,0,0,0,0,0,0,0,0,0,0,0,0,0,0,0,0,0,0,0,0,0,0,0,0,0,0,0,0,0,0,0,0,0,0,0,0,0,0,0,0,0,0,0,0,0,0,0,0,0,0,0,0,0,0,0,0,0,0,0,0,0,0,0,0,0,0,0,0,0,0,0,0,0,0,0,0,0,0,0,0,0,0,0,0,0,0,0,0,0,0,0,0,0,0,0,0,0,0,0,0,0,0,0,0,0,0,0,0,0,0,0,0,0,0,0,0,0,0,0,0,0,0,0,0,0,0,0,0,0,0,0,0,0,0,0,0,0,0,0,0,0,0,0,0,0,0,0,0,0,0,0,0,0,0,0,0,0,0,0,0,0,0,0,0,0,0,0,0,0,0,0,0,0,0,0,0,0,0,0,0,0,0,0,0,0,0,0,0,0,0,0,0,0,0,0,0,0,0,0,0,0,0,0,0,0,0,0,0,0,0,0,0,0,0,0,0,0,0,0,0,0,0,0,0,0,0,0,0,0,0,0,0,0,0,0,0,0,0,0,0,0,0,0,0,0,0,0,0,0,0,0,0,0,0,0,0,0,0,0,0,0,0,0,0,0,0,0,0,0,0,0,0,0,0,0,0,0,0,0,0,0,0,0,0,0,0,0,0,0,0,0,0,0,0,0,0,0,0,0,0,0,0,0,0,0,0,0,0,0,0,0,0,0,0,0,0,0,0,0,0,0,0,0,0,0,0,0,0,0,0,0,0,0,0,0,0,0,0,0,0,0,0,0,0,0,0,0,0,0,0,0,0,0,0,0,0,0,0,0,0,0,0,0,0,0,0,0,0,0,0,0,0,0,0,0,0,0,0,0,0,0,0,0,0,0,0,0,0,0,0,0,0,0,0,0,0,0,0,0,0,0,0,0,0,0,0,0,0,0,0,0,0,0,0,0,0,0,0,0,0,0,0,0,0,0,0,0,0,0,0,0,0,0,0,0,0,0,0,0,0,0,0,0,0,0,0,0,0,0,0,0,0,0,0,0,0,0,0,0,0,0,0,0,0,0,0,0,0,0,0,0,0,0,0,0,0,0,0,0,0,0,0,0,0,0,0,0,0,0,0,0,0,0,0,0,0,0,0,0,0,0,0,0,0,0,0,0,0,0,0,0,0,0,0,0,0,0,0,0,0,0,0,0,0,0,0,0,0,0,0,0,0,0,0,0,0,0,0,0,0,0,0,0,0,0,0,0,0,0,0,0,0,0,0,0,0,0,0,0,0,0,0,0,0,0,0,0,0,0,0,0,0,0,0,0,0,0,0,0,0,0,0,0,0,0,0,0,0,0,0,0,0,0,0,0,0,0,0,0,0,0,0,0,0,0,0,0,0,0,0,0,0,0,0,0,224,224,224,224,224,224,224,224,224,224,219,0,0,0,0,0,0,0,0,0,0,0,0,0,0,0,0,0,0,0,0,0,0,0,0,0,0,0,0,0,0,0,0,0,0,0,0,0,0,0,0,0,0,0,0,0,0,0,0,0,0,0,0,0,0,0,0,0,0,0,0,0,0,0,0,0,0,0,0,0,0,0,0,0,0,0,0,0,0,0,0,0,0,0,0,0,0,0,0,0,0,0,0,0,0,0,0,0,0,0,0,0,0,0,0,0,0,0,0,0,0,0,0,0,0,0,0,0,0,0,0,0,0,0,0,0,0,0,0,0,203,224,224,0,335,239,383,239,383,383,239,2147483935,287,239,238,224,224,219,0,0,0,0,0,0,0,0,0,0,0,0,0,0,0,0,0,0,0,0,0,0,0,0,0,0,0,0,0,0,0,0,0,0,0,0,0,0,0,0,0,0,0,0,0,0,0,0,0,0,0,0,0,0,0,0,0,0,0,0,0,0,0,0,0,0,0,0,0,0,0,0,0,0,0,0,0,0,0,0,0,0,0,0,0,0,0,0,0,0,0,0,0,0,0,0,0,0,0,0,0,0,0,0,0,0,0,0,0,0,0,0,0,0,0,0,0,0,0,0,0,0,0,0,203,224,226,2147483983,287,0,0,239,287,383,335,2147483983,239,2147484031,2147483935,2147483887,2147483935,2147483983,239,238,224,219,0,0,0,0,0,0,0,0,0,0,0,0,0,0,0,0,0,0,0,203,224,224,224,224,224,224,224,224,224,224,219,0,0,0,0,0,0,0,0,0,0,0,0,0,0,0,0,0,0,0,0,0,0,0,0,0,0,0,0,0,0,0,0,0,0,0,0,0,0,0,0,0,0,0,0,0,0,0,0,0,0,0,0,0,0,0,0,0,0,0,0,0,0,0,0,0,0,0,0,0,0,0,0,0,0,0,0,0,0,0,0,0,0,0,0,0,0,0,0,0,0,203,226,2147484031,383,2147483935,2147483983,239,0,2147484031,2147483887,239,2147483983,2147483935,2147484031,2147483935,2147484031,2147483887,2147483935,2147484031,2147483887,335,2147484031,238,219,0,0,0,0,0,0,0,0,0,0,0,0,0,203,224,224,224,224,226,2147483935,2147484031,2147483935,2147483887,239,2147483983,2147484031,287,335,239,238,3776,3776,3776,3771,0,0,0,0,0,0,0,0,0,0,0,0,0,0,0,0,0,0,0,0,0,0,0,0,0,0,0,0,0,0,0,0,0,0,0,0,0,0,0,0,0,0,0,0,0,0,0,0,0,0,0,0,0,0,0,0,0,0,0,0,0,0,0,0,0,0,0,0,0,0,0,0,0,0,0,0,0,0,0,0,0,0,0,0,0,0,197,234,2147483935,2147483983,2147483983,2147483887,2147483983,0,2147483887,2147483887,335,335,2147483983,335,383,2147484031,2147484031,2147484031,383,239,383,2147483983,2147484031,0,0,0,0,0,0,0,0,0,0,0,0,203,224,226,383,2147483935,239,2147483935,335,2147484031,335,2147483983,287,383,2147483887,2147483887,287,287,287,239,335,2147483935,287,3790,3776,3776,3771,0,0,0,0,0,0,0,0,0,0,0,0,0,0,0,0,0,0,0,0,0,0,0,0,0,0,0,0,0,0,0,0,0,0,0,0,0,0,0,0,0,0,0,0,0,0,0,0,0,0,0,0,0,0,0,0,0,0,0,0,0,0,0,0,0,0,0,0,0,0,0,0,0,0,0,0,0,0,0,0,0,0,0,0,197,229,234,239,2147483983,335,0,2147483887,2147483887,2147483983,335,2147483887,2147483935,2147483935,383,335,287,2147483935,2147483887,237,229,0,0,0,0,0,0,0,0,0,0,0,0,224,226,2147483887,287,239,287,239,2147484031,2147483983,2147483935,239,2147483887,2147484031,2147484031,2147483887,239,383,2147484031,287,239,2147483983,2147483983,2147483887,239,2147484031,2147484031,238,224,219,0,0,0,0,0,0,0,0,0,0,0,0,0,0,0,0,0,0,0,0,0,0,0,0,0,0,0,0,0,0,0,0,0,0,0,0,0,0,0,0,0,0,0,0,0,0,0,0,0,0,0,0,0,0,0,0,0,0,0,0,0,0,0,0,0,0,0,0,0,0,0,0,0,0,0,0,0,0,0,0,0,0,0,0,197,229,229,234,0,0,287,2147483935,335,2147483983,2147484031,2147483983,335,239,2147483983,2147483887,2147484031,235,0,0,0,0,0,0,0,0,0,0,0,0,0,335,287,2147483935,239,2147484031,2147483983,2147483887,383,239,2147484031,383,287,2147483887,287,335,239,335,239,2147483935,2147483887,383,2147483887,239,383,2147484031,2147484031,2147484031,2147483935,235,0,0,0,0,0,0,0,0,0,0,0,0,0,0,0,0,0,0,0,0,0,0,0,0,0,0,0,0,0,0,0,0,0,0,0,0,0,0,0,0,0,0,0,0,0,0,0,0,0,0,0,0,0,0,0,0,0,0,0,0,0,0,0,0,0,0,0,0,0,0,0,0,0,0,0,0,0,0,0,0,0,0,0,0,0,0,0,205,383,0,2147484031,2147483935,2147483983,287,383,287,239,2147483887,239,2147484031,239,238,224,226,0,0,0,0,0,0,0,0,0,0,239,2147484031,2147484031,2147483983,2147483983,239,2147483887,287,2147483887,2147483983,2147484031,335,239,2147483983,2147483935,2147483935,2147483935,2147484031,335,287,287,2147484031,383,335,335,2147483983,2147483887,0,0,0,0,0,0,0,0,0,0,0,0,0,0,0,0,0,0,0,0,0,0,0,0,0,0,0,0,0,0,0,0,0,0,0,0,0,0,0,0,0,0,0,0,0,0,0,0,0,0,0,0,0,0,0,0,0,0,0,0,0,0,0,0,0,0,0,0,0,0,0,0,0,0,0,0,0,0,0,0,0,0,0,0,0,0,0,0,203,224,226,2147483887,0,287,2147484031,287,239,2147484031,2147484031,287,239,2147483983,335,2147483983,383,287,287,2147484031,335,0,0,0,0,0,0,335,2147483935,335,335,2147483983,2147483887,2147483935,287,2147484031,335,2147484031,2147484031,2147483887,2147483935,2147483935,2147483983,335,383,2147483887,2147483935,287,287,2147483887,2147483983,237,0,0,0,0,0,0,0,0,0,0,0,0,0,0,0,0,0,0,0,0,0,0,0,0,0,0,0,0,0,0,0,0,0,0,0,0,0,0,0,0,0,0,0,0,0,0,0,0,0,0,0,0,0,0,0,0,0,0,0,0,0,0,0,0,0,0,0,0,0,0,0,0,0,0,0,0,0,0,0,0,0,0,0,0,0,0,0,0,0,203,224,224,226,287,2147483935,287,0,2147483887,383,383,2147484031,383,2147484031,335,2147483983,2147483935,2147483935,2147483983,335,287,287,239,2147483887,383,2147483887,383,383,2147483983,2147483983,2147483935,383,2147483983,2147483983,287,2147483935,239,2147483887,2147483935,2147483935,2147483887,2147483887,383,383,2147484031,383,2147484031,335,287,2147483935,237,0,0,0,0,0,0,0,0,0,202,227,0,0,0,0,0,0,0,0,0,0,0,0,0,0,0,0,0,0,0,0,0,0,0,0,0,0,0,0,0,0,0,0,0,0,0,0,0,0,0,0,0,0,0,0,0,0,0,0,0,0,0,0,0,0,0,0,0,0,0,0,0,0,0,0,0,0,0,0,0,0,0,0,0,0,0,0,0,0,0,0,203,224,226,2147483935,239,383,2147483887,239,2147483983,0,287,2147484031,2147484031,2147483983,335,2147483983,2147483887,383,2147484031,2147483935,287,239,239,239,2147483983,287,2147483935,2147484031,2147484031,335,2147484031,335,2147483887,2147484031,383,2147483935,287,2147483887,2147483935,287,2147483983,287,335,239,383,335,2147484031,237,0,0,0,0,0,0,0,0,0,0,0,0,0,0,0,0,0,0,0,0,0,0,0,0,0,0,0,0,0,0,0,0,0,0,0,0,0,0,0,0,0,0,0,0,0,0,0,0,0,0,0,0,0,0,0,0,0,0,0,0,0,0,0,0,0,0,0,0,0,0,0,0,0,0,0,0,0,0,0,0,0,0,0,0,0,0,0,0,0,0,0,0,0,0,0,203,226,383,239,335,383,2147483983,383,2147483935,287,0,239,2147483983,2147483887,335,239,2147483983,2147484031,2147483935,383,383,287,335,2147483887,335,239,2147483935,2147483887,335,335,2147484031,335,2147484031,2147483935,2147483935,383,383,383,2147483887,335,2147484031,2147484031,2147483887,383,0,0,0,0,0,0,0,0,0,0,0,0,0,0,224,226,237,229,227,0,0,0,0,0,0,0,0,0,0,0,0,0,0,0,0,0,0,0,0,0,0,0,0,0,0,0,0,0,0,0,0,0,0,0,0,0,0,0,0,0,0,0,0,0,0,0,0,0,0,0,0,0,0,0,0,0,0,0,0,0,0,0,0,0,0,0,0,0,0,0,0,0,0,0,0,0,0,0,0,203,0,0,2147483935,239,239,2147483983,2147483887,2147484031,2147484031,2147484031,0,2147483983,335,2147483887,2147483983,335,335,335,2147484031,2147483935,2147484031,383,2147483983,239,239,239,287,383,287,2147483887,2147484031,335,2147483983,2147483983,0,0,0,0,0,0,0,0,0,0,0,0,0,0,0,0,0,0,0,226,287,237,229,229,229,229,227,0,0,0,0,0,0,0,0,0,0,0,0,0,0,0,0,0,0,0,0,0,0,0,0,0,0,0,0,0,0,0,0,0,0,0,0,0,0,0,0,0,0,0,0,0,0,0,0,0,0,0,0,0,0,0,0,0,0,0,0,0,0,0,0,0,203,224,224,224,224,224,224,224,224,224,224,224,224,224,224,224,224,226,2147483983,2147484031,0,0,0,2147484031,2147483935,2147483887,2147483983,2147483887,0,2147483887,2147483887,383,239,2147483983,383,383,2147483983,239,383,287,2147484031,2147483983,0,0,0,0,0,0,0,0,0,0,0,0,0,0,0,0,0,0,0,0,0,193,0,0,0,195,210,229,229,229,234,235,0,0,0,0,0,0,0,0,0,0,0,0,0,0,0,0,0,0,0,0,0,0,0,0,0,0,0,0,0,0,0,0,0,0,0,0,0,0,0,0,0,0,0,0,0,0,0,0,0,0,0,0,0,0,0,0,0,0,0,0,0,0,0,0,0,203,0,0,0,224,226,2147483983,2147483983,287,383,239,335,2147483935,287,2147483983,383,2147483935,2147484031,2147483887,383,2147483935,287,335,335,287,335,383,2147483935,0,0,2147483887,287,2147483887,0,335,2147483935,2147483887,239,335,2147484031,239,383,0,0,0,0,0,0,0,0,0,0,0,0,0,0,0,0,2147483935,287,2147483983,335,335,2147483887,235,0,0,0,0,0,0,0,0,0,0,0,0,0,0,0,0,0,0,0,0,0,0,0,0,0,0,0,0,0,0,0,0,0,0,0,0,0,0,0,0,0,0,0,0,0,0,0,0,0,0,0,0,0,0,0,0,0,0,0,0,0,0,0,0,0,0,0,0,0,0,0,0,0,0,0,0,203,224,224,226,239,0,0,2147484031,2147484031,2147484031,2147483887,335,287,2147483983,287,2147483887,287,335,2147483935,2147484031,239,287,2147483887,2147483887,287,2147484031,2147483887,335,335,2147484031,383,383,2147483935,0,0,2147483935,2147483983,2147484031,239,239,0,0,0,0,0,0,0,0,0,0,0,2147483935,287,2147484031,2147483887,287,287,239,239,2147484031,2147484031,287,383,2147483935,2147483935,2147483887,239,0,0,0,0,0,0,0,0,0,0,0,0,0,0,0,0,0,0,0,0,0,0,0,0,0,0,0,0,0,0,0,0,0,0,0,0,0,0,0,0,0,0,0,0,0,0,0,0,0,0,0,0,0,0,0,0,0,0,0,0,0,0,0,0,0,0,0,0,0,0,0,0,0,0,0,0,203,226,287,287,383,2147483935,0,0,0,2147483935,287,335,335,287,287,335,383,2147484031,2147483935,335,2147483983,335,2147483983,383,2147484031,383,2147483887,2147483935,287,2147484031,2147484031,239,383,383,2147483935,383,2147484031,0,0,0,0,0,0,0,0,0,0,335,2147483935,2147484031,2147483887,2147483983,2147483887,287,2147483887,2147483887,2147483983,239,383,287,2147483887,335,2147483935,2147484031,287,335,0,0,0,0,0,0,0,0,0,0,0,0,0,0,0,0,0,0,0,0,0,0,0,0,0,0,0,0,0,0,0,0,0,0,0,0,0,0,0,0,0,0,0,0,0,0,0,0,0,0,0,0,0,0,0,0,0,0,0,0,0,0,0,0,0,0,0,0,0,0,0,0,0,0,0,0,0,203,226,2147484031,239,2147483983,2147483935,2147483935,2147483887,0,0,239,335,2147483887,383,2147483983,2147483935,383,239,287,239,2147483935,2147483935,2147483887,2147484031,2147483935,335,239,2147483935,2147483887,2147484031,2147484031,2147483983,239,287,0,0,0,0,0,0,0,0,0,3781,3781,3781,3781,3781,3781,3781,3786,239,335,2147483935,2147483935,2147484031,287,287,383,239,335,335,2147483935,2147484031,383,237,0,0,0,0,0,0,0,0,0,0,0,0,0,0,0,0,0,0,0,0,0,0,0,0,0,0,0,0,0,0,0,0,0,0,0,0,0,0,0,0,0,0,0,0,0,0,0,0,0,0,0,0,0,0,0,0,0,0,0,0,0,0,0,0,0,0,0,0,0,0,0,0,0,0,0,0,0,0,197,234,239,239,239,287,383,239,0,0,0,335,335,335,239,2147484031,287,2147483983,2147483983,2147483983,2147483935,287,239,383,287,2147483983,2147483983,287,287,0,0,0,0,0,0,0,0,0,0,3781,3781,3779,0,0,0,0,0,0,0,0,3749,3781,3781,3786,2147484031,335,2147483935,287,2147483983,2147483887,2147483983,2147483887,0,0,0,0,0,0,0,0,0,0,0,0,0,0,0,0,0,0,0,0,0,0,0,0,0,0,0,0,0,0,0,0,0,0,0,0,0,0,0,0,0,0,0,0,0,0,0,0,0,0,0,0,0,0,0,0,0,0,0,0,0,0,0,0,0,0,0,0,0,0,0,0,0,0,0,0,0,0,0,0,0,0,0,197,234,2147484031,383,2147483983,2147483935,2147483887,2147484031,0,2147484031,2147483983,2147484031,239,2147483935,239,383,383,2147484031,287,335,2147484031,287,383,0,0,0,0,0,0,0,0,0,0,0,229,229,229,3779,0,0,0,0,0,0,0,0,0,0,0,0,0,0,3749,3786,237,229,229,229,234,0,0,0,0,0,0,0,0,0,0,0,0,0,0,0,0,0,0,0,0,0,0,0,0,0,0,0,0,0,0,0,0,0,0,0,0,0,0,0,0,0,0,0,0,0,0,0,0,0,0,0,0,0,0,0,0,0,0,0,0,0,0,0,0,0,0,0,0,0,0,0,0,0,0,0,0,0,0,0,0,0,0,0,0,0,0,205,2147484031,383,2147484031,239,2147483983,287,2147483935,2147483983,335,2147484031,2147484031,0,0,0,0,0,0,0,0,0,0,0,0,0,0,0,0,237,229,229,227,0,0,0,0,0,0,0,0,0,0,0,0,0,0,0,0,0,0,0,0,3749,227,0,0,0,0,0,0,0,0,0,0,0,0,0,0,0,0,0,0,0,0,0,0,0,0,0,0,0,0,0,0,0,0,0,0,0,0,0,0,0,0,0,0,0,0,0,0,0,0,0,0,0,0,0,0,0,0,0,0,0,0,0,0,0,0,0,0,0,0,0,0,0,0,0,0,0,0,0,0,0,0,0,0,0,0,0,0,0,0,0,0,0,0,0,0,0,0,0,0,0,0,0,0,0,0,0,0,0,0,0,0,0,0,0,237,229,229,229,229,227,0,0,0,0,0,0,0,0,0,0,0,0,0,0,0,0,0,0,0,0,0,0,0,0,0,0,0,0,0,0,0,0,0,0,0,0,0,0,0,0,0,0,0,0,0,0,0,0,0,0,0,0,0,0,0,0,0,0,0,0,0,0,0,0,0,0,0,0,0,0,0,0,0,0,0,0,0,0,0,0,0,0,0,0,0,0,0,0,0,0,0,0,0,0,0,0,0,0,0,0,0,0,0,0,0,0,0,0,0,0,0,0,0,0,0,0,0,0,0,0,0,0,0,0,0,0,0,0,197,229,229,229,229,229,229,229,229,229,227,0,0,0,0,0,0,0,0,0,0,0,0,0,0,0,0,0,0,0,0,0,0,0,0,0,0,0,0,0,0,0,0,0,0,0,0,0,0,0,0,0,0,0,0,0,0,0,0,0,0,0,0,0,0,0,0,0,0,0,0,0,0,0,0,0,0,0,0,0,0,0,0,0,0,0,0,0,0,0,0,0,0,0,0,0,0,0,0,0,0,0,0,0,0,0,0,0,0,0,0,0,0,0,0,0,0,0,0,0,0,0,0,0,0,0,0,0,0,0,0,0,0,0,0,0,0,0,0,0,0,0,0,0,0,0,0,0,0,0,0,0,0,0,0,0,0,0,0,0,0,0,0,0,0,0,0,0,0,0,0,0,0,0,0,0,0,0,0,0,0,0,0,0,0,0,0,0,0,0,0,0,0,0,0,0,0,0,0,0,0,0,0,0,0,0,0,0,0,0,0,0,0,0,0,0,0,0,0,0,0,0,0,0,0,0,0,0,0,0,0,0,0,0,0,0,0,0,0,0,0,0,0,0,0,0,0,0,0,0,0,0,0,0,0,0,0,0,0,0,0,0,0,0,0,0,0,0,0,0,0,0,0,0,0,0,0,0,0,0,0,0,0,0,0,0,0,0,0,0,0,0,0,0,0,0,0,0,0,0,0,0,0,0,0,0,0,0,0,0,0,0,0,0,0,0,0,0,0,0,0,0,0,0,0,0,0,0,0,0,0,0,0,0,0,0,0,0,0,0,0,0,0,0,0,0,0,0,0,0,0,0,0,0,0,0,0,0,0,0,0,0,0,0,0,0,0,0,0,0,0,0,0,0,0,0,0,0,0,0,0,0,0,0,0,0,0,0,0,0,0,0,0,0,0,0,0,0,0,0,0,0,0,0,0,0,0,0,0,0,0,0,0,0,0,0,0,0,0,0,0,0,0,0,0,0,0,0,0,0,0,0,0,0,0,0,0,0,0,0,0,0,0,0,0,0,0,0,0,0,0,0,0,0,0,0,0,0,0,0,0,0,0,0,0,0,0,0,0,0,0,0,0,0,0,0,0,0,0,0,0,0,0,0,0,0,0,0,0,0,0,0,0,0,0,0,0,0,0,0,0,0,0,0,0,0,0,0,0,0,0,0,0,0,0,0,0,0,0,0,0,0,0,0,0,0,0,0,0,0,0,0,0,0,0,0,0,0,0,0,0,0,0,0,0,0,0,0,0,0,0,0,0,0,0,0,0,0,0,0,0,0,0,0,0,0,0,0,0,0,0,0,0,0,0,0,0,0,0,0,0,0,0,0,0,0,0,0,0,0,0,0,0,0,0,0,0,0,0,0,0,0,0,0,0,0,0,0,0,0,0,0,0,0,0,0,0,0,0,0,0,0,0,0,0,0,0,0,0,0,0,0,0,0,0,0,0,0,0,0,0,0,0,0,0,0,0,0,0,0,0,0,0,0,0,0,0,0,0,0,0,0,0,0,0,0,0,0,0,0,0,0,0,0,0,0,0,0,0,0,0,0,0,0,0,0,0,0,0,0,0,0,0,0,0,0,0,0,0,0,0,0,0,0,0,0,0,0,0,0,0,0,0,0,0,0,0,0,0,0,0,0,0,0,0,0,0,0,0,0,0,0,0,0,0,0,0,0,0,0,0,0,0,0,0,0,0,0,0,0,0,0,0,0,0,0,0,0,0,0,0,0,0,0,0,0,0,0,0,0,0,0,0,0,0,0,0,0,0,0,0,0,0,0,0,0,0,0,0,0,0,0,0,0,0,0,0,0,0,0,0,0,0,0,0,0,0,0,0,0,0,0,0,0,0,0,0,0,0,0,0,0,0,0,0,0,0,0,0,0,0,0,0,0,0,0,0,0,0,0,0,0,0,0,0,0,0,0,0,0,0,0,0,0,0,0,0,0,0,0,0,0,0,0,0,0,0,0,0,0,0,0,0,0,0,0,0,0,0,0,0,0,0,0,0,0,0,0,0,0,0,0,0,0,0,0,0,0,0,0,0,0,0,0,0,0,0,0,0,0,0,0,0,0,0,0,0,0,0,0,0,0,0,0,0,0,0,0,0,0,0,0,0,0,0,0,0,0,0,0,0,0,0,0,0,0,0,0,0,0,0,0,0,0,0,0,0,0,0,0,0,0,0,0,0,0,0,0,0,0,0,0,0,0,0,0,0,0,0,0,0,0,0,0,0,0,0,0,0,0,0,0,0,0,0,0,0,0,0,0,0,0,0,0,0,0,0,0,0,0,0,0,0,0,0,0,0,0,0,0,0,0,0,0,0,0,0,0,0,0,0,0,0,0,0,0,0,0,0,0,0,0,0,0,0,0,0,0,0,0,0,0,0,0,0,0,0,0,0,0,0,0,0,0,0,0,0,0,0,0,0,0,0,0,0,0,0,0,0,0,0,0,0,0,0,0,0,0,0,0,0,0,0,0,0,0,0,0,0,0,0,0,0,0,0,0,0,0,0,0,0,0,0,0,0,0,0,0,0,0,0,0,0,0,0,0,0,0,0,0,0,0,0,0,0,0,0,0,0,0,0,0,0,0,0,0,0,0,0,0,0,0,0,0,0,0,0,0,0,0,0,0,0,0,0,0,0,0,0,0,0,0,0,0,0,0,0,0,0,0,0,0,0,0,0,0,0,0,0,0,0,0,0,0,0,0,0,0,0,0,0,0,0,0,0,0,0,0,0,0,0,0,0,0,0,0,0,0,0,0,0,0,0,0,0,0,0,0,0,0,0,0,0,0,0,0,0,0,0,0,0,0,0,0,0,0,0,0,0,0,0,0,0,0,0,0,0,0,0,0,0,0,0,0,0,0,0,0,0,0,0,0,0,0,0,0,0,0,0,0,0,0,0,0,0,0,0,0,0,0,0,0,0,0,0,0,0,0,0,0,0,0,0,0,0,0,0,0,0,0,0,0,0,0,0,0,0,0,0,0,0,0,0,0,0,0,0,0,0,0,0,0,0,0,0,0,0,0,0,0,0,0,0,0,0,0,0,0,0,0,0,0,0,0,0,0,0,0,0,0,0,0,0,0,0,0,0,0,0,0,0,0,0,0,0,0,0,0,0,0,0,0,0,0,0,0,0,0,0,0,0,0,0,0,0,0,0,0,0,0,0,0,0,0,0,0,0,0,0,0,0,0,0,0,0,0,0,0,0,0,0,0,0,0,0,0,0,0,0,0,0,0,0,0,0,0,0,0,0,0,0,0,0,0,0,0,0,0,0,0,0,0,0,0,0,0,0,0,0,0,0,0,0,0,0,0,0,0,0,0,0,0,0,0,0,0,0,0,0,0,0,0,0,0,0,0,0,0,0,0,0,0,0,0,0,0,0,0,0,0,0,0,0,0,0,0,0,0,0,0,0,0,0,0,0,0,0,0,0,0,0,0,0,0,0,0,0,0,0,0,0,0,0,0,0,0,0,0,0,0,0,0,0,0,0,0,0,0,0,0,0,0,0,0,0,0,0,0,0,0,0,0,0,0,0,0,0,0,0,0,0,0,0,0,0,0,0,0,0,0,0,0,0,0,0,0,0,0,0,0,0,0,0,0,0,0,0,0,0,0,0,0,0,0,0,0,0,0,0,0,0,0,0,0,0,0,0,0,0,0,0,0,0,0,0,0,0,0,0,0,0,0,0,0,0,0,0,0,0,0,0,0,0,0,0,0,0,0,0,0,0,0,0,0,0,0,0,0,0,0,0,0,0,0,0,0,0,0,0,0,0,0,0,0,0,0,0,0,0,0,0,0,0,0,0,0,0,0,0,0,0,0,0,0,0,0,0,0,0,0,0,0,0,0,0,0,0,0,0,0,0,0,0,0,0,0,0,0,0,0,0,0,0,0,0,0,0,0,0,0,0,0,0,0,0,0,0,0,0,0,0,0,0,0,0,0,0,0,0,0,0,0,0,0,0,0,0,0,0,0,0,0,0,0,0,0,0,0,0,0,0,0,0,0,0,0,0,0,0,0,0,0,0,0,0,0,0,0,0,0,0,0,0,0,0,0,0,0,0,0,0,0,0,0,0,0,0,0,0,0,0,0,0,0,0,0,0,0,0,0,0,0,0,0,0,0,0,0,0,0,0,0,0,0,0,0,0,0,0,0,0,0,0,0,0,0,0,0,0,0,0,0,0,0,0,0,0,0,0,0,0,0,0,0,0,0,0,0,0,0,0,0,0,0,0,0,0,0,0,0,0,0,0,0,0,0,0,0,0,0,0,0,0,0,0,0,0,0,0,0,0,0,0,0,0,0,0,0,0,0,0,0,0,0,0,0,0,0,0,0,0,0,0,0,0,0,0,0,0,0,0,0,0,0,0,0,0,0,0,0,0,0,0,0,0,0,0,0,0,0,0,0,0,0,0,0,0,0,0,0,0,0,0,0,0,0,0,0,0,0,0,0,0,0,0,0,0,0,0,0,0,0,0,0,0,0,0,0,0,0,0,0,0,0,0,0,0,0,0,0,0,0,0,0,0,0,0,0,0,0,0,0,0,0,0,0,0,0,0,0,0,0,0,0,0,0,0,0,0,0,0,0,0,0,0,0,0,0,0,0,0,0,0,0,0,0,0,0,0,0,0,0,0,0,0,0,0,0,0,0,0,0,0,0,0,0,0,0,0,0,0,0,0,0,0,0,0,0,0,0,0,0,0,0,0,0,0,0,0,0,0,0,0,0,0,0,0,0,0,0,0,0,0,0,0,0,0,0,0,0,0,0,0,0,0,0,0,0,0,0,0,0,0,0,0,0,0,0,0,0,0,0,0,0,0,0,0,0,0,0,0,0,0,0,0,0,0,0,0,0,0,0,0,0,0,0,0,0,0,0,0,0,0,0,0,0,0,0,0,0,0,0,0,0,0,0,0,0,0,0,0,0,0,0,0,0,0,0,0,0,0,0,0,0,0,0,0,0,0,0,0,0,0,0,0,0,0,0,0,0,0,0,0,0,0,0,0,0,0,0,0,0,0,0,0,0,0,0,0,0,0,0,0,0,0,0,0,0,0,0,0,0,0,0,0,0,0,0,0,0,0,0,0,0,0,0,0,0,0,0,0,0,0,0,0,0,0,0,0,0,0,0,0,0,0,0,0,0,0,0,0,0,0,0,0,0,0,0,0,0,0,0,0,0,0,0,0,0,0,0,0,0,0,0,0,0,0,0,0,0,0,0,0,0,0,0,0,0,0,0,0,0,0,0,0,0,0,0,0,0,0,0,0,0,0,0,0,0,0,0,0,0,0,0,0,0,0,0,0,0,0,0,0,0,0,0,0,0,0,0,0,0,0,0,0,0,0,0,0,0,0,0,0,0,0,0,0,0,0,0,0,0,0,0,0,0,0,0,0,0,0,0,0,0,0,0,0,0,0,0,0,0,0,0,0,0,0,0,0,0,0,0,0,0,0,0,0,0,0,0,0,0,0,0,0,0,0,0,0,0,0,0,0,0,0,0,0,0,0,0,0,0,0,0,0,0,0,0,0,0,0,0,0,0,0,0,0,0,0,0,0,0,0,0,0,0,0,0,0,0,0,0,0,0,0,0,0,0,0,0,0,0,0,0,0,0,0,0,0,0,0,0,0,0,0,0,0,0,0,0,0,0,0,0,0,0,0,0,0,0,0,0,0,0,0,0,0,0,0,0,0,0,0,0,0,0,0,0,0,0,0,0,0,0,0,0,0,0,0,0,0,0,0,0,0,0,0,0,0,0,0,0,0,0,0]},{"id":4,"name":"scrub","type":"tilelayer","x":0,"y":0,"opacity":1,"visible":true,"width":144,"height":96,"data":[0,0,0,0,0,0,0,0,0,0,0,0,0,0,0,0,0,0,0,0,0,0,0,0,0,0,0,0,0,0,0,0,0,0,0,0,0,0,0,0,0,0,0,0,0,0,0,0,0,0,0,0,0,0,0,0,0,0,0,0,0,0,0,0,0,0,0,0,0,0,0,0,0,0,0,0,0,0,0,0,0,0,0,0,0,0,0,0,0,0,0,0,0,0,0,0,0,0,0,0,0,0,0,0,0,0,0,0,0,0,0,0,0,0,0,0,0,0,0,0,0,0,0,0,0,0,0,0,0,0,0,0,0,0,0,0,0,0,0,0,0,0,0,0,0,0,0,0,0,0,0,0,0,0,0,0,0,0,0,0,0,0,0,0,0,0,0,0,0,0,0,0,0,0,0,0,0,0,0,0,0,0,0,0,0,0,0,0,0,0,0,0,0,0,0,0,0,0,0,0,0,0,0,0,0,0,0,0,0,0,0,0,0,0,0,0,0,0,0,0,0,0,0,0,0,0,0,0,0,0,0,0,0,0,0,0,0,0,0,0,0,0,0,0,0,0,0,0,0,0,0,0,0,0,0,0,0,0,0,0,0,0,0,0,0,0,0,0,0,0,0,0,0,0,0,0,0,0,0,0,0,0,0,0,0,0,0,0,0,0,0,0,0,0,0,0,0,0,0,0,0,0,0,0,0,0,0,0,0,0,0,0,0,0,0,0,0,0,0,0,0,0,0,0,0,0,0,0,0,0,0,0,0,0,0,0,0,0,0,0,0,0,0,0,0,0,0,0,0,0,0,0,0,0,0,0,0,0,0,0,0,0,0,0,0,0,0,0,0,0,0,0,0,0,0,0,0,0,0,0,0,0,0,0,0,0,0,0,0,0,0,0,0,0,0,0,0,0,0,0,0,0,0,0,0,0,0,0,0,0,0,0,0,0,0,0,0,0,0,0,0,0,0,0,0,0,0,0,0,0,0,0,0,0,0,0,0,0,0,0,0,0,0,0,0,0,0,0,0,0,0,0,0,0,0,0,0,0,0,0,0,0,0,0,0,0,0,0,0,0,0,0,0,0,0,0,0,0,0,0,0,0,0,0,0,0,0,0,0,0,0,0,0,0,0,0,0,0,0,0,0,0,0,0,0,0,0,0,0,0,0,0,0,0,0,0,0,0,0,0,0,0,0,0,0,0,0,0,0,0,0,0,0,0,0,0,0,0,0,0,0,0,0,0,0,0,0,0,0,0,0,0,0,0,0,0,0,0,0,0,0,0,0,0,0,0,0,0,0,0,0,0,0,0,0,0,0,0,0,0,0,0,0,0,0,0,0,0,0,0,0,0,0,0,0,0,0,0,0,0,0,0,0,0,0,0,0,0,0,0,0,0,0,0,0,0,0,0,0,0,0,0,0,0,0,0,0,0,0,0,0,0,0,0,0,0,0,0,0,0,0,0,0,0,0,0,0,0,0,0,0,0,0,0,0,0,0,0,0,0,0,0,0,0,0,0,0,0,0,0,0,0,0,0,0,0,0,0,0,0,0,0,0,0,0,0,0,0,0,0,0,0,0,0,0,0,0,0,0,0,0,0,0,0,0,0,0,0,0,0,0,0,0,0,0,0,0,0,0,0,0,0,0,0,0,0,0,0,0,0,0,0,0,0,0,0,0,0,0,0,0,0,0,0,0,0,0,0,0,0,0,0,0,0,0,0,0,0,0,0,0,0,0,0,0,0,0,0,0,0,0,0,0,0,0,0,0,0,0,0,0,0,0,0,0,0,0,0,0,0,0,0,0,0,0,0,0,0,0,0,0,0,0,0,0,0,0,0,0,0,0,0,0,0,0,0,0,0,0,0,0,0,0,0,0,0,0,0,0,0,0,0,0,0,0,0,0,0,0,0,0,0,0,0,0,0,0,0,0,0,0,0,0,0,0,0,0,0,0,0,0,0,0,0,0,0,0,0,0,0,0,0,0,0,0,0,0,0,0,0,0,0,0,0,0,0,0,0,0,0,0,0,0,0,0,0,0,0,0,0,0,0,0,0,0,0,0,0,0,0,0,0,0,0,0,0,0,0,0,0,0,0,0,0,0,0,0,0,0,0,0,0,0,0,0,0,0,0,0,0,0,0,0,0,0,0,0,0,0,0,0,0,0,0,0,0,0,0,0,0,0,0,0,0,0,0,0,0,0,0,0,0,0,0,0,0,0,0,0,0,0,0,0,0,0,0,0,0,0,0,0,0,0,0,0,0,0,0,0,0,0,0,0,0,0,0,0,0,0,0,0,0,0,0,0,0,0,0,0,0,0,0,0,0,0,0,0,0,0,0,0,0,0,0,0,0,0,0,0,0,0,0,0,0,0,0,0,0,0,0,0,0,0,0,0,0,0,0,0,0,0,0,0,0,0,395,416,416,416,416,416,416,411,0,0,0,0,0,0,0,0,0,0,0,0,0,0,0,0,0,0,0,0,0,0,0,0,0,0,0,0,0,0,0,0,0,0,0,0,0,0,0,0,0,0,0,0,0,0,0,0,0,0,0,0,0,0,0,0,0,0,0,0,0,0,0,0,0,0,0,0,0,0,0,0,0,0,0,0,0,0,0,0,0,0,0,0,0,0,0,0,0,0,0,0,0,0,0,0,0,0,0,0,0,0,0,0,0,0,0,0,0,0,0,0,0,0,0,0,0,0,0,0,0,0,0,0,0,0,0,0,0,0,0,0,395,416,416,416,418,2147484175,2147484079,575,431,2147484175,2147484175,430,0,0,0,416,416,411,0,0,0,0,0,0,0,0,0,0,0,0,0,0,0,0,0,0,0,0,0,0,0,0,0,0,0,0,0,0,0,0,0,0,0,0,0,0,0,0,0,0,0,0,0,0,0,0,0,0,0,0,0,0,0,0,0,0,0,0,0,0,0,0,0,0,0,0,0,0,0,0,0,0,0,0,0,0,0,0,0,0,0,0,0,0,0,0,0,0,0,0,0,0,0,0,0,0,0,0,0,0,0,0,0,0,0,0,0,0,0,0,0,0,0,0,0,0,0,0,0,0,0,0,0,395,418,2147484223,2147484175,527,575,575,575,431,479,527,2147484127,2147484127,0,0,0,527,431,430,411,0,0,0,0,0,0,0,0,0,0,0,0,0,0,0,0,0,0,0,0,0,0,0,0,0,0,0,0,0,0,0,0,0,0,0,0,0,0,0,0,0,0,0,0,0,0,0,0,0,0,0,0,0,0,0,0,0,0,0,0,0,0,0,0,0,0,0,0,0,0,0,0,0,0,0,0,0,0,0,0,0,0,0,0,0,0,0,0,0,0,0,0,0,0,0,0,0,0,0,0,0,0,0,0,0,0,0,0,0,0,0,0,0,0,0,0,0,0,0,0,0,0,0,395,418,2147484127,479,527,2147484127,479,2147484127,2147484079,575,479,479,527,0,0,0,2147484127,2147484175,527,479,430,411,0,0,0,0,0,0,0,0,0,0,0,0,0,0,0,0,0,0,0,0,0,0,0,0,0,0,0,0,0,0,0,0,0,0,0,0,0,0,0,0,0,0,0,0,0,0,0,0,0,0,0,0,0,0,0,0,0,0,0,0,0,0,0,0,0,0,0,0,0,0,0,0,0,0,0,0,0,0,0,0,0,0,0,0,0,0,0,0,0,0,0,0,0,0,0,0,0,0,0,0,0,0,0,0,0,0,0,0,0,0,0,0,0,0,0,0,0,0,0,0,0,395,418,479,479,2147484175,527,2147484223,575,2147484079,431,2147484127,479,2147484175,527,0,0,0,2147484079,2147484127,2147484127,2147484175,527,430,411,0,0,0,0,0,0,0,0,0,0,0,0,0,0,0,0,0,0,0,0,0,0,0,0,0,0,0,0,0,0,0,0,0,0,0,0,0,0,0,0,0,0,0,0,0,0,0,0,0,0,0,0,0,0,0,0,0,0,0,0,0,0,0,0,0,0,0,0,0,0,0,0,0,0,0,0,0,0,0,0,0,0,0,0,0,0,0,0,0,0,0,0,0,0,0,0,0,0,0,0,0,0,0,0,0,0,0,0,0,0,0,0,0,0,0,0,0,0,0,0,389,424,421,426,2147484127,527,2147484223,431,431,527,2147484223,431,479,575,0,0,0,2147484079,431,527,479,2147484079,429,419,0,0,0,0,0,0,0,0,0,0,0,0,0,0,0,0,0,0,0,0,0,0,0,0,0,0,0,0,0,0,0,0,0,0,0,0,0,0,0,0,0,0,0,0,0,0,0,0,0,0,0,0,0,0,0,0,0,0,0,0,0,0,0,0,0,0,0,0,0,0,0,0,0,0,0,0,0,0,0,0,0,0,0,0,0,0,0,0,0,0,0,0,0,0,0,0,0,0,0,0,0,0,0,0,0,0,0,0,0,0,0,0,0,0,0,0,0,0,0,0,0,386,0,389,426,2147484127,2147484127,431,2147484127,575,2147484175,2147484175,479,0,0,0,431,527,2147484175,2147484127,527,429,419,0,0,0,0,0,0,0,0,0,0,0,0,0,0,0,0,0,0,0,0,0,0,0,0,0,0,0,0,0,0,0,0,0,0,0,0,0,0,0,0,0,0,0,0,0,0,0,0,0,0,0,0,0,0,0,0,0,0,0,0,0,0,0,0,0,0,0,0,0,0,0,0,0,0,0,0,0,0,0,0,0,0,0,0,0,0,0,0,0,0,0,0,0,0,0,0,0,0,0,0,0,0,0,0,0,0,0,0,0,0,0,0,0,0,0,0,0,0,0,0,0,0,0,0,0,389,426,2147484079,2147484223,527,2147484127,2147484223,431,575,0,0,0,527,2147484223,479,2147484175,429,419,0,0,0,0,0,0,0,0,0,0,0,0,0,0,0,0,0,0,0,0,0,0,0,0,0,0,0,0,0,0,0,0,0,0,0,0,0,0,0,0,0,0,0,0,0,0,0,0,0,0,0,0,0,0,0,0,0,0,0,0,0,0,0,0,0,0,0,0,0,0,0,0,0,0,0,0,0,0,0,0,0,0,0,0,0,0,0,0,0,0,0,0,0,0,0,0,0,0,0,0,0,0,0,0,0,0,0,0,0,0,0,0,0,0,0,0,0,0,0,0,0,0,0,0,0,0,0,389,421,426,575,2147484079,2147484079,2147484175,431,0,0,0,429,421,421,421,419,0,0,0,0,0,0,0,0,0,0,0,0,0,0,0,0,0,0,0,0,0,0,0,0,0,0,0,0,0,0,0,0,0,0,0,0,0,0,0,0,0,0,0,0,0,0,0,0,0,0,0,0,0,0,0,0,0,0,0,0,0,0,0,0,0,0,0,0,0,0,0,0,0,0,0,0,0,0,0,0,0,0,0,0,0,0,0,0,0,0,0,0,0,0,0,0,0,0,0,0,0,0,0,0,0,0,0,0,0,0,0,0,0,0,0,0,0,0,0,0,0,0,0,0,0,0,0,0,0,0,389,421,421,421,421,0,0,0,0,419,0,0,0,0,0,0,0,0,0,0,0,0,0,0,0,0,0,0,0,0,0,0,0,0,0,0,0,0,0,0,0,0,0,0,0,0,0,0,0,0,0,0,0,0,0,0,0,0,0,0,0,0,0,0,0,0,0,0,0,0,0,0,0,0,0,0,0,0,0,0,0,0,0,0,0,0,0,0,0,0,0,0,0,0,0,0,0,0,0,0,0,0,0,0,0,0,0,0,0,0,0,0,0,0,0,0,0,0,0,0,0,0,0,0,0,0,0,0,0,0,0,0,0,0,0,0,0,0,0,0,0,0,0,0,0,0,0,0,0,0,0,0,0,0,0,0,0,0,0,0,0,0,0,0,0,0,0,0,0,0,0,0,0,0,0,0,0,0,0,0,0,0,0,0,0,0,0,0,0,0,0,0,0,0,0,0,0,0,0,0,0,0,0,0,0,0,0,0,0,0,0,0,0,0,0,0,0,0,0,0,0,0,0,0,0,0,0,0,0,0,0,0,0,0,0,0,0,0,0,0,0,0,0,0,0,0,0,0,0,0,0,0,0,0,0,0,0,0,0,0,0,0,0,0,0,0,0,0,0,0,0,0,0,0,0,0,0,0,0,0,0,0,0,0,0,0,0,0,0,0,0,0,0,0,0,0,0,0,0,0,0,0,0,0,0,0,0,0,0,0,0,0,0,0,0,0,0,0,0,0,0,0,0,0,0,0,0,0,0,0,0,0,0,0,0,0,0,0,0,0,0,0,0,0,0,0,0,0,0,0,0,0,0,0,0,0,0,0,0,0,0,0,0,0,0,0,0,0,0,0,0,0,0,0,0,0,0,0,0,0,0,0,0,0,0,0,0,0,0,0,0,0,0,0,0,0,0,0,0,0,0,0,0,0,0,0,0,0,0,0,0,0,0,0,0,0,0,0,0,0,0,0,0,0,0,0,0,0,0,0,0,0,0,0,0,0,0,0,0,0,0,0,0,0,0,0,0,0,0,0,0,0,0,0,0,0,0,0,0,0,0,0,0,0,0,0,0,0,0,0,0,0,0,0,0,0,0,0,0,0,0,0,0,0,0,0,0,0,0,0,0,0,0,0,0,0,0,0,0,0,0,0,0,0,0,0,0,0,0,0,0,0,0,0,0,0,0,0,0,0,0,0,0,0,0,0,0,0,0,0,0,0,0,0,0,0,0,0,0,0,0,0,0,0,0,0,0,0,0,0,0,0,0,0,0,0,0,0,0,0,0,0,0,0,0,0,0,0,0,0,0,0,0,0,0,0,0,0,0,0,0,0,0,0,0,0,0,0,0,0,0,0,0,0,0,0,0,0,0,0,0,0,0,0,0,0,0,0,0,0,0,0,0,0,0,0,0,0,0,0,0,0,0,0,0,0,0,0,0,0,0,0,0,0,0,0,0,0,0,0,0,0,0,0,0,0,0,0,0,0,0,0,0,0,0,0,0,0,0,0,0,0,0,0,0,0,0,0,0,0,0,0,0,0,0,0,0,0,0,0,0,0,0,0,0,0,0,0,0,0,0,0,0,0,0,0,0,0,0,0,0,0,0,0,0,0,0,0,0,0,0,0,0,0,0,0,0,0,0,0,0,0,0,0,0,0,0,0,0,0,0,0,0,0,0,0,0,0,0,0,0,0,0,0,0,0,0,0,0,0,0,0,0,0,0,0,0,0,0,0,0,0,0,0,0,0,0,0,0,0,0,0,0,0,0,0,0,0,0,0,0,0,0,0,0,0,0,0,0,0,0,0,0,0,0,0,0,0,0,0,0,0,0,0,0,0,0,0,0,0,0,0,0,0,0,0,0,0,0,0,0,0,0,0,0,0,0,0,0,0,0,0,0,0,0,0,0,0,0,0,0,0,0,0,0,0,0,0,0,0,0,0,0,0,0,0,0,0,0,0,0,0,0,0,0,0,0,0,0,0,0,0,0,0,0,0,0,0,0,0,0,0,0,0,0,0,0,0,0,0,0,0,0,0,0,0,0,0,0,0,0,0,0,0,0,0,0,0,0,0,0,0,0,0,0,0,0,0,0,0,0,0,0,0,0,0,0,0,0,0,0,0,0,0,0,0,0,0,0,0,0,0,0,0,0,0,0,0,0,0,0,0,0,0,0,0,0,0,0,0,0,0,0,0,0,0,0,0,0,0,0,0,0,0,0,0,0,0,0,0,0,0,0,0,0,0,0,0,0,0,0,0,0,0,0,0,0,0,0,0,0,0,0,0,0,0,0,0,0,0,0,0,0,0,0,0,0,0,0,0,0,0,0,0,0,0,0,0,0,0,0,0,0,0,0,0,0,0,0,0,0,0,0,0,0,0,0,0,0,0,0,0,0,0,0,0,0,0,0,0,0,0,0,0,0,0,0,0,0,0,0,0,0,0,0,0,0,0,0,0,0,0,0,0,0,0,0,0,0,0,0,0,0,0,0,0,0,0,0,0,0,0,0,0,0,0,0,0,0,0,0,0,0,0,0,0,0,0,0,0,0,0,0,0,0,0,0,0,0,0,0,0,0,0,0,0,0,0,0,0,0,0,0,0,0,0,0,0,0,0,0,0,0,0,0,0,0,0,0,0,0,0,0,0,0,0,0,0,0,0,0,0,0,0,0,0,0,0,0,0,0,0,0,0,0,0,0,0,0,0,0,0,0,0,0,0,0,0,0,0,0,0,0,0,0,0,0,0,0,0,0,0,0,0,0,0,0,0,0,0,0,0,0,0,0,0,0,0,0,0,0,0,0,0,0,0,0,0,0,0,0,0,0,0,0,0,0,0,0,0,0,0,0,0,0,0,0,0,0,0,0,0,0,0,0,0,0,0,0,0,0,0,0,0,0,0,0,0,0,0,0,0,0,0,0,0,0,0,0,0,0,0,0,0,0,0,0,0,0,0,0,0,0,0,0,0,0,0,0,0,0,0,0,0,0,0,0,0,0,0,0,0,0,0,0,0,0,0,0,0,0,0,0,0,0,0,0,0,0,0,0,0,0,0,0,0,0,0,0,0,0,0,0,0,0,0,0,0,0,0,0,0,0,0,0,0,0,0,0,0,0,0,0,0,0,0,0,0,0,0,0,0,0,0,0,0,0,0,0,0,0,0,0,0,0,0,0,0,0,0,0,0,0,0,0,0,0,0,0,0,0,0,0,0,0,0,0,0,0,0,0,0,0,0,0,0,0,0,0,0,0,0,0,0,0,0,0,0,0,0,0,0,0,0,0,0,0,0,0,0,0,0,0,0,0,0,0,0,0,0,0,0,0,0,395,416,416,416,416,3824,3824,3824,3824,3819,0,0,0,0,0,0,0,0,0,0,0,0,0,0,0,0,0,0,0,0,0,0,0,0,0,0,0,0,0,0,0,0,0,0,0,0,0,0,0,0,0,0,0,0,0,0,0,0,0,0,0,0,0,0,0,0,0,0,0,0,0,0,0,0,0,0,0,0,0,0,0,0,0,0,0,0,0,0,0,0,0,0,0,0,0,0,0,0,0,0,0,0,0,0,0,0,0,0,0,0,0,0,0,0,0,0,0,0,0,0,0,0,0,0,0,0,0,0,0,0,0,0,0,0,0,0,0,0,0,0,0,0,395,416,418,2147484223,479,2147484079,527,2147484175,2147484079,431,479,3838,3824,3824,3819,0,0,0,0,0,0,0,0,0,0,0,0,0,0,0,0,0,0,0,0,0,0,0,0,0,0,0,0,0,0,0,0,0,0,0,0,0,0,0,0,0,0,0,0,0,0,0,0,0,0,0,0,0,0,0,0,0,0,0,0,0,0,0,0,0,0,0,0,0,0,0,0,0,0,0,0,0,0,0,0,0,0,0,0,0,0,0,0,0,0,0,0,0,0,0,0,0,0,0,0,0,0,0,0,0,0,0,0,0,0,0,0,0,0,0,0,0,0,0,0,0,0,0,0,0,0,0,0,0,0,0,527,2147484127,479,2147484079,479,2147484175,431,479,479,2147484223,479,575,430,411,0,0,0,0,0,0,0,0,0,0,0,0,0,0,0,0,0,0,0,0,0,0,0,0,0,0,0,0,0,0,0,0,0,0,0,0,0,0,0,0,0,0,0,0,0,0,0,0,0,0,0,0,0,0,0,0,0,0,0,0,0,0,0,0,0,0,0,0,0,0,0,0,0,0,0,0,0,0,0,0,0,0,0,0,0,0,0,0,0,0,0,0,0,0,0,0,0,0,0,0,0,0,0,0,0,0,0,0,0,0,0,0,0,0,0,0,0,0,0,0,0,0,0,0,0,0,0,0,0,0,0,2147484127,2147484079,527,527,575,575,431,527,2147484079,2147484127,479,2147484079,430,411,0,0,0,0,0,0,0,0,0,0,0,0,0,0,0,0,0,0,0,0,0,0,0,0,0,0,0,0,0,0,0,0,0,0,0,0,0,0,0,0,0,0,0,0,0,0,0,0,0,0,0,0,0,0,0,0,0,0,0,0,0,0,0,0,0,0,0,0,0,0,0,0,0,0,0,0,0,0,0,0,0,0,0,0,0,0,0,0,0,0,0,0,0,0,0,0,0,0,0,0,0,0,0,0,0,0,0,0,0,0,0,0,0,0,0,0,0,0,0,0,0,0,0,0,0,0,0,0,0,0,2147484127,2147484175,479,2147484079,575,575,2147484223,527,575,2147484079,2147484223,2147484127,429,419,0,0,0,0,0,0,0,0,0,0,0,0,0,0,0,0,0,0,0,0,0,0,0,0,0,0,0,0,0,0,0,0,0,0,0,0,0,0,0,0,0,0,0,0,0,0,0,0,0,0,0,0,0,0,0,0,0,0,0,0,0,0,0,0,0,0,0,0,0,0,0,0,0,0,0,0,0,0,0,0,0,0,0,0,0,0,0,0,0,0,0,0,0,0,0,0,0,0,0,0,0,0,0,0,0,0,0,0,0,0,0,0,0,0,0,0,0,0,0,0,0,0,0,0,0,0,0,0,0,479,431,431,2147484079,2147484175,2147484175,575,479,479,2147484223,575,2147484223,2147484127,427,0,0,0,0,0,0,0,0,0,0,0,0,0,0,0,0,0,0,0,0,0,0,0,0,0,0,0,0,0,0,0,0,0,0,0,0,0,0,0,0,0,0,0,0,0,0,0,0,0,0,0,0,0,0,0,0,0,0,0,0,0,395,416,416,416,418,479,0,0,0,0,0,0,0,0,0,0,0,0,2147484079,427,0,0,0,0,0,0,0,0,0,395,416,416,416,416,416,418,0,0,0,0,0,0,0,0,0,0,0,0,0,0,0,0,0,0,0,0,0,0,0,0,0,0,0,0,0,0,0,389,421,426,2147484175,2147484079,527,431,2147484223,2147484223,2147484223,2147484175,429,421,421,426,0,0,0,0,0,0,0,0,0,0,0,0,0,0,0,0,0,0,0,0,0,0,0,0,0,0,0,0,0,0,0,0,0,0,0,0,0,0,0,0,0,0,0,0,0,0,0,0,0,0,0,0,0,0,0,0,0,0,0,0,395,416,418,2147484175,431,2147484223,2147484079,2147484127,2147484127,527,0,0,0,0,0,0,0,0,2147484223,2147484175,431,430,416,411,0,0,0,0,395,416,416,418,2147484127,2147484175,431,527,431,2147484079,2147484127,479,430,0,0,411,0,0,0,0,0,0,0,0,0,0,0,0,0,0,0,0,0,0,0,0,0,0,0,0,0,0,0,389,421,421,421,421,421,421,421,421,419,0,0,0,0,0,0,0,0,0,0,0,0,0,0,0,0,0,0,0,0,0,0,0,0,0,0,0,0,0,0,0,0,0,0,0,0,0,0,0,0,0,0,0,0,0,0,0,0,0,0,0,0,0,0,0,0,0,0,0,0,0,0,395,418,527,527,2147484127,2147484127,479,0,479,479,2147484079,2147484175,431,2147484079,2147484223,2147484223,2147484223,527,527,527,575,575,575,2147484223,430,411,0,0,395,418,2147484079,479,575,479,2147484223,2147484127,2147484079,479,2147484223,2147484079,2147484127,2147484079,0,0,0,411,0,0,0,0,0,0,0,0,0,0,0,0,0,0,0,0,0,0,0,0,0,0,0,0,0,0,0,0,0,0,0,0,0,0,0,0,0,0,0,0,0,0,0,0,0,0,0,0,0,0,0,0,0,0,0,0,0,0,0,0,0,0,0,0,0,0,0,0,0,0,0,0,0,0,0,0,0,0,0,0,0,0,0,0,0,0,0,0,0,0,0,0,0,0,0,0,0,395,418,431,2147484175,2147484127,2147484127,479,479,2147484175,0,2147484127,2147484223,527,479,2147484127,2147484127,2147484175,575,479,527,527,431,2147484127,2147484079,2147484175,479,430,416,416,418,2147484127,2147484223,2147484223,527,527,2147484079,2147484223,2147484175,527,2147484223,2147484223,2147484175,527,0,0,0,430,416,0,0,0,0,0,0,0,0,0,0,0,0,0,0,0,0,0,0,0,0,0,0,0,0,0,0,0,0,0,0,0,0,0,0,0,0,0,0,0,0,0,0,0,0,0,0,0,0,0,0,0,0,0,0,0,0,0,0,0,0,0,0,0,0,0,0,0,0,0,0,0,0,0,0,0,0,0,0,0,0,0,0,0,0,0,0,0,0,0,0,0,0,0,0,0,0,389,426,431,2147484079,2147484175,431,527,2147484175,527,2147484223,0,0,2147484127,479,2147484223,2147484223,2147484223,527,2147484223,431,2147484127,2147484127,2147484223,2147484223,575,2147484127,429,421,421,426,527,527,2147484175,2147484079,2147484223,2147484223,2147484127,575,2147484127,2147484127,2147484127,527,2147484223,0,0,0,575,2147484079,0,0,0,0,0,0,0,0,0,0,0,0,0,0,0,0,0,0,0,0,0,0,0,0,0,0,0,0,0,0,0,0,0,0,0,0,0,0,0,0,0,0,0,0,0,0,0,0,0,0,0,0,0,0,0,0,0,0,0,0,0,0,0,0,0,0,0,0,0,0,0,0,0,0,0,0,0,0,0,0,0,0,0,0,0,0,0,0,0,0,0,0,0,0,0,0,0,389,426,527,2147484175,2147484175,479,2147484223,527,479,431,0,0,527,2147484175,2147484079,2147484223,431,479,2147484079,2147484079,431,575,2147484127,2147484079,429,419,0,0,389,426,527,479,479,527,2147484079,2147484079,2147484079,2147484079,2147484175,431,479,2147484175,0,0,0,421,0,0,0,0,0,0,0,0,0,0,0,0,0,0,0,0,0,0,0,0,0,0,0,0,0,0,0,0,0,0,0,0,0,0,0,0,0,0,0,0,0,0,0,0,0,0,0,0,0,0,0,0,0,0,0,0,0,0,0,0,0,0,0,0,0,0,0,0,0,0,0,0,0,0,0,0,0,0,0,0,0,0,0,0,0,0,0,0,0,0,0,0,0,0,0,0,0,0,0,389,421,426,2147484223,2147484175,431,575,479,2147484079,527,2147484079,0,2147484127,431,575,479,575,2147484127,2147484079,575,527,429,421,419,0,0,0,0,389,421,421,426,527,2147484223,2147484079,431,431,2147484127,2147484127,527,2147484175,0,0,0,0,0,0,0,0,0,0,0,0,0,0,0,0,0,0,0,0,0,0,0,0,0,0,0,0,0,0,0,0,0,0,0,0,0,0,0,0,0,0,0,0,0,0,0,0,0,0,0,0,0,0,0,0,0,0,0,0,0,0,0,0,0,0,0,0,0,0,0,0,0,0,0,0,0,0,0,0,0,0,0,0,0,0,0,0,0,0,0,0,0,0,0,0,0,0,0,0,0,0,0,0,0,389,421,421,421,426,431,2147484175,431,431,2147484223,0,527,479,527,527,429,421,421,421,419,0,0,0,0,0,0,0,0,0,389,421,421,421,421,421,421,421,421,421,0,0,0,0,0,0,0,0,0,0,0,0,0,0,0,0,0,0,0,0,0,0,0,0,0,0,0,0,0,0,0,0,0,0,0,0,0,0,0,0,0,0,0,0,0,0,0,0,0,0,0,0,0,0,0,0,0,0,0,0,0,0,0,0,0,0,0,0,0,0,0,0,0,0,0,0,0,0,0,0,0,0,0,0,0,0,0,0,0,0,0,0,0,0,0,0,0,0,0,0,0,0,0,0,0,0,0,0,0,389,421,421,421,421,421,421,0,0,424,421,419,0,0,0,0,0,0,0,0,0,0,0,0,0,0,0,0,0,0,0,0,0,0,0,0,0,0,0,0,0,0,0,0,0,0,0,0,0,0,0,0,0,0,0,0,0,0,0,0,0,0,0,0,0,0,0,0,0,0,0,0,0,0,0,0,0,0,0,0,0,0,0,0,0,0,0,0,0,0,0,0,0,0,0,0,0,0,0,0,0,0,0,0,0,0,0,0,0,0,0,0,0,0,0,0,0,0,0,0,0,0,0,0,0,0,0,0,0,0,0,0,0,0,0,0,0,0,0,0,0,0,0,0,0,0,0,0,0,0,0,0,0,0,0,0,0,0,0,0,0,0,0,0,0,0,0,0,0,0,0,0,0,0,0,0,0,0,0,0,0,0,0,0,0,0,0,0,0,0,0,0,0,0,0,0,0,0,0,0,0,0,0,0,0,0,0,0,0,0,0,0,0,0,0,0,0,0,0,0,0,0,0,0,0,0,0,0,0,0,0,0,0,0,0,0,0,0,0,0,0,0,0,0,0,0,0,0,0,0,0,0,0,0,0,0,0,0,0,0,0,0,0,0,0,0,0,0,0,0,0,0,0,0,0,0,0,0,0,0,395,416,416,416,416,416,416,411,0,0,0,0,0,0,0,0,0,0,0,0,0,0,0,0,0,0,0,0,0,0,0,0,0,0,0,0,0,0,0,0,0,0,0,0,0,0,0,0,0,0,0,0,0,0,0,0,0,0,0,0,0,0,0,0,0,0,0,0,0,0,0,0,0,0,0,0,0,0,0,0,0,0,0,0,0,0,0,0,0,0,0,0,0,0,0,0,0,0,0,0,0,0,0,0,0,0,0,0,0,0,0,0,0,0,0,0,0,0,0,0,0,0,0,0,0,0,0,0,0,0,0,0,0,0,0,0,0,0,0,0,0,390,0,0,0,0,0,0,0,0,0,0,0,0,0,0,0,0,0,0,0,0,0,0,0,0,0,0,0,0,0,0,0,0,0,0,0,0,0,0,0,0,0,0,0,0,0,0,0,0,0,0,0,0,0,0,0,0,0,0,0,0,0,0,0,0,0,0,0,0,0,0,0,0,0,0,0,0,0,0,0,0,0,0,0,0,0,0,0,0,0,0,0,0,0,0,0,0,0,0,0,0,0,0,0,0,0,0,0,0,0,0,0,0,0,0,0,0,0,0,0,0,0,0,0,0,0,0,0,0,0,0,0,0,0,0,0,0,0,0,0,0,0,0,0,0,0,418,2147484223,2147484223,2147484175,2147484223,527,2147484079,2147484127,431,430,416,0,0,0,0,0,0,0,0,0,0,0,0,0,0,0,0,0,0,0,0,0,0,0,0,0,0,0,0,0,0,0,0,0,0,0,0,0,0,0,0,0,0,0,0,0,0,0,0,0,0,0,0,0,0,0,0,0,0,0,0,0,0,0,0,0,0,0,0,0,0,0,0,0,0,0,0,0,0,0,0,0,0,0,0,0,0,0,0,0,0,0,0,0,0,0,0,0,0,0,0,0,0,0,0,0,0,0,0,0,0,0,0,0,0,0,0,0,0,0,0,0,0,0,0,0,0,0,0,0,395,418,431,527,2147484127,2147484175,479,2147484079,431,2147484127,431,527,527,2147484079,575,430,0,0,0,0,0,0,0,0,0,0,0,0,0,0,0,0,0,0,0,0,0,0,0,0,0,0,0,0,0,0,0,0,0,0,0,0,0,0,0,0,0,0,0,0,0,0,0,0,0,0,0,0,0,0,0,0,0,0,0,0,0,0,0,0,0,0,0,0,0,0,0,0,0,0,0,0,0,0,0,0,0,0,0,0,0,0,0,0,0,0,0,0,0,0,0,0,0,0,0,0,0,0,0,0,0,0,0,0,0,0,0,0,0,0,0,0,0,0,0,0,0,0,0,0,0,0,0,0,389,426,575,527,479,2147484079,431,527,2147484223,2147484079,2147484223,2147484175,2147484175,2147484127,479,2147484223,429,419,0,0,0,0,0,0,0,0,0,0,0,0,0,0,0,0,0,0,0,0,0,0,0,0,0,0,0,0,0,0,0,0,0,0,0,0,0,0,0,0,0,0,0,0,0,0,0,0,0,0,0,0,0,0,0,0,0,0,0,0,0,0,0,0,0,0,0,0,0,0,0,0,0,0,0,0,0,0,0,0,0,0,0,0,0,0,0,0,0,0,0,0,0,0,0,0,0,0,0,0,0,0,0,0,0,0,0,0,0,0,0,0,0,0,0,0,0,0,0,0,0,0,0,0,0,0,0,389,426,479,2147484079,2147484127,431,2147484127,479,2147484079,2147484079,2147484079,2147484079,2147484127,2147484127,429,419,0,0,0,0,0,0,0,0,0,0,0,0,0,0,0,0,0,0,0,0,0,0,0,0,0,0,0,0,0,0,0,0,0,0,0,0,0,0,0,0,0,0,0,0,0,0,0,0,0,0,0,0,0,0,0,0,0,0,0,0,0,0,0,0,0,0,0,0,0,0,0,0,0,0,0,0,0,0,0,0,0,0,0,0,0,0,0,0,0,0,0,0,0,0,0,0,0,0,0,0,0,0,0,0,0,0,0,0,0,0,0,0,0,0,0,0,0,0,0,0,0,0,0,0,0,0,0,0,0,389,0,479,2147484127,2147484175,2147484127,2147484223,479,2147484127,575,479,429,421,419,0,0,0,0,0,0,0,0,0,0,0,0,0,0,0,0,0,0,0,0,0,0,0,0,0,0,0,0,0,0,0,0,0,0,0,0,0,0,0,0,0,0,0,0,0,0,0,0,0,0,0,0,0,0,0,0,0,0,0,0,0,0,0,0,0,0,0,0,0,0,0,0,0,0,0,0,0,0,0,0,0,0,0,0,0,0,0,0,0,0,0,0,0,0,0,0,0,0,0,0,0,0,0,0,0,0,0,0,0,0,0,0,0,0,0,0,0,0,0,0,0,0,0,0,0,0,0,0,0,0,0,0,0,0,0,0,0,0,0,0,0,0,0,0,0,0,0,0,0,0,0,0,0,0,0,0,0,0,0,0,0,0,0,0,0,0,0,0,0,0,0,0,0,0,0,0,0,0,0,0,0,0,0,0,0,0,0,0,0,0,0,0,0,0,0,0,0,0,0,0,0,0,0,0,0,0,0,0,0,0,0,0,0,0,0,0,0,0,0,0,0,0,0,0,0,0,0,0,0,0,0,0,0,0,0,0,0,0,0,0,0,0,0,0,0,0,0,0,0,0,0,0,0,0,0,0,0,0,0,0,0,0,0,0,0,0,0,0,0,0,0,0,0,0,0,0,0,0,0,0,0,0,0,0,0,0,0,0,0,0,0,0,0,0,0,0,0,0,0,0,0,0,0,0,0,0,0,0,0,0,0,0,0,0,0,0,0,0,0,0,0,0,0,0,0,0,0,0,0,0,0,0,0,0,0,0,0,0,0,0,0,0,0,0,0,0,0,0,0,0,0,0,0,0,0,0,0,0,0,0,0,0,0,0,0,0,0,0,0,0,0,0,0,0,0,0,0,0,0,0,0,0,0,0,0,0,0,0,0,0,0,0,0,0,0,0,0,0,0,0,0,0,0,0,0,0,0,0,0,0,0,0,0,0,0,0,0,0,0,0,0,0,0,0,0,0,0,0,0,0,0,0,0,0,0,0,0,0,0,0,0,0,0,0,0,0,0,0,0,0,0,0,0,0,0,0,0,0,0,0,0,0,0,0,0,0,0,0,0,0,0,0,0,0,0,0,0,0,0,0,0,0,0,0,0,0,0,0,0,0,0,0,0,0,0,0,0,0,0,0,0,0,0,0,0,0,0,0,0,0,0,0,0,0,0,0,0,0,0,0,0,0,0,0,0,0,0,0,0,0,0,0,0,0,0,0,0,0,0,0,0,0,0,0,0,0,0,0,0,0,0,0,0,0,0,0,0,0,0,0,0,0,0,0,0,0,0,0,0,0,0,0,0,0,0,0,0,0,0,0,0,0,0,0,0,0,0,0,0,0,0,0,0,0,0,0,0,0,0,0,0,0,0,0,0,0,0,0,0,0,0,0,0,0,0,0,0,0,0,0,0,0,0,0,0,0,0,0,0,0,0,0,0,0,0,0,0,0,0,0,0,0,0,0,0,0,0,0,0,0,0,0,0,0,0,0,0,0,0,0,0,0,0,0,0,0,0,0,0,0,0,0,0,0,0,0,0,0,0,0,0,0,0,0,0,0,0,0,0,0,0,0,0,0,0,0,0,0,0,0,0,0,0,0,0,0,0,0,0,0,0,0,0,0,0,0,0,0,0,0,0,0,0,0,0,0,0,0,0,0,0,0,0,0,0,0,0,0,0,0,0,0,0,0,0,0,0,0,0,0,0,0,0,0,0,0,0,0,0,0,0,0,0,0,0,0,0,0,0,0,0,0,0,0,0,0,0,0,0,0,0,0,0,0,0,0,0,0,0,0,0,0,0,0,0,0,0,0,0,0,0,0,0,0,0,0,0,0,0,0,0,0,0,0,0,0,0,0,0,0,0,0,0,0,0,0,0,0,0,0,0,0,0,0,0,0,0,0,0,0,0,0,0,0,0,0,0,0,0,0,0,0,0,0,0,0,0,0,0,0,0,0,0,0,0,0,0,0,0,0,0,0,0,0,0,0,0,0,0,0,0,0,0,0,0,0,0,0,0,0,0,0,0,0,0,0,0,0,0,0,0,0,0,0,0,0,0,0,0,0,0,0,0,0,0,0,0,0,0,0,0,0,0,0,0,0,0,0,0,0,0,0,0,0,0,0,0,0,0,0,0,0,0,0,0,0,0,0,0,0,0,0,0,0,0,0,0,0,0,0,0,0,0,0,0,0,0,0,0,0,0,0,0,0,0,0,0,0,0,0,0,0,0,0,0,0,0,0,0,0,0,0,0,0,0,0,0,0,0,0,0,0,0,0,0,0,0,0,0,0,0,0,0,0,0,0,0,0,0,0,0,0,0,0,0,0,0,0,0,0,0,0,0,0,0,0,0,0,0,0,0,0,0,0,0,0,0,0,0,0,0,0,0,0,0,0,0,0,0,0,0,0,0,0,0,0,0,0,0,0,0,0,0,0,0,0,0,0,0,0,0,0,0,0,0,0,0,0,0,0,0,0,0,0,0,0,0,0,0,0,0,0,0,0,0,0,0,0,0,0,0,0,0,0,0,0,0,0,0,0,0,0,0,0,0,0,0,0,0,0,0,0,0,0,0,0,0,0,0,0,0,0,0,0,0,0,0,0,0,0,0,0,0,0,0,0,0,0,0,0,0,0,0,0,0,0,0,0,0,0,0,0,0,0,0,0,0,0,0,0,0,0,0,0,0,0,0,0,0,0,0,0,0,0,0,0,0,0,0,0,0,0,0,0,0,0,0,0,0,0,0,0,0,0,0,0,0,0,0,0,0,0,0,0,0,0,0,0,0,0,0,0,0,0,0,0,0,0,0,0,0,0,0,0,0,0,0,0,0,0,0,0,0,0,0,0,0,0,0,0,0,0,0,0,0,0,0,0,0,0,0,0,0,0,0,0,0,0,0,0,0,0,0,0,0,0,0,0,0,0,0,0,0,0,0,0,0,0,0,0,0,0,0,0,0,0,0,0,0,0,0,0,0,0,0,0,0,0,0,0,0,0,0,0,0,0,0,0,0,0,0,0,0,0,0,0,0,0,0,0,0,0,0,0,0,0,0,0,0,0,0,0,0,0,0,0,0,0,0,0,0,0,0,0,0,0,0,0,0,0,0,0,0,0,0,0,0,0,0,0,0,0,0,0,0,0,0,0,0,0,0,0,0,0,0,0,0,0,0,0,0,0,0,0,0,0,0,0,0,0,0,0,0,0,0,0,0,0,0,0,0,0,0,0,0,0,0,0,0,0,0,0,0,0,0,0,0,0,0,0,0,0,0,0,0,0,0,0,0,0,0,0,0,0,0,0,0,0,0,0,0,0,0,0,0,0,0,0,0,0,0,0,0,0,0,0,0,0,0,0,0,0,0,0,0,0,0,0,0,0,0,0,0,0,0,0,0,0,0,0,0,0,0,0,0,0,0,0,0,0,0,0,0,0,0,0,0,0,0,0,0,0,0,0,0,0,0,0,0,0,0,0,0,0,0,0,0,0,0,0,0,0,0,0,0,0,0,0,0,0,0,0,0,0,0,0,0,0,0,0,0,0,0,0,0,0,0,0,0,0,0,0,0,0,0,0,0,0,0,0,0,0,0,0,0,0,0,0,0,0,0,0,0,0,0,0,0,0,0,0,0,0,0,0,0,0,0,0,0,0,0,0,0,0,0,0,0,0,0,0,0,0,0,0,0,0,0,0,0,0,0,0,0,0,0,0,0,0,0,0,0,0,0,0,0,0,0,0,0,0,0,0,0,0,0,0,0,0,0,0,0,0,0,0,0,0,0,0,0,0,0,0,0,0,0,0,0,0,0,0,0,0,0,0,0,0,0,0,0,0,0,0,0,0,0,0,0,0,0,0,0,0,0,0,0,0,0,0,0,0,0,0,0,0,0,0,0,0,0,0,0,0,0,0,0,0,0,0,0,0,0,0,0,0,0,0,0,0,0,0,0,0,0,0,0,0,0,0,0,0,0,0,0,0,0,0,0,0,0,0,0,0,0,0,0,0,0,0,0,0,0,0,0,0,0,0,0,0,0,0,0,0,0,0,0,0,0,0,0,0,0,0,0,0,0,0,0,0,0,0,0,0,0,0,0,0,0,0,0,0,0,0,0,0,0,0,0,0,0,0,0,0,0,0,0,0,0,0,0,0,0,0,0,0,0,0,0,0,0,0,0,0,0,0,0,0,0,0,0,0,0,0,0,0,0,0,0,0,0,0,0,0,0,0,0,0,0,0,0,0,0,0,0,0,0,0,0,0,0,0,0,0,0,0,0,0,0,0,0,0,0,0,0,0,0,0,0,0,0,0,0,0,0,0,0,0,0,0,0,0,0,0,0,0,0,0,0,0,0,0,0,0,0,0,0,0,0,0,0,0,0,0,0,0,0,0,0,0,0,0,0,0,0,0,0,0,0,0,0,0,0,0,0,0,0,0,0,0,0,0,0,0,0,0,0,0,0,0,0,0,0,0,0,0,0,0,0,0,0,0,0,0,0,0,0,0,0,0,0,0,0,0,0,0,0,0,0,0,0,0,0,0,0,0,0,0,0,0,0,0,0,0,0,0,0,0,0,0,0,0,0,0,0,0,0,0,0,0,0,0,0,0,0,0,0,0,0,0,0,0,0,0,0,0,0,0,0,0,0,0,0,0,0,0,0,0,0,0,0,0,0,0,0,0,0,0,0,0,0,0,0,0,0,0,0,0,0,0,0,0,0,0,0,0,0,0,0,0,0,0,0,0,0,0,0,0,0,0,0,0,0,0,0,0,0,0,0,0,0,0,0,0,0,0,0,0,0,0,0,0,0,0,0,0,0,0,0,0,0,0,0,0,0,0,0,0,0,0,0,0,0,0,0,0,0,0,0,0,0,0,0,0,0,0,0,0,0,0,0,0,0,0,0,0,0,0,0,0,0,0,0,0,0,0,0,0,0,0,0,0,0,0,0,0,0,0,0,0,0,0,0,0,0,0,0,0,0,0,0,0,0,0,0,0,0,0,0,0,0,0,0,0,0,0,0,0,0,0,0,0,0,0,0,0,0,0,0,0,0,0,0,0,0,0,0,0,0,0,0,0,0,0,0,0,0,0,0,0,0,0,0,0,0,0,0,0,0,0,0,0,0,0,0,0,0,0,0,0,0,0,0,0,0,0,0,0,0,0,0,0,0,0,0,0,0,0,0,0,0,0,0,0,0,0,0,0,0,0,0,0,0,0,0,0,0,0,0,0,0,0,0,0,0,0,0,0,0,0,0,0,0,0,0,0,0,0,0,0,0,0,0,0,0,0,0,0,0,0,0,0,0,0,0,0,0,0,0,0,0,0,0,0,0,0,0,0,0,0,0,0,0,0,0,0,0,0,0,0,0,0,0,0,0,0,0,0,0,0,0,0,0,0,0,0,0,0,0,0,0,0,0,0,0,0,0,0,0,0,0,0,0,0,0,0,0,0,0,0,0,0,0,0,0,0,0,0,0,0,0,0,0,0,0,0,0,0,0,0,0,0,0,0,0,0,0,0,0,0,0,0,0,0,0,0,0,0,0,0,0,0,0,0,0,0,0,0,0,0,0,0,0,0,0,0,0,0,0,0,0,0,0,0,0,0,0,0,0,0,0,0,0,0,0,0,0,0,0,0,0,0,0,0,0,0,0,0,0,0,0,0,0,0,0,0,0,0,0,0,0,0,0,0,0,0,0,0,0,0,0,0,0,0,0,0,0,0,0,0,0,0,0,0,0,0,0,0,0,0,0,0,0,0,0,0,0,0,0,0,0,0,0,0,0,0,0,0,0,0,0,0,0,0,0,0,0,0,0,0,0,0,0,0,0,0,0,0,0,0,0,0,0,0,0,0,0,0,0,0,0,0,0,0,0,0,0,0,0,0,0,0,0,0,0,0,0,0,0,0,0,0,0,0,0,0,0,0,0,0,0,0,0,0,0,0,0,0,0,0,0,0,0,0,0,0,0,0,0,0,0,0,0,0,0,0,0,0,0,0,0,0,0,0,0,0,0,0,0,0,0,0,0,0,0,0,0,0,0,0,0,0,0,0,0,0,0,0,0,0,0,0,0,0,0,0,0,0,0,0,0,0,0,0,0,0,0,0,0,0,0,0,0,0,0,0,0,0,0,0,0,0,0,0,0,0,0,0,0,0,0,0,0,0,0,0,0,0,0,0,0,0,0,0,0,0,0,0,0,0,0,0,0,0,0,0,0,0,0,0,0,0,0,0,0,0,0,0,0,0,0,0,0,0,0,0,0,0,0,0,0,0,0,0,0,0,0,0,0,0,0,0,0,0,0,0,0,0,0,0,0,0,0,0,0,0,0,0,0,0,0,0,0,0,0,0,0,0,0,0,0,0,0,0,0,0,0,0,0,0,0,0,0,0,0,0,0,0,0,0,0,0,0,0,0,0,0,0,0,0,0,0,0,0,0,0,0,0,0,0,0,0,0,0,0,0,0,0,0,0,0,0,0,0,0,0,0,0,0,0,0,0,0,0,0,0,0,0,0,0,0,0,0,0,0,0,0,0,0,0,0,0,0,0,0,0,0,0,0,0,0,0,0,0,0,0,0,0,0,0,0,0,0,0,0,0,0,0,0,0,0,0,0,0,0,0,0,0,0,0,0,0,0,0,0,0,0,0,0,0,0,0,0,0,0,0,0,0,0,0,0,0,0,0,0,0,0,0,0,0,0,0,0,0,0,0,0,0,0,0,0,0,0,0,0,0,0,0,0,0,0,0,0,0,0,0,0,0,0,0,0,0,0,0,0,0,0,0,0,0,0,0,0,0,0,0,0,0,0,0,0,0,0,0,0,0,0,0,0,0,0,0,0,0,0,0,0,0,0,0,0,0,0,0,0,0,0,0,0,0,0,0,0,0,0,0,0,0,0,0,0,0,0,0,0,0,0,0,0,0,0,0,0,0,0,0,0,0,0,0,0,0,0,0,0,0,0,0,0,0,0,0,0,0,0,0,0,0,0,0,0,0,0,0,0,0,0,0,0,0,0,0,0,0,0,0,0,0,0,0,0,0,0,0,0,0,0,0,0,0,0,0,0,0,0,0,0,0,0,0,0,0,0,0,0,0,0,0,0,0,0,0,0,0,0,0,0,0,0,0,0,0,0,0,0,0,0,0,0,0,0,0,0,0,0,0,0,0,0,0,0,0,0,0,0,0,0,0,0,0,0,0,0,0,0,0,0,0,0,0,0,0,0,0,0,0,0,0,0,0,0,0,0,0,0,0,0,0,0,0,0,0,0,0,0,0,0,0,0,0,0,0,0,0,0,0,0,0,0,0,0,0,0,0,0,0,0,0,0,0,0,0,0,0,0,0,0,0,0,0,0,0,0,0,0,0,0,0,0,0,0,0,0,0,0,0,0,0,0,0,0,0,0,0,0,0,0,0,0,0,0,0,0,0,0,0,0,0,0,0,0,0,0,0,0,0,0,0,0,0,0,0,0,0,0,0,0,0,0,0,0,0,0,0,0,0,0,0,0,0,0,0,0,0,0,0,0,0,0,0,0,0,0,0,0,0,0,0,0,0,0,0,0,0,0,0,0,0,0,0,0,0,0,0,0,0,0,0,0,0,0,0,0,0,0,0,0,0,0,0,0,0,0,0,0,0,0,0,0,0,0,0,0,0,0,0,0,0,0,0,0,0,0,0,0,0,0,0,0,0,0,0,0,0,0,0,0,0,0,0,0,0,0,0,0,0,0,0,0,0,0,0,0,0,0,0,0,0,0,0,0,0,0,0,0,0,0,0,0,0,0,0,0,0,0,0,0,0,0,0,0,0,0,0,0,0,0,0,0,0,0,0,0,0,0,0,0,0,0,0,0,0,0,0,0,0,0,0,0,0,0,0,0,0,0,0,0,0,0,0,0,0,0,0,0,0,0,0,0,0,0,0,0,0,0,0,0,0,0,0,0,0,0,0,0,0,0,0,0,0,0,0,0,0,0,0,0,0,0,0,0,0,0,0,0,0,0,0,0,0,0,0,0,0,0,0,0,0,0,0,0,0,0,0,0,0,0,0,0,0,0,0,0,0,0,0,0,0,0,0,0,0,0,0,0,0,0,0,0,0,0,0,0,0,0,0,0,0,0,0,0,0,0,0,0,0,0,0,0,0,0,0,0,0,0,0,0,0,0,0,0,0,0,0,0,0,0,0,0,0,0,0,0,0,0,0,0,0,0,0,0,0,0,0,0,0,0,0,0,0,0,0,0,0,0,0,0,0,0,0,0,0,0,0,0,0,0,0,0,0,0,0,0,0,0,0,0,0,0,0,0,0,0,0,0,0,0,0,0,0,0,0,0,0,0,0,0,0,0,0,0,0,0,0,0,0,0,0,0,0,0,0,0,0,0,0,0,0,0,0,0,0,0,0,0,0,0,0,0,0,0,0,0,0,0,0,0,0,0,0,0,0,0,0,0,0,0,0,0,0,0,0,0,0,0,0,0,0,0,0,0,0,0,0,0,0,0,0,0,0,0,0,0,0,0,0,0,0,0,0,0,0,0,0,0,0,0,0,0,0,0,0,0,0,0,0,0,0,0,0,0,0,0,0,0,0,0,0,0,0,0,0,0,0,0,0,0,0,0,0,0,0,0,0,0,0,0,0,0,0,0,0,0,0,0,0,0,0,0,0,0,0,0,0,0,0,0,0,0,0,0,0,0,0,0,0,0,0,0,0,0,0,0,0,0,0,0,0,0,0,0,0,0,0,0,0,0,0,0,0,0,0,0,0,0,0,0,0,0,0,0,0,0,0,0,0,0,0,0,0,0,0,0,0,0,0,0,0,0,0,0,0,0,0,0,0,0,0,0,0,0,0,0,0,0,0,0,0,0,0,0,0,0,0,0,0,0,0,0,0,0,0,0,0,0,0,0,0,0,0,0,0,0,0,0,0,0,0,0,0,0,0,0,0,0,0,0,0,0,0,0,0,0,0,0,0,0,0,0,0,0,0,0,0,0,0,0,0,0,0,0,0,0,0,0,0,0,0,0,0,0,0,0,0,0,0,0,0,0,0,0,0,0,0,0,0,0,0,0,0,0,0,0,0,0,0,0,0,0,0,0,0,0,0,0,0,0,0,0,0,0,0,0,0,0,0,0,0,0,0,0,0,0,0,0,0,0,0,0,0,0,0,0,0,0,0,0,0,0,0,0,0,0,0,0,0,0,0,0,0,0,0,0,0,0,0,0,0,0,0,0,0,0,0,0,0,0,0,0,0,0,0,0,0,0,0,0,0,0,0,0,0,0,0,0,0,0,0,0,0,0,0,0,0,0,0,0,0,0,0,0,0,0,0,0,0,0,0,0,0,0,0,0,0,0,0,0,0,0,0,0,0,0,0,0,0,0,0,0,0,0,0,0,0,0,0,0,0,0,0,0,0,0,0,0,0,0,0,0,0,0,0,0,0,0,0,0,0,0,0,0,0,0,0,0,0,0,0,0,0,0,0,0,0,0,0,0,0,0,0,0,0,0,0,0,0,0,0,0,0,0,0,0,0,0,0,0,0,0,0,0,0,0,0,0,0,0,0,0,0,0,0,0,0,0,0,0,0,0,0,0,0,0,0,0,0,0,0,0,0,0,0,0,0,0,0,0,0,0,0,0,0,0,0,0,0,0,0,0,0,0,0,0,0,0,0,0,0,0,0,0,0,0,0,0,0,0,0,0,0,0,0,0,0,0,0,0,0,0,0,0,0,0,0,0,0,0,0,0,0,0,0,0,0,0,0,0,0,0,0,0,0,0,0,0,0,0,0,0,0,0,0,0,0,0,0,0,0,0,0,0,0,0,0,0,0,0,0,0,0,0,0,0,0,0,0,0,0,0,0,0,0,0,0,0,0,0,0,0,0,0,0,0,0,0,0,0,0,0,0,0,0,0,0,0,0,0,0,0,0,0,0,0,0,0,0,0,0,0,0,0,0,0,0,0,0,0,0,0,0,0,0,0,0,0,0,0,0,0,0,0,0,0,0,0,0,0,0,0,0,0,0,0,0,0,0,0,0,0,0,0,0,0,0,0,0,0,0,0,0,0,0,0,0,0,0,0,0,0,0,0,0,0,0,0,0,0,0,0,0,0,0,0,0,0,0,0,0,0,0,0,0,0,0,0,0,0,0,0,0,0,0,0,0,0,0,0,0,0,0,0,0,0,0,0,0,0,0,0,0,0,0,0,0,0,0,0,0,0,0,0,0,0,0,0,0,0,0,0,0,0,0,0,0,0,0,0,0,0,0,0,0,0,0,0,0,0,0,0,0,0,0,0,0,0,0,0,0,0,0,0,0,0,0,0,0,0,0,0,0,0,0,0,0,0,0,0,0,0,0,0,0,0,0,0,0,0,0,0,0,0,0,0,0,0,0,0,0,0,0,0,0,0,0,0,0,0,0,0,0,0,0,0,0,0,0,0,0,0,0,0,0,0,0,0,0,0,0,0,0,0,0,0,0,0,0,0,0,0,0,0,0,0,0,0,0,0,0,0,0,0,0,0,0,0,0,0,0,0,0,0,0,0,0,0,0,0,0,0,0,0,0,0,0,0,0,0,0,0,0,0,0,0,0,0,0,0,0,0,0,0,0,0,0,0,0,0,0,0,0,0,0,0,0,0,0,0,0,0,0,0,0,0,0,0,0,0,0,0,0,0,0,0,0,0,0,0,0,0,0,0,0,0,0,0,0,0,0,0,0,0,0,0,0,0,0,0,0,0,0,0,0,0,0,0,0,0,0,0,0,0,0,0,0,0,0,0,0,0,0,0,0,0,0,0,0,0,0,0,0,0,0,0,0,0,0,0,0,0,0,0,0,0,0,0,0,0,0,0,0,0,0,0,0,0,0,0,0,0,0,0,0,0,0,0,0,0,0,0,0,0,0,0,0,0,0,0,0,0,0,0,0,0,0,0,0,0,0,0,0,0,0,0,0,0,0,0,0,0,0,0,0,0,0,0,0,0,0,0,0,0,0,0,0,0,0,0,0,0,0,0,0,0,0,0,0,0,0,0,0,0,0,0,0,0,0,0,0,0,0,0,0,0,0,0,0,0,0,0,0,0,0,0,0,0,0,0,0,0,0,0,0,0,0,0,0,0,0,0,0,0,0,0,0,0,0,0,0,0,0,0,0,0,0,0,0,0,0,0,0,0,0,0,0,0,0,0,0,0,0,0,0,0,0,0,0,0,0,0,0,0,0,0,0,0,0,0,0,0,0,0,0,0,0,0,0,0,0,0,0,0,0,0,0,0,0,0,0,0,0,0,0,0,0,0,0,0,0,0,0,0,0,0,0,0,0,0,0,0,0,0,0,0,0,0,0,0,0,0,0,0,0,0,0,0,0,0,0,0,0,0,0,0,0,0,0,0,0,0,0,0,0,0,0,0,0,0,0,0,0,0,0,0,0,0,0,0,0,0,0,0,0,0,0,0,0,0,0,0,0,0,0,0,0,0,0,0,0,0,0,0,0,0,0,0,0,0,0,0,0,0,0,0,0,0,0,0,0,0,0,0,0,0,0,0,0,0,0,0,0,0,0,0,0,0,0,0,0,0,0,0,0,0,0,0,0,0,0,0,0,0,0,0,0,0,0,0,0,0,0,0,0,0,0,0,0,0,0,0,0,0,0,0,0,0,0,0,0,0,0,0,0,0,0,0,0,0,0,0,0,0,0,0,0,0,0,0,0,0,0,0,0,0,0,0,0,0,0,0,0,0,0,0,0,0,0,0,0,0,0,0,0,0,0,0,0,0,0,0,0,0,0,0,0,0,0,0,0,0,0,0,0,0,0,0,0,0,0,0,0,0,0,0,0,0,0,0,0,0,0,0,0,0,0,0,0,0,0,0,0,0,0,0,0,0,0,0,0,0,0,0,0,0,0,0,0,0,0,0,0,0,0,0,0,0,0,0,0,0,0,0,0,0,0,0,0,0,0,0,0,0,0,0,0,0,0,0,0,0,0,0,0,0,0,0,0,0,0,0,0,0,0,0,0,0,0,0,0,0,0,0,0,0,0,0,0,0,0,0,0,0,0,0,0,0,0,0,0,0,0,0,0,0,0,0,0,0,0,0,0,0,0,0,0,0,0,0,0,0,0,0,0,0,0,0,0,0,0,0,0,0,0,0,0,0,0,0,0,0,0,0,0,0,0,0,0,0,0,0,0,0,0,0,0,0,0,0,0,0,0,0,0,0,0,0,0,0,0,0,0,0,0,0,0,0,0,0,0,0,0,0,0,0,0,0,0,0,0,0,0,0,0,0,0,0,0,0,0,0,0,0,0,0,0,0,0,0,0,0,0,0,0,0,0,0,0,0,0,0,0,0,0,0,0,0,0,0,0,0,0,0,0,0,0,0,0,0,0,0,0,0,0,0,0,0,0,0,0,0,0,0,0,0,0,0,0,0,0,0,0,0,0,0,0,0,0,0,0,0,0,0,0,0,0,0,0,0,0,0,0,0,0,0,0,0,0,0,0,0,0,0,0,0,0,0,0,0,0,0,0,0,0,0,0,0,0,0,0,0,0,0,0,0,0,0,0,0,0,0,0,0,0,0,0,0,0,0,0,0,0,0,0,0,0,0,0,0,0,0,0,0,0,0,0,0,0,0,0,0,0,0,0,0,0,0,0,0,0,0,0,0,0,0,0,0,0,0,0,0,0,0,0,0,0,0,0,0,0,0,0,0,0,0,0,0,0,0,0,0,0,0,0,0,0,0,0,0,0,0,0,0,0,0,0,0,0,0,0,0,0,0,0,0,0,0,0,0,0,0,0,0,0,0,0,0,0,0,0,0,0,0,0,0,0,0,0,0,0,0,0,0,0,0,0,0,0,0,0,0,0,0,0,0,0,0,0,0,0,0,0,0,0,0,0,0,0,0,0,0,0,0,0,0,0,0,0,0,0,0,0,0,0,0,0,0,0,0,0,0,0,0,0,0,0,0,0,0,0,0,0,0,0,0,0,0,0,0,0,0,0,0,0,0,0,0,0,0,0,0,0,0,0,0,0,0,0,0,0,0,0,0,0,0,0,0,0,0,0,0,0,0,0,0,0,0,0,0,0,0,0,0,0,0,0,0,0,0,0,0,0,0,0,0,0,0,0,0,0,0,0,0,0,0,0,0,0,0,0,0,0,0,0,0,0,0,0,0,0,0,0,0,0,0,0,0,0,0,0,0,0,0,0,0,0,0,0,0,0,0,0,0,0,0,0,0,0,0,0,0,0,0,0,0,0,0,0,0,0,0,0,0,0,0,0,0,0,0,0,0,0,0,0,0,0,0,0,0,0,0,0,0,0,0,0,0,0,0,0,0,0,0,0,0,0,0,0,0,0,0,0,0,0,0,0,0,0,0,0,0,0,0,0,0,0,0,0,0,0,0,0,0,0,0,0,0,0,0,0,0,0,0,0,0,0,0,0,0,0,0,0,0,0,0,0,0,0,0,0,0,0,0,0,0,0,0,0,0,0,0,0,0,0,0,0,0,0,0,0,0,0,0,0,0,0,0,0,0,0,0,0,0,0,0,0,0,0,0,0,0,0,0,0,0,0,0,0,0,0,0,0,0,0,0,0,0,0,0,0,0,0,0,0,0,0,0,0,0,0,0,0,0,0,0,0,0,0,0,0,0,0,0,0,0,0,0,0,0,0,0,0,0,0,0,0,0,0,0,0,0,0,0,0,0,0,0,0,0,0,0,0,0,0,0,0,0,0,0,0,0,0,0,0,0,0,0,0,0,0,0,0,0,0,0,0,0,0,0,0,0,0,0,0,0,0,0,0,0,0,0,0,0,0,0,0,0,0,0,0,0,0,0,0,0,0,0,0,0,0,0,0,0,0,0,0,0,0,0,0,0,0,0,0,0,0,0,0,0,0,0,0,0,0,0,0,0,0,0,0,0,0,0,0,0,0,0,0,0,0,0,0,0,0,0,0,0,0,0,0,0,0,0,0,0,0,0,0,0,0,0,0,0,0,0,0,0,0,0,0,0,0,0,0,0,0,0,0,0,0,0,0,0,0,0,0,0,0,0,0,0,0,0,0,0,0,0,0,0,0,0,0,0,0,0,0,0,0,0,0,0,0,0,0,0,0,0,0,0,0,0,0,0,0,0,0,0,0,0,0,0,0,0,0,0,0,0,0,0,0,0,0,0,0,0,0,0,0,0,0,0,0,0,0,0,0,0,0,0,0,0,0,0,0,0,0,0,0,0,0,0,0,0,0,0,0,0,0,0,0,0,0,0,0,0,0,0,0,0,0,0,0,0,0,0,0,0,0,0,0,0,0,0,0,0,0,0,0,0,0,0,0,0,0,0,0,0,0,0,0,0,0,0,0,0,0,0,0,0,0,0,0,0,0,0,0,0,0,0,0,0,0,0,0,0,0,0,0,0,0,0,0,0,0,0,0,0,0,0,0,0,0,0,0,0,0,0,0,0,0,0,0,0,0,0,0,0,0,0,0,0,0,0,0,0,0,0,0,0,0,0,0,0,0,0,0,0,0,0,0,0,0,0,0,0,0,0,0,0,0,0,0,0,0,0,0,0,0,0,0,0,0,0,0,0,0,0,0,0,0,0,0,0,0,0,0,0,0,0,0,0,0,0,0,0,0,0,0,0,0,0,0,0,0,0,0,0,0,0,0,0,0,0,0,0,0,0,0,0,0,0,0,0,0,0,0,0,0,0,0,0,0,0,0,0,0,0,0,0,0,0,0,0,0,0,0,0,0,0,0,0,0,0,0,0,0,0,0,0,0,0,0,0,0,0,0,0,0,0,0,0,0,0,0,0,0,0,0,0,0,0,0,0,0,0,0,0,0,0,0,0,0,0,0,0,0,0,0,0,0,0,0,0,0,0,0,0,0,0,0,0,0,0,0,0,0,0,0,0,0,0,0,0,0,0,0,0,0,0,0,0,0,0,0,0,0,0,0,0,0,0,0,0,0,0,0,0,0,0,0,0,0,0,0,0,0,0,0,0,0,0,0,0,0,0,0,0,0,0,0,0,0,0,0,0,0,0,0,0,0,0,0,0,0,0,0,0,0,0,0,0,0,0,0,0,0,0,0,0,0,0,0,0,0,0,0,0,0,0,0,0,0,0,0,0,0,0,0,0,0,0,0,0,0,0,0,0,0,0,0,0,0,0,0,0,0,0,0,0,0,0,0,0,0,0,0,0,0,0,0,0,0,0,0,0,0,0,0,0,0,0,0,0,0,0,0,0,0,0,0,0,0,0,0,0,0,0,0,0,0,0,0,0,0,0,0,0,0,0,0,0,0,0,0,0,0,0,0,0,0,0,0,0,0,0,0,0,0,0,0,0,0,0,0,0,0,0,0,0,0,0,0,0,0,0,0,0,0,0,0,0,0,0,0,0,0,0,0,0,0,0,0,0,0,0,0,0,0,0,0,0,0,0,0,0,0,0,0,0,0,0,0,0,0,0,0,0,0,0,0,0,0,0,0,0,0,0,0,0,0,0,0,0,0,0,0,0,0,0,0,0,0,0,0,0,0,0,0,0,0,0,0,0,0,0,0,0,0,0,0,0,0,0,0,0,0,0]},{"id":5,"name":"loess","type":"tilelayer","x":0,"y":0,"opacity":1,"visible":true,"width":144,"height":96,"data":[0,0,0,0,0,0,0,0,0,0,0,0,0,0,0,0,0,0,0,0,0,0,0,0,0,0,0,0,0,0,0,0,0,0,0,0,0,0,0,0,0,0,0,0,0,0,0,0,0,0,0,0,0,0,0,0,0,0,0,0,0,0,0,0,0,0,0,0,0,0,0,0,0,0,0,0,0,0,0,0,0,0,0,0,0,0,0,0,0,0,0,0,0,0,0,0,0,0,0,0,0,0,0,0,0,0,0,0,0,0,0,0,0,0,0,0,0,0,0,0,0,0,0,0,0,0,0,0,0,0,0,0,0,0,0,0,0,0,0,0,0,0,0,0,0,0,0,0,0,0,0,0,0,0,0,0,0,0,0,0,0,0,0,0,0,0,0,0,0,0,0,0,0,0,0,0,0,0,0,0,0,0,0,0,0,0,0,0,0,0,0,0,0,0,0,0,0,0,0,0,0,0,0,0,0,0,0,0,0,0,0,0,0,0,0,0,0,0,0,0,0,0,0,0,0,0,0,0,0,0,0,0,0,0,0,0,0,0,0,0,0,0,0,0,0,0,0,0,0,0,0,0,0,0,0,0,0,0,0,0,0,0,0,0,0,0,0,0,0,0,0,0,0,0,0,0,0,0,0,0,0,0,0,0,0,0,0,0,0,0,0,0,0,0,0,0,0,0,0,0,0,0,0,0,0,0,0,0,0,0,0,0,0,0,0,0,0,0,0,0,0,0,0,0,0,0,0,0,0,0,0,0,0,0,0,0,0,0,0,0,0,0,0,0,0,0,0,0,0,0,0,0,0,0,0,0,0,0,0,0,0,0,0,0,0,0,0,0,0,0,0,0,0,0,0,0,0,0,0,0,0,0,0,0,0,0,0,0,0,0,0,0,0,0,0,0,0,0,0,0,0,0,0,0,0,0,0,0,0,0,0,0,0,0,0,0,0,0,0,0,0,0,0,0,0,0,0,0,0,0,0,0,0,0,0,0,0,0,0,0,0,0,0,0,0,0,0,0,0,0,0,0,0,0,0,0,0,0,0,0,0,0,0,0,0,0,0,0,0,0,0,0,0,0,0,0,0,0,0,0,0,0,0,0,0,0,0,0,0,0,0,0,0,0,0,0,0,0,0,0,0,0,0,0,0,0,0,0,0,0,0,0,0,0,0,0,0,0,0,0,0,0,0,0,0,0,0,0,0,0,0,0,0,0,0,0,0,0,0,0,0,0,0,0,0,0,0,0,0,0,0,0,0,0,0,0,0,0,0,0,0,0,0,0,0,0,0,0,0,0,0,0,0,0,0,0,0,0,0,0,0,0,0,0,0,0,0,0,0,0,0,0,0,0,0,0,0,0,0,0,0,0,0,0,0,0,0,0,0,0,0,0,0,0,0,0,0,0,0,0,0,0,0,0,0,0,0,0,0,0,0,0,0,0,0,0,0,0,0,0,0,0,0,0,0,0,0,0,0,0,0,0,0,0,0,0,0,0,0,0,0,0,0,0,0,0,0,0,0,0,0,0,0,0,0,0,0,0,0,0,0,0,0,0,0,0,0,0,0,0,0,0,0,0,0,0,0,0,0,0,0,0,0,0,0,0,0,0,0,0,0,0,0,0,0,0,0,0,0,0,0,0,0,0,0,0,0,0,0,0,0,0,0,0,0,0,0,0,0,0,0,0,0,0,0,0,0,0,0,0,0,0,0,0,0,0,0,0,0,0,0,0,0,0,0,0,0,0,0,0,0,0,0,0,0,0,0,0,0,0,0,0,0,0,0,0,0,0,0,0,0,0,0,0,0,0,0,0,0,0,0,0,0,0,0,0,0,0,0,0,0,0,0,0,0,0,0,0,0,0,0,0,0,0,0,0,0,0,0,0,0,0,0,0,0,0,0,0,0,0,0,0,0,0,0,0,0,0,0,0,0,0,0,0,0,0,0,0,0,0,0,0,0,0,0,0,0,0,0,0,0,0,0,0,0,0,0,0,0,0,0,0,0,0,0,0,0,0,0,0,0,0,0,0,0,0,0,0,0,0,0,0,0,0,0,0,0,0,0,0,0,0,0,0,0,0,0,0,0,0,0,0,0,0,0,0,0,0,0,0,0,0,0,0,0,0,0,0,0,0,0,0,0,0,0,0,0,0,0,0,0,0,0,0,0,0,0,0,0,0,0,0,0,0,0,0,0,0,0,0,0,0,0,0,0,0,0,0,0,0,0,0,0,0,0,0,0,0,0,0,0,0,0,0,0,0,0,0,0,0,0,0,0,0,0,0,0,0,0,0,0,0,0,0,0,0,0,0,0,0,0,0,0,0,0,0,0,0,0,0,0,0,0,0,0,0,0,0,0,0,0,0,0,0,0,0,0,0,0,0,0,0,0,0,0,0,0,0,0,0,0,0,0,0,0,0,0,0,0,0,0,0,0,0,0,0,0,0,0,0,0,0,0,0,0,0,0,0,0,0,0,0,0,0,0,0,0,0,0,0,0,0,0,0,0,0,0,0,0,0,0,0,0,0,0,0,0,0,0,0,0,0,0,0,0,0,0,0,0,0,0,0,0,0,0,0,0,0,0,0,0,0,0,0,0,0,0,0,0,0,0,0,0,0,0,0,0,0,0,0,0,0,0,0,0,0,0,0,0,0,0,0,0,0,0,0,0,0,0,0,0,0,0,0,0,0,0,0,0,0,0,0,0,0,0,0,0,0,0,0,0,0,0,0,0,0,0,0,0,0,0,0,0,0,0,0,0,0,0,0,0,0,0,0,0,0,0,0,0,0,0,0,0,0,0,0,0,0,0,0,0,0,0,0,0,0,0,0,0,0,0,0,0,0,0,0,0,0,0,0,0,0,0,0,0,0,0,0,0,0,0,0,0,0,0,0,0,0,0,0,0,0,0,0,0,0,0,0,0,0,0,0,0,0,0,0,0,0,0,0,0,0,0,0,0,0,0,0,0,0,0,0,0,0,0,0,0,0,0,0,0,0,0,587,608,610,719,619,0,0,0,0,0,0,0,0,0,0,0,0,0,0,0,0,0,0,0,0,0,0,0,0,0,0,0,0,0,0,0,0,0,0,0,0,0,0,0,0,0,0,0,0,0,0,0,0,0,0,0,0,0,0,0,0,0,0,0,0,0,0,0,0,0,0,0,0,0,0,0,0,0,0,0,0,0,0,0,0,0,0,0,0,0,0,0,0,0,0,0,0,0,0,0,0,0,0,0,0,0,0,0,0,0,0,0,0,0,0,0,0,0,0,0,0,0,0,0,0,0,0,0,0,0,0,0,0,0,0,0,0,0,0,0,0,587,608,608,610,2147484367,719,0,0,0,0,0,610,767,671,623,619,0,0,589,623,0,0,0,0,0,0,0,0,0,0,0,0,0,0,0,0,0,0,0,0,0,0,0,0,0,0,0,0,0,0,0,0,0,0,0,0,0,0,0,0,0,0,0,0,0,0,0,0,0,0,0,0,0,0,0,0,0,0,0,0,0,0,0,0,0,0,0,0,0,0,0,0,0,0,0,0,0,0,0,0,0,0,0,0,0,0,0,0,0,0,0,0,0,0,0,0,0,0,0,0,0,0,0,0,0,0,0,0,0,0,0,0,0,0,0,0,0,0,0,0,0,0,587,608,610,719,623,623,0,0,0,0,0,2147484415,623,2147484271,2147484319,671,2147484367,622,608,608,610,623,671,0,0,0,0,0,0,0,0,0,0,0,0,0,0,0,0,0,0,0,0,0,0,0,0,0,0,0,0,0,0,0,0,0,0,0,0,0,0,0,0,0,0,0,0,0,0,0,0,0,0,0,0,0,0,0,0,0,0,0,0,0,0,0,0,0,0,0,0,0,0,0,0,0,0,0,0,0,0,0,0,0,0,0,0,0,0,0,0,0,0,0,0,0,0,0,0,0,0,0,0,0,0,0,0,0,0,0,0,0,0,0,0,0,0,0,0,0,0,0,587,608,610,623,2147484271,767,2147484319,0,0,0,0,671,2147484319,767,623,719,767,2147484271,671,2147484271,2147484367,2147484367,2147484271,2147484319,2147484415,622,0,0,0,0,0,0,0,0,0,0,0,0,0,0,0,0,0,0,0,0,0,0,0,0,0,0,0,0,0,0,0,0,0,0,0,0,0,0,0,0,0,0,0,0,0,0,0,0,0,0,0,0,0,0,0,0,0,0,0,0,0,0,0,0,0,0,0,0,0,0,0,0,0,0,0,0,0,0,0,0,0,0,0,0,0,0,0,0,0,0,0,0,0,0,0,0,0,0,0,0,0,0,0,0,0,0,0,0,0,0,0,0,0,0,0,0,0,587,610,671,623,2147484319,2147484367,2147484415,719,0,0,2147484367,671,767,2147484271,2147484415,623,719,623,2147484319,2147484271,767,2147484415,2147484367,767,2147484319,767,767,0,0,0,0,0,0,0,0,0,0,0,0,0,0,0,0,0,0,0,0,0,0,0,0,0,0,0,0,0,0,0,0,0,0,0,0,0,0,0,0,0,0,0,0,0,0,0,0,0,0,0,0,0,0,0,0,0,0,0,0,0,0,0,0,0,0,0,0,0,0,0,0,0,0,0,0,0,0,0,0,0,0,0,0,0,0,0,0,0,0,0,0,0,0,0,0,0,0,0,0,0,0,0,0,0,0,0,0,0,0,0,0,0,0,0,0,587,610,671,2147484415,2147484271,623,623,2147484367,2147484367,0,0,2147484367,2147484415,2147484367,719,2147484367,2147484415,719,2147484271,671,623,719,2147484367,2147484271,719,2147484319,719,767,671,0,0,0,0,0,0,0,0,0,0,0,0,0,0,0,0,0,0,0,0,0,0,0,0,0,0,0,0,0,0,0,0,0,0,0,0,0,0,0,0,0,0,0,0,0,0,0,0,0,0,0,0,0,0,0,0,0,0,0,0,0,0,0,0,0,0,0,0,0,0,0,0,0,0,0,0,0,0,0,0,0,0,0,0,0,0,0,0,0,0,0,0,0,0,0,0,0,0,0,0,0,0,0,0,0,0,0,0,0,0,0,0,0,0,0,589,2147484415,623,2147484319,767,767,2147484319,2147484367,623,0,0,2147484367,671,767,2147484367,2147484415,623,671,2147484367,623,671,623,2147484415,719,2147484271,2147484319,2147484319,2147484415,671,623,0,0,0,0,0,0,0,0,0,0,0,0,0,0,0,0,0,0,0,0,0,0,0,0,0,0,0,0,0,0,0,0,0,0,0,0,0,0,0,0,0,0,0,0,0,0,0,0,0,0,0,0,0,0,0,0,0,0,0,0,0,0,0,0,0,0,0,0,0,0,0,0,0,0,0,0,0,0,0,0,0,0,0,0,0,0,0,0,0,0,0,0,0,0,0,0,0,0,0,0,0,0,0,0,0,0,0,0,0,0,0,0,0,587,610,767,2147484319,767,671,767,719,767,0,0,0,2147484415,671,2147484367,671,2147484271,767,767,2147484271,2147484271,623,719,2147484415,767,2147484415,767,767,2147484271,719,2147484367,0,0,0,0,0,0,0,0,0,0,0,0,0,0,0,0,0,0,0,0,0,0,0,0,0,0,0,0,0,0,0,0,0,0,0,0,0,0,0,0,0,0,0,0,0,0,0,0,0,0,0,0,0,0,0,0,0,0,0,0,0,0,0,0,0,0,0,0,0,0,0,0,0,0,0,0,0,0,0,0,0,0,0,0,0,0,0,0,0,0,0,0,0,0,0,0,0,0,0,0,0,0,0,0,0,0,0,587,608,608,608,608,608,610,2147484319,719,719,2147484271,719,2147484271,2147484271,2147484271,0,0,671,719,2147484271,2147484415,767,671,623,2147484367,767,2147484415,2147484415,2147484319,2147484415,2147484271,719,2147484271,719,719,767,2147484415,0,0,0,0,0,0,0,0,0,0,0,0,0,0,0,0,0,0,0,0,0,0,0,0,0,0,0,0,0,0,0,0,0,0,0,0,0,0,0,0,0,0,0,0,0,0,0,0,0,0,0,0,0,0,0,0,0,0,0,0,0,0,0,0,0,0,0,0,0,0,0,0,0,0,0,0,0,0,0,0,0,0,0,0,0,0,0,0,0,0,0,0,0,0,0,0,0,0,0,0,0,0,0,0,0,587,608,610,671,2147484319,719,767,2147484415,2147484415,2147484271,2147484319,767,2147484415,2147484271,2147484271,2147484271,2147484319,0,0,623,623,671,2147484367,2147484367,2147484367,2147484415,2147484415,671,2147484271,719,2147484415,2147484415,671,623,2147484319,2147484415,767,2147484271,2147484319,0,0,0,0,0,0,0,0,0,0,0,0,0,0,0,0,0,0,0,0,0,0,0,0,0,0,0,0,0,0,0,0,0,0,0,0,0,0,0,0,0,0,0,0,0,0,0,0,0,0,0,0,0,0,0,0,0,0,0,0,0,0,0,0,0,0,0,0,0,0,0,0,0,0,0,0,0,0,0,0,0,0,0,0,0,0,0,0,0,0,0,0,0,0,0,0,0,0,0,0,0,0,0,0,587,610,2147484271,719,2147484415,671,623,671,767,2147484319,719,2147484271,2147484367,2147484415,2147484367,719,2147484271,2147484415,0,0,2147484271,623,2147484415,767,2147484367,767,2147484271,2147484367,719,671,719,623,719,671,671,767,2147484271,2147484415,2147484271,671,0,0,0,0,0,0,0,0,0,0,0,0,0,0,0,0,0,0,0,0,0,0,0,0,0,0,0,0,0,0,0,0,0,0,0,0,0,0,0,0,0,0,0,0,0,0,0,0,0,0,0,0,0,0,0,0,0,0,0,0,0,0,0,0,0,0,0,0,0,0,0,0,0,0,0,0,0,0,0,0,0,0,0,0,0,0,0,0,0,0,0,0,0,0,0,0,0,0,0,0,0,0,0,587,610,719,767,2147484319,2147484271,767,2147484415,2147484367,767,2147484319,2147484415,623,767,767,767,2147484367,767,0,0,0,2147484415,2147484415,2147484415,2147484367,623,2147484367,767,2147484415,2147484415,2147484415,2147484415,2147484271,2147484415,671,719,719,719,719,2147484367,2147484271,622,0,0,0,0,0,0,0,0,0,0,0,0,0,0,0,0,0,0,0,0,0,0,0,0,0,0,0,0,0,0,0,0,0,0,0,0,0,0,0,0,0,0,0,0,0,0,0,0,0,0,0,0,0,0,0,0,0,0,0,0,0,0,0,0,0,0,0,0,0,0,0,0,0,0,0,0,0,0,0,0,0,0,0,0,0,0,0,0,0,0,0,0,0,0,0,0,0,0,0,0,0,0,589,2147484367,2147484319,2147484415,767,2147484319,623,623,2147484367,623,2147484415,2147484319,2147484319,671,671,2147484367,767,0,0,0,767,2147484367,719,2147484415,623,767,767,767,767,2147484319,2147484271,671,767,623,2147484319,2147484319,719,2147484415,2147484367,671,2147484271,2147484319,0,0,0,0,0,0,0,0,0,0,0,0,0,0,0,0,0,0,0,0,0,0,0,0,0,0,0,0,0,0,0,0,0,0,0,0,0,0,0,0,0,0,0,0,0,0,0,0,0,0,0,0,0,0,0,0,0,0,0,0,0,0,0,0,0,0,0,0,0,0,0,0,0,0,0,0,0,0,0,0,0,0,0,0,0,0,0,0,0,0,0,0,0,0,0,0,0,0,0,0,0,0,589,671,2147484319,671,623,767,767,767,2147484367,2147484319,2147484319,671,671,2147484271,767,767,0,0,0,2147484319,2147484319,2147484271,2147484415,2147484415,767,719,671,671,2147484319,2147484271,767,767,2147484415,719,2147484319,671,671,2147484271,2147484415,2147484415,767,2147484367,0,0,0,0,0,0,0,0,0,0,0,0,0,0,0,0,0,0,0,0,0,0,0,0,0,0,0,0,0,0,0,0,0,0,0,0,0,0,0,0,0,0,0,0,0,0,0,0,0,0,0,0,0,0,0,0,0,0,0,0,0,0,0,0,0,0,0,0,0,0,0,0,0,0,0,0,0,0,0,0,0,0,0,0,0,0,0,0,0,0,0,0,0,0,0,0,0,0,0,0,0,0,581,618,2147484319,2147484367,671,2147484367,2147484319,2147484367,671,719,2147484319,2147484367,671,2147484319,0,0,0,2147484415,719,2147484367,2147484271,2147484367,2147484367,2147484271,719,2147484271,2147484319,2147484319,719,2147484319,767,767,2147484367,2147484319,671,671,719,671,2147484415,2147484319,719,2147484319,0,0,0,0,0,0,0,0,0,0,0,0,0,0,0,0,0,0,0,0,0,0,0,0,0,0,0,0,0,0,0,0,0,0,0,0,0,0,0,0,0,0,0,0,0,0,0,0,0,0,0,0,0,0,0,0,0,0,0,0,0,0,0,0,0,0,0,0,0,0,0,0,0,0,0,0,0,0,0,0,0,0,0,0,0,0,0,0,0,0,0,0,0,0,0,0,0,0,0,0,0,0,0,581,618,2147484415,2147484415,671,671,767,623,767,2147484415,671,719,0,0,0,2147484367,2147484319,2147484319,2147484415,2147484271,671,2147484319,2147484415,2147484271,767,671,2147484319,767,2147484415,767,2147484319,623,2147484367,623,623,719,719,2147484367,2147484271,719,2147484271,0,0,0,0,0,0,0,0,0,0,0,0,0,0,0,0,0,0,0,0,0,0,0,0,0,0,0,0,0,0,0,0,0,0,0,0,0,0,0,0,0,0,0,0,0,0,0,0,0,0,0,0,0,0,0,0,0,0,0,0,0,0,0,0,0,0,0,0,0,0,0,0,0,0,0,0,0,0,0,0,0,0,0,0,0,0,0,0,0,0,0,0,0,0,0,0,0,0,0,0,0,0,0,0,589,2147484415,2147484415,719,623,2147484415,0,0,0,0,0,0,0,671,2147484319,767,671,2147484415,2147484367,671,2147484319,623,2147484415,623,671,2147484271,623,621,613,613,618,671,2147484415,2147484415,2147484367,2147484319,719,719,2147484319,2147484415,622,0,0,0,0,0,0,0,0,0,0,0,0,0,0,0,0,0,0,0,0,0,0,0,0,0,0,0,0,0,0,0,0,0,0,0,0,0,0,0,0,0,0,0,0,0,0,0,0,0,0,0,0,0,0,0,0,0,0,0,0,0,0,0,0,0,0,0,0,0,0,0,0,0,0,0,0,0,0,0,0,0,0,0,0,0,0,0,0,0,0,0,0,0,0,0,0,0,0,0,0,0,0,0,0,0,0,0,0,0,0,0,0,0,0,0,767,2147484319,623,623,2147484271,2147484319,2147484367,623,671,719,2147484319,621,613,613,613,611,0,0,581,618,671,719,719,623,719,767,2147484319,2147484319,719,0,0,0,0,0,0,0,0,0,0,0,0,0,0,0,0,0,0,0,0,0,0,0,0,0,0,0,0,0,0,0,0,0,0,0,0,0,0,0,0,0,0,0,0,0,0,0,0,0,0,0,0,0,0,0,0,0,0,0,0,0,0,0,0,0,0,0,0,0,0,0,0,0,0,0,0,0,0,0,0,0,0,0,0,0,0,0,0,0,0,0,0,0,0,0,0,0,0,0,0,0,0,0,0,0,0,0,0,0,0,623,2147484367,2147484367,2147484415,719,623,2147484271,2147484367,2147484367,2147484271,719,623,623,719,2147484367,623,619,0,0,0,0,0,0,0,581,613,618,2147484367,623,623,623,623,719,719,0,0,0,0,0,0,0,0,0,0,0,0,0,0,0,0,0,0,0,0,0,0,0,0,0,0,0,0,0,0,0,0,0,0,0,0,0,0,0,0,0,0,0,0,0,0,0,0,0,0,0,0,0,0,0,0,0,0,0,0,0,0,0,0,0,0,0,0,0,0,0,0,0,0,0,0,0,0,0,0,0,0,0,0,0,0,0,0,0,0,0,0,0,0,0,0,0,0,0,0,0,0,0,0,0,0,0,0,0,589,2147484367,2147484271,2147484415,767,671,2147484415,767,2147484319,767,2147484367,2147484367,767,623,671,2147484319,2147484271,619,0,0,0,0,0,0,0,0,0,581,613,613,613,613,618,623,623,0,0,0,0,0,0,0,0,0,0,0,0,0,0,0,0,0,0,0,0,0,0,0,0,0,0,0,0,0,0,0,0,0,0,0,0,0,0,0,0,0,0,0,0,0,0,0,0,0,0,0,0,0,0,0,0,0,0,0,0,0,0,0,0,0,0,0,0,0,0,0,0,0,0,0,0,0,0,0,0,0,0,0,0,0,0,0,0,0,0,0,0,0,0,0,0,0,0,0,0,0,0,0,0,0,0,0,0,0,589,719,719,671,719,2147484319,2147484367,671,2147484367,767,2147484271,2147484367,767,767,2147484367,719,767,619,0,0,0,0,0,0,0,0,0,0,0,0,0,0,589,623,2147484319,0,0,0,0,0,0,0,0,0,0,0,0,0,0,0,0,0,0,0,0,0,0,0,0,0,0,0,0,0,0,0,0,0,0,0,0,0,0,0,0,0,0,0,0,0,0,0,0,0,0,0,0,0,0,0,0,0,0,0,0,0,0,0,0,0,0,0,0,0,0,0,0,0,0,0,0,0,0,0,0,0,0,0,0,0,0,0,0,0,0,0,0,0,0,0,0,0,0,0,0,0,0,0,0,0,0,0,0,0,581,618,2147484415,767,2147484319,671,2147484367,767,2147484415,2147484415,671,719,2147484271,2147484415,767,2147484271,621,611,0,0,0,0,0,0,0,0,0,0,0,0,0,0,589,2147484415,2147484271,2147484271,0,0,0,0,0,0,0,0,0,0,0,0,0,0,0,0,0,0,0,0,0,0,0,0,0,0,0,0,0,0,0,0,0,0,0,0,0,0,0,0,0,0,0,0,0,0,0,0,0,0,0,0,0,0,0,0,0,0,0,0,0,0,0,0,0,0,0,0,0,0,0,0,0,0,0,0,0,0,0,0,0,0,0,0,0,0,0,0,0,0,0,0,0,0,0,0,0,0,0,0,0,0,0,0,0,0,0,0,0,3845,3877,3882,2147484319,671,2147484367,2147484319,2147484271,2147484367,767,2147484271,2147484319,671,3885,3877,3875,0,0,0,0,0,0,0,0,0,0,0,0,0,0,0,3845,3882,2147484271,2147484415,0,0,0,0,0,0,0,0,0,0,0,0,0,0,0,0,0,0,0,0,0,0,0,0,0,0,0,0,0,0,0,0,0,0,0,0,0,0,0,0,0,0,0,0,0,0,0,0,0,0,0,0,0,0,0,0,0,0,0,0,0,0,0,0,0,0,0,0,0,0,0,0,0,0,0,0,0,0,0,0,0,0,0,0,0,0,0,0,0,0,0,0,0,0,0,0,0,0,0,0,0,0,0,0,0,0,0,0,0,0,0,3845,3877,3882,623,2147484415,671,671,2147484415,671,3885,3877,3875,0,0,0,0,0,0,0,0,0,0,0,0,0,0,0,0,0,0,3845,3877,3877,0,0,0,0,0,0,0,0,0,0,0,0,0,0,0,0,0,0,0,0,0,0,0,0,0,0,0,0,0,0,0,0,0,0,0,0,0,0,0,0,0,0,0,0,0,0,0,0,0,0,0,0,0,0,0,0,0,0,0,0,0,0,0,0,0,0,0,0,0,0,0,0,0,0,0,0,0,0,0,0,0,0,0,0,0,0,0,0,0,0,0,0,0,0,0,0,0,0,0,0,0,0,0,0,0,0,0,0,0,0,0,0,0,3845,3877,3877,3877,3877,3877,3877,3875,0,0,0,0,0,0,0,0,0,0,0,0,0,0,0,0,0,0,0,0,0,0,0,0,0,0,0,0,0,0,0,0,0,0,0,0,0,0,0,0,0,0,0,0,0,0,0,0,0,0,0,0,0,0,0,0,0,0,0,0,0,0,0,0,0,0,0,0,0,0,0,0,0,0,0,0,0,0,0,0,0,0,0,0,0,0,0,0,0,0,0,0,0,0,0,0,0,0,0,0,0,0,0,0,0,0,0,0,0,0,0,0,0,0,0,0,0,0,0,0,0,0,0,0,0,0,0,0,0,0,0,0,0,0,0,0,0,0,0,0,0,0,0,0,0,0,0,0,0,0,0,0,0,0,0,0,0,0,0,0,0,0,0,0,0,0,0,0,0,0,0,0,0,0,0,0,0,0,0,0,0,0,0,0,0,0,0,0,0,0,0,0,0,0,0,0,0,0,0,0,0,0,0,0,0,0,0,0,0,0,0,0,0,0,0,0,0,0,0,0,0,0,0,0,0,0,0,0,0,0,0,0,0,0,0,0,0,0,0,0,0,0,0,0,0,0,0,0,0,0,0,0,0,0,0,0,0,0,0,0,0,0,0,0,0,0,0,0,0,0,0,0,0,0,0,0,0,0,0,0,0,0,0,0,0,0,0,0,0,0,0,0,0,0,0,0,0,0,0,0,0,0,0,0,0,0,0,0,0,0,0,0,0,0,0,0,0,0,0,0,0,0,0,0,0,0,0,0,0,0,0,0,0,0,0,0,0,0,0,0,0,0,0,0,0,0,0,0,0,0,0,0,0,0,0,0,0,0,0,0,0,0,0,0,0,0,0,0,0,0,0,0,0,0,0,0,0,0,0,0,0,0,0,0,0,0,0,0,0,0,0,0,0,0,0,0,0,0,0,0,0,0,0,0,0,0,0,0,0,0,0,0,0,0,0,0,0,0,0,0,0,0,0,0,0,0,0,0,0,0,0,0,0,0,0,0,0,0,0,0,0,0,0,0,0,0,0,0,0,0,0,0,0,0,0,0,0,0,0,0,0,0,0,0,0,0,0,0,0,0,0,0,0,0,0,0,0,0,0,0,0,0,0,0,0,0,0,0,0,0,0,0,0,0,0,0,0,0,0,0,0,0,0,0,0,0,0,0,0,0,0,0,0,0,0,0,0,0,0,0,0,0,0,0,0,0,0,0,0,0,0,0,0,0,0,0,0,0,0,0,0,0,0,0,0,0,0,0,0,0,0,0,0,0,0,0,0,0,0,0,0,0,0,0,0,0,0,0,0,0,0,0,0,0,0,0,0,0,0,0,0,0,0,0,0,0,0,0,0,0,0,0,0,0,0,0,0,0,0,0,0,0,0,0,0,0,0,0,0,0,0,0,0,0,0,0,0,0,0,0,0,0,0,0,0,0,0,0,0,0,0,0,0,0,0,0,0,0,0,0,0,0,0,0,0,0,0,0,0,0,0,0,0,0,0,0,0,0,0,0,0,0,0,0,0,0,0,0,0,0,0,0,0,0,0,0,0,0,0,0,0,0,0,0,0,0,0,0,0,0,0,0,0,0,0,0,0,0,0,0,0,0,0,0,0,0,0,0,0,0,0,0,0,0,0,0,0,0,0,0,0,0,0,0,0,0,0,0,0,0,0,0,0,0,0,0,0,0,0,0,0,0,0,0,0,0,0,0,0,0,0,0,0,0,0,0,0,0,0,0,0,0,0,0,0,0,0,0,0,0,0,0,0,0,0,0,0,0,0,0,0,0,0,0,0,0,0,0,0,0,0,0,0,0,0,0,0,0,0,0,0,0,0,0,0,0,0,0,0,0,0,0,0,0,0,0,0,0,0,0,0,0,0,0,0,0,0,0,0,0,0,0,0,0,0,0,0,0,0,0,0,0,0,0,0,0,0,0,0,0,0,0,0,0,0,0,0,0,0,0,0,0,0,0,0,0,0,0,0,0,0,0,0,0,0,0,0,0,0,0,0,0,0,0,0,0,0,0,0,0,0,0,0,0,0,0,0,0,0,0,0,0,0,0,0,0,0,0,0,0,0,0,0,0,0,0,0,0,0,0,0,0,0,0,0,0,0,0,0,0,0,0,0,0,0,0,0,0,0,0,0,0,0,0,0,0,0,0,0,0,0,0,0,0,0,0,0,0,0,0,0,0,0,0,0,0,0,0,0,0,0,0,0,0,0,0,0,0,0,0,0,0,0,0,0,0,0,0,0,0,0,0,0,0,0,0,0,0,0,0,0,0,0,0,0,0,0,0,0,0,0,0,0,0,0,0,0,0,0,0,0,0,0,0,0,0,0,0,0,0,0,0,0,0,0,0,0,0,0,0,0,0,0,0,0,0,0,0,0,0,0,0,0,0,0,0,0,0,0,0,0,0,0,0,0,0,0,0,0,0,0,0,0,0,0,0,0,0,0,0,0,0,0,0,0,0,0,0,0,0,0,0,0,0,0,0,0,0,0,0,0,0,0,0,0,0,0,0,0,0,0,0,0,0,0,0,0,0,0,0,0,0,0,0,0,0,0,0,0,0,0,0,0,0,0,0,0,0,0,0,0,0,0,0,0,0,0,0,0,0,0,0,0,0,0,0,0,0,0,0,0,0,0,0,0,0,0,0,0,0,0,0,0,0,0,0,0,0,0,0,0,0,0,0,0,0,0,0,0,0,0,0,0,0,0,0,0,0,0,0,0,0,0,0,0,0,0,0,0,0,0,0,0,0,0,0,0,0,0,0,0,0,0,0,0,0,0,0,0,0,0,0,0,0,0,0,0,0,0,0,0,0,0,0,0,0,0,0,0,0,0,0,0,0,0,0,0,0,0,0,0,0,0,0,0,0,0,0,0,0,0,0,0,0,0,0,0,0,0,0,0,0,0,0,0,0,0,0,0,0,0,0,0,0,0,0,0,0,0,0,0,0,0,0,0,0,0,0,0,0,0,0,0,0,0,0,0,0,0,0,0,0,0,0,0,0,0,0,0,0,0,0,0,0,0,0,0,0,0,0,0,0,0,0,0,0,0,0,0,0,0,0,0,0,0,0,0,0,0,0,0,0,0,0,0,0,0,0,0,0,0,0,0,0,0,0,0,0,0,0,0,0,0,0,0,0,0,0,0,0,0,0,0,0,0,0,0,0,0,0,0,0,0,0,0,0,0,0,0,0,0,0,0,0,0,0,0,0,0,0,0,0,0,0,0,0,0,0,0,0,0,0,0,0,0,0,0,0,0,0,0,0,0,0,0,0,0,0,0,0,0,0,0,0,0,0,0,0,0,0,0,0,0,0,0,0,0,0,0,0,0,0,0,0,0,0,0,0,0,0,0,0,0,0,0,0,0,0,0,0,0,0,0,0,0,0,0,0,0,0,0,0,0,0,0,0,0,0,0,0,0,0,0,0,0,0,0,0,0,0,0,0,0,0,0,0,0,0,0,0,0,0,0,0,0,0,0,0,0,0,0,0,0,0,0,0,0,0,0,0,0,0,0,0,0,0,0,0,0,0,0,0,0,0,0,0,0,0,0,0,0,0,0,0,0,0,0,0,0,0,0,0,0,0,0,0,0,0,0,0,0,0,0,0,0,0,0,0,0,0,0,0,0,0,0,0,0,0,0,0,0,0,0,0,0,0,0,0,0,0,0,0,0,0,0,0,0,0,0,0,0,0,0,0,0,0,0,0,0,0,0,0,0,0,0,0,0,0,0,0,0,0,0,0,0,0,0,0,0,0,0,0,0,0,0,0,0,0,0,0,0,0,0,0,0,0,0,0,0,0,0,0,0,0,0,0,0,0,0,0,0,0,0,0,0,0,0,0,0,0,0,0,0,0,0,0,0,0,0,0,0,0,0,0,0,0,0,0,0,0,0,0,0,0,0,0,0,0,0,0,0,0,0,0,0,0,0,0,0,0,0,0,0,0,0,0,0,0,0,0,0,0,0,0,0,0,0,0,0,0,0,0,0,0,0,0,0,0,0,0,0,0,0,0,0,0,0,0,0,0,0,0,0,0,0,0,0,0,0,0,0,0,0,0,0,0,0,0,0,0,0,0,0,0,0,0,0,0,0,0,0,0,0,0,0,0,0,0,0,0,0,0,0,0,0,0,0,0,0,0,0,0,0,0,0,0,0,0,0,0,0,0,0,0,0,0,0,0,0,0,0,0,0,0,0,0,0,0,0,0,0,0,0,0,0,0,0,0,0,0,0,0,0,0,0,0,0,0,0,0,0,0,0,0,0,0,0,0,0,0,0,0,0,0,0,0,0,0,0,0,0,0,0,0,0,0,0,0,0,0,0,0,0,0,0,0,0,0,0,0,0,0,0,0,0,0,0,0,0,0,0,0,0,0,0,0,0,0,0,0,0,0,0,0,0,0,0,0,0,0,0,0,0,0,0,0,0,0,0,0,0,0,0,0,0,0,0,0,0,0,0,0,0,0,0,0,0,0,0,0,0,0,0,0,0,0,0,0,0,0,0,0,0,0,0,0,0,0,0,0,0,0,0,0,0,0,0,0,0,0,0,0,0,0,0,0,0,0,0,0,0,0,0,0,0,0,0,0,0,0,0,0,0,0,0,0,0,0,0,0,0,0,0,0,0,0,0,0,0,0,0,0,0,0,0,0,0,0,0,0,0,0,0,0,0,0,0,0,0,0,0,0,0,0,0,0,0,0,0,0,0,0,0,0,0,0,0,0,0,0,0,0,0,0,0,0,0,0,0,0,0,0,0,0,0,0,0,0,0,0,0,0,0,0,0,0,0,0,0,0,0,0,0,0,0,0,0,0,0,0,0,0,0,0,0,0,0,0,0,0,0,0,0,0,0,0,0,0,0,0,0,0,0,0,0,0,0,0,0,0,0,0,0,0,0,0,0,0,0,0,0,0,0,0,0,0,0,0,0,0,0,0,0,0,0,0,0,0,0,0,0,0,0,0,0,0,0,0,0,0,0,0,0,0,0,0,0,0,0,0,0,0,0,0,0,0,0,0,0,0,0,0,0,0,0,0,0,0,0,0,0,0,0,0,0,0,0,0,0,0,0,0,0,0,0,0,0,0,0,0,0,0,0,0,0,0,0,0,0,0,0,0,0,0,0,0,0,0,0,0,0,0,0,0,0,0,0,0,0,0,0,0,0,0,0,0,0,0,0,0,0,0,0,0,0,0,0,0,0,0,0,0,0,0,0,0,0,0,0,0,0,0,0,0,0,0,0,0,0,0,0,0,0,0,0,0,0,0,0,0,0,0,0,0,0,0,0,0,0,0,0,0,0,0,0,0,0,0,0,0,0,0,0,0,0,0,0,0,0,0,0,0,0,0,0,0,0,0,0,0,0,0,0,0,0,0,0,0,0,0,0,0,0,0,0,0,0,0,0,0,0,0,0,0,0,0,0,0,0,0,0,0,0,0,0,0,0,0,0,0,0,0,0,0,0,0,0,0,0,0,0,0,0,0,0,0,0,0,0,0,0,0,0,0,0,0,0,0,0,0,0,0,0,0,0,0,0,0,0,0,0,0,0,0,0,0,0,0,0,0,0,0,0,0,0,0,0,0,0,0,0,0,0,0,0,0,0,0,0,0,0,0,0,0,0,0,0,0,0,0,0,0,0,0,0,0,0,0,0,0,0,0,0,0,0,0,0,0,0,0,0,0,0,0,0,0,0,0,0,0,0,0,0,0,0,0,0,0,0,0,0,0,0,0,0,0,0,0,0,0,0,0,0,0,0,0,0,0,0,0,0,0,0,0,0,0,0,0,0,0,0,0,0,0,0,0,0,0,0,0,0,0,0,0,0,0,0,0,0,0,0,0,0,0,0,0,0,0,0,0,0,0,0,0,0,0,0,0,0,0,0,0,0,0,0,0,0,0,0,0,0,0,0,0,0,0,0,0,0,0,0,0,0,0,0,0,0,0,0,0,0,0,0,0,0,0,0,0,0,0,0,0,0,0,0,0,0,0,0,0,0,0,0,0,0,0,0,0,0,0,0,0,0,0,0,0,0,0,0,0,0,0,0,0,0,0,0,0,0,0,0,0,0,0,0,0,0,0,0,0,0,0,0,0,0,0,0,0,0,0,0,0,0,0,0,0,0,0,0,0,0,0,0,0,0,0,0,0,0,0,0,0,0,0,0,0,0,0,0,0,0,0,0,0,0,0,0,0,0,0,0,0,0,0,0,0,0,0,0,0,0,0,0,0,0,0,0,0,0,0,0,0,0,0,0,0,0,0,0,0,0,0,0,0,0,0,0,0,0,0,0,0,0,0,0,0,0,0,0,0,0,0,0,0,0,0,0,0,0,0,0,0,0,0,0,0,0,0,0,0,0,0,0,0,0,0,0,0,0,0,0,0,0,0,0,0,0,0,0,0,0,0,0,0,0,0,0,0,0,0,0,0,0,0,0,0,0,0,0,0,0,0,0,0,0,0,0,0,0,0,0,0,0,0,0,0,0,0,0,0,0,0,0,0,0,0,0,0,0,0,0,0,0,0,0,0,0,0,0,0,0,0,0,0,0,0,0,0,0,0,0,0,0,0,0,0,0,0,0,0,0,0,0,0,0,0,0,0,0,0,0,0,0,0,0,0,0,0,0,0,0,0,0,0,0,0,0,0,0,0,0,0,0,0,0,0,0,0,0,0,0,0,0,0,0,0,0,0,0,0,0,0,0,0,0,0,0,0,0,0,0,0,0,0,0,0,0,0,0,0,0,0,0,0,0,0,0,0,0,0,0,0,0,0,0,0,0,0,0,0,0,0,0,0,0,0,0,0,0,0,0,0,0,0,0,0,0,0,0,0,0,0,0,0,0,0,0,0,0,0,0,0,0,0,0,0,0,0,0,0,0,0,0,0,0,0,0,0,0,0,0,0,0,0,0,0,0,0,0,0,0,0,0,0,0,0,0,0,0,0,0,0,0,0,0,0,0,0,0,0,0,0,0,0,0,0,0,0,0,0,0,0,0,0,0,0,0,0,0,0,0,0,0,0,0,0,0,0,0,0,0,0,0,0,0,0,0,0,0,0,0,0,0,0,0,0,0,0,0,0,0,0,0,0,0,0,0,0,0,0,0,0,0,0,0,0,0,0,0,0,0,0,0,0,0,0,0,0,0,0,0,0,0,0,0,0,0,0,0,0,0,0,0,0,0,0,0,0,0,0,0,0,0,0,0,0,0,0,0,0,0,0,0,0,0,0,0,0,0,0,0,0,0,0,0,0,0,0,0,0,0,0,0,0,0,0,0,0,0,0,0,0,0,0,0,0,0,0,0,0,0,0,0,0,0,0,0,0,0,0,0,0,0,0,0,0,0,0,0,0,0,0,0,0,0,0,0,0,0,0,0,0,0,0,0,0,0,0,0,0,0,0,0,0,0,0,0,0,0,0,0,0,0,0,0,0,0,0,0,0,0,0,0,0,0,0,0,0,0,0,0,0,0,0,0,0,0,0,0,0,0,0,0,0,0,0,0,0,0,0,0,0,0,0,0,0,0,0,0,0,0,0,0,0,0,0,0,0,0,0,0,0,0,0,0,0,0,0,0,0,0,0,0,0,0,0,0,0,0,0,0,0,0,0,0,0,0,0,0,0,0,0,0,0,0,0,0,0,0,0,0,0,0,0,0,0,0,0,0,0,0,0,0,0,0,0,0,0,0,0,0,0,0,0,0,0,0,0,0,0,0,0,0,0,0,0,0,0,0,0,0,0,0,0,0,0,0,0,0,0,0,0,0,0,0,0,0,0,0,0,0,0,0,0,0,0,0,0,0,0,0,0,0,0,0,0,0,0,0,0,0,0,0,0,0,0,0,0,0,0,0,0,0,0,0,0,0,0,0,0,0,0,0,0,0,0,0,0,0,0,0,0,0,0,0,0,0,0,0,0,0,0,0,0,0,0,0,0,0,0,0,0,0,0,0,0,0,0,0,0,0,0,0,0,0,0,0,0,0,0,0,0,0,0,0,0,0,0,0,0,0,0,0,0,0,0,0,0,0,0,0,0,0,0,0,0,0,0,0,0,0,0,0,0,0,0,0,0,0,0,0,0,0,0,0,0,0,0,0,0,0,0,0,0,0,0,0,0,0,0,0,0,0,0,0,0,0,0,0,0,0,0,0,0,0,0,0,0,0,0,0,0,0,0,0,0,0,0,0,0,0,0,0,0,0,0,0,0,0,0,0,0,0,0,0,0,0,0,0,0,0,0,0,0,0,0,0,0,0,0,0,0,0,0,0,0,0,0,0,0,0,0,0,0,0,0,0,0,0,0,0,0,0,0,0,0,0,0,0,0,0,0,0,0,0,0,0,0,0,0,0,0,0,0,0,0,0,0,0,0,0,0,0,0,0,0,0,0,0,0,0,0,0,0,0,0,0,0,0,0,0,0,0,0,0,0,0,0,0,0,0,0,0,0,0,0,0,0,0,0,0,0,0,0,0,0,0,0,0,0,0,0,0,0,0,0,0,0,0,0,0,0,0,0,0,0,0,0,0,0,0,0,0,0,0,0,0,0,0,0,0,0,0,0,0,0,0,0,0,0,0,0,0,0,0,0,0,0,0,0,0,0,0,0,0,0,0,0,0,0,0,0,0,0,0,0,0,0,0,0,0,0,0,0,0,0,0,0,0,0,0,0,0,0,0,0,0,0,0,0,0,0,0,0,0,0,0,0,0,0,0,0,0,0,0,0,0,0,0,0,0,0,0,0,0,0,0,0,0,0,0,0,0,0,0,0,0,0,0,0,0,0,0,0,0,0,0,0,0,0,0,0,0,0,0,0,0,0,0,0,0,0,0,0,0,0,0,0,0,0,0,0,0,0,0,0,0,0,0,0,0,0,0,0,0,0,0,0,0,0,0,0,0,0,0,0,0,0,0,0,0,0,0,0,0,0,0,0,0,0,0,0,0,0,0,0,0,0,0,0,0,0,0,0,0,0,0,0,0,0,0,0,0,0,0,0,0,0,0,0,0,0,0,0,0,0,0,0,0,0,0,0,0,0,0,0,0,0,0,0,0,0,0,0,0,0,0,0,0,0,0,0,0,0,0,0,0,0,0,0,0,0,0,0,0,0,0,0,0,0,0,0,0,0,0,0,0,0,0,0,0,0,0,0,0,0,0,0,0,0,0,0,0,0,0,0,0,0,0,0,0,0,0,0,0,0,0,0,0,0,0,0,0,0,0,0,0,0,0,0,0,0,0,0,0,0,0,0,0,0,0,0,0,0,0,0,0,0,0,0,0,0,0,0,0,0,0,0,0,0,0,0,0,0,0,0,0,0,0,0,0,0,0,0,0,0,0,0,0,0,0,0,0,0,0,0,0,0,0,0,0,0,0,0,0,0,0,0,0,0,0,0,0,0,0,0,0,0,0,0,0,0,0,0,0,0,0,0,0,0,0,0,0,0,0,0,0,0,0,0,0,0,0,0,0,0,0,0,0,0,0,0,0,0,0,0,0,0,0,0,0,0,0,0,0,0,0,0,0,0,0,0,0,0,0,0,0,0,0,0,0,0,0,0,0,0,0,0,0,0,0,0,0,0,0,0,0,0,0,0,0,0,0,0,0,0,0,0,0,0,0,0,0,0,0,0,0,0,0,0,0,0,0,0,0,0,0,0,0,0,0,0,0,0,0,0,0,0,0,0,0,0,0,0,0,0,0,0,0,0,0,0,0,0,0,0,0,0,0,0,0,0,0,0,0,0,0,0,0,0,0,0,0,0,0,0,0,0,0,0,0,0,0,0,0,0,0,0,0,0,0,0,0,0,0,0,0,0,0,0,0,0,0,0,0,0,0,0,0,0,0,0,0,0,0,0,0,0,0,0,0,0,0,0,0,0,0,0,0,0,0,0,0,0,0,0,0,0,0,0,0,0,0,0,0,0,0,0,0,0,0,0,0,0,0,0,0,0,0,0,0,0,0,0,0,0,0,0,0,0,0,0,0,0,0,0,0,0,0,0,0,0,0,0,0,0,0,0,0,0,0,0,0,0,0,0,0,0,0,0,0,0,0,0,0,0,0,0,0,0,0,0,0,0,0,0,0,0,0,0,0,0,0,0,0,0,0,0,0,0,0,0,0,0,0,0,0,0,0,0,0,0,0,0,0,0,0,0,0,0,0,0,0,0,0,0,0,0,0,0,0,0,0,0,0,0,0,0,0,0,0,0,0,0,0,0,0,0,0,0,0,0,0,0,0,0,0,0,0,0,0,0,0,0,0,0,0,0,0,0,0,0,0,0,0,0,0,0,0,0,0,0,0,0,0,0,0,0,0,0,0,0,0,0,0,0,0,0,0,0,0,0,0,0,0,0,0,0,0,0,0,0,0,0,0,0,0,0,0,0,0,0,0,0,0,0,0,0,0,0,0,0,0,0,0,0,0,0,0,0,0,0,0,0,0,0,0,0,0,0,0,0,0,0,0,0,0,0,0,0,0,0,0,0,0,0,0,0,0,0,0,0,0,0,0,0,0,0,0,0,0,0,0,0,0,0,0,0,0,0,0,0,0,0,0,0,0,0,0,0,0,0,0,0,0,0,0,0,0,0,0,0,0,0,0,0,0,0,0,0,0,0,0,0,0,0,0,0,0,0,0,0,0,0,0,0,0,0,0,0,0,0,0,0,0,0,0,0,0,0,0,0,0,0,0,0,0,0,0,0,0,0,0,0,0,0,0,0,0,0,0,0,0,0,0,0,0,0,0,0,0,0,0,0,0,0,0,0,0,0,0,0,0,0,0,0,0,0,0,0,0,0,0,0,0,0,0,0,0,0,0,0,0,0,0,0,0,0,0,0,0,0,0,0,0,0,0,0,0,0,0,0,0,0,0,0,0,0,0,0,0,0,0,0,0,0,0,0,0,0,0,0,0,0,0,0,0,0,0,0,0,0,0,0,0,0,0,0,0,0,0,0,0,0,0,0,0,0,0,0,0,0,0,0,0,0,0,0,0,0,0,0,0,0,0,0,0,0,0,0,0,0,0,0,0,0,0,0,0,0,0,0,0,0,0,0,0,0,0,0,0,0,0,0,0,0,0,0,0,0,0,0,0,0,0,0,0,0,0,0,0,0,0,0,0,0,0,0,0,0,0,0,0,0,0,0,0,0,0,0,0,0,0,0,0,0,0,0,0,0,0,0,0,0,0,0,0,0,0,0,0,0,0,0,0,0,0,0,0,0,0,0,0,0,0,0,0,0,0,0,0,0,0,0,0,0,0,0,0,0,0,0,0,0,0,0,0,0,0,0,0,0,0,0,0,0,0,0,0,0,0,0,0,0,0,0,0,0,0,0,0,0,0,0,0,0,0,0,0,0,0,0,0,0,0,0,0,0,0,0,0,0,0,0,0,0,0,0,0,0,0,0,0,0,0,0,0,0,0,0,0,0,0,0,0,0,0,0,0,0,0,0,0,0,0,0,0,0,0,0,0,0,0,0,0,0,0,0,0,0,0,0,0,0,0,0,0,0,0,0,0,0,0,0,0,0,0,0,0,0,0,0,0,0,0,0,0,0,0,0,0,0,0,0,0,0,0,0,0,0,0,0,0,0,0,0,0,0,0,0,0,0,0,0,0,0,0,0,0,0,0,0,0,0,0,0,0,0,0,0,0,0,0,0,0,0,0,0,0,0,0,0,0,0,0,0,0,0,0,0,0,0,0,0,0,0,0,0,0,0,0,0,0,0,0,0,0,0,0,0,0,0,0,0,0,0,0,0,0,0,0,0,0,0,0,0,0,0,0,0,0,0,0,0,0,0,0,0,0,0,0,0,0,0,0,0,0,0,0,0,0,0,0,0,0,0,0,0,0,0,0,0,0,0,0,0,0,0,0,0,0,0,0,0,0,0,0,0,0,0,0,0,0,0,0,0,0,0,0,0,0,0,0,0,0,0,0,0,0,0,0,0,0,0,0,0,0,0,0,0,0,0,0,0,0,0,0,0,0,0,0,0,0,0,0,0,0,0,0,0,0,0,0,0,0,0,0,0,0,0,0,0,0,0,0,0,0,0,0,0,0,0,0,0,0,0,0,0,0,0,0,0,0,0,0,0,0,0,0,0,0,0,0,0,0,0,0,0,0,0,0,0,0,0,0,0,0,0,0,0,0,0,0,0,0,0,0,0,0,0,0,0,0,0,0,0,0,0,0,0,0,0,0,0,0,0,0,0,0,0,0,0,0,0,0,0,0,0,0,0,0,0,0,0,0,0,0,0,0,0,0,0,0,0,0,0,0,0,0,0,0,0,0,0,0,0,0,0,0,0,0,0,0,0,0,0,0,0,0,0,0,0,0,0,0,0,0,0,0,0,0,0,0,0,0,0,0,0,0,0,0,0,0,0,0,0,0,0,0,0,0,0,0,0,0,0,0,0,0,0,0,0,0,0,0,0,0,0,0,0,0,0,0,0,0,0,0,0,0,0,0,0,0,0,0,0,0,0,0,0,0,0,0,0,0,0,0,0,0,0,0,0,0,0,0,0,0,0,0,0,0,0,0,0,0,0,0,0,0,0,0,0,0,0,0,0,0,0,0,0,0,0,0,0,0,0,0,0,0,0,0,0,0,0,0,0,0,0,0,0,0,0,0,0,0,0,0,0,0,0,0,0,0,0,0,0,0,0,0,0,0,0,0,0,0,0,0,0,0,0,0,0,0,0,0,0,0,0,0,0,0,0,0,0,0,0,0,0,0,0,0,0,0,0,0,0,0,0,0,0,0,0,0,0,0,0,0,0,0,0,0,0,0,0,0,0,0,0,0,0,0,0,0,0,0,0,0,0,0,0,0,0,0,0,0,0,0,0,0,0,0,0,0,0,0,0,0,0,0,0,0,0,0,0,0,0,0,0,0,0,0,0,0,0,0,0,0,0,0,0,0,0,0,0,0,0,0,0,0,0,0,0,0,0,0,0,0,0,0,0,0,0,0,0,0,0,0,0,0,0,0,0,0,0,0,0,0,0,0,0,0,0,0,0,0,0,0,0,0,0,0,0,0,0,0,0,0,0,0,0,0,0,0,0,0,0,0,0,0,0,0,0,0,0,0,0,0,0,0,0,0,0,0,0,0,0,0,0,0,0,0,0,0,0,0,0,0,0,0,0,0,0,0,0,0,0,0,0,0,0,0,0,0,0,0,0,0,0,0,0,0,0,0,0,0,0,0,0,0,0,0,0,0,0,0,0,0,0,0,0,0,0,0,0,0,0,0,0,0,0,0,0,0,0,0,0,0,0,0,0,0,0,0,0,0,0,0,0,0,0,0,0,0,0,0,0,0,0,0,0,0,0,0,0,0,0,0,0,0,0,0,0,0,0,0,0,0,0,0,0,0,0,0,0,0,0,0,0,0,0,0,0,0,0,0,0,0,0,0,0,0,0,0,0,0,0,0,0,0,0,0,0,0,0,0,0,0,0,0,0,0,0,0,0,0,0,0,0,0,0,0,0,0,0,0,0,0,0,0,0,0,0,0,0,0,0,0,0,0,0,0,0,0,0,0,0,0,0,0,0,0,0,0,0,0,0,0,0,0,0,0,0,0,0,0,0,0,0,0,0,0,0,0,0,0,0,0,0,0,0,0,0,0,0,0,0,0,0,0,0,0,0,0,0,0,0,0,0,0,0,0,0,0,0,0,0,0,0,0,0,0,0,0,0,0,0,0,0,0,0,0,0,0,0,0,0,0,0,0,0,0,0,0,0,0,0,0,0,0,0,0,0,0,0,0,0,0,0,0,0,0,0,0,0,0,0,0,0,0,0,0,0,0,0,0,0,0,0,0,0,0,0,0,0,0,0,0,0,0,0,0,0,0,0,0,0,0,0,0,0,0,0,0,0,0,0,0,0,0,0,0,0,0,0,0,0,0,0,0,0,0,0,0,0,0,0,0,0,0,0,0,0,0,0,0,0,0,0,0,0,0,0,0,0,0,0,0,0,0,0,0,0,0,0,0,0,0,0,0,0,0,0,0,0,0,0,0,0,0,0,0,0,0,0,0,0,0,0,0,0,0,0,0,0,0,0,0,0,0,0,0,0,0,0,0,0,0,0,0,0,0,0,0,0,0,0,0,0,0,0,0,0,0,0,0,0,0,0,0,0,0,0,0,0,0,0,0,0,0,0,0,0,0,0,0,0,0,0,0,0,0,0,0,0,0,0,0,0,0,0,0,0,0,0,0,0,0,0,0,0,0,0,0,0,0,0,0,0,0,0,0,0,0,0,0,0,0,0,0,0,0,0,0,0,0,0,0,0,0,0,0,0,0,0,0,0,0,0,0,0,0,0,0,0,0,0,0,0,0,0,0,0,0,0,0,0,0,0,0,0,0,0,0,0,0,0,0,0,0,0,0,0,0,0,0,0,0,0,0,0,0,0,0,0,0,0,0,0,0,0,0,0,0,0,0,0,0,0,0,0,0,0,0,0,0,0,0,0,0,0,0,0,0,0,0,0,0,0,0,0,0,0,0,0,0,0,0,0,0,0,0,0,0,0,0,0,0,0,0,0,0,0,0,0,0,0,0,0,0,0,0,0,0,0,0,0,0,0,0,0,0,0,0,0,0,0,0,0,0,0,0,0,0,0,0,0,0,0,0,0,0,0,0,0,0,0,0,0,0,0,0,0,0,0,0,0,0,0,0,0,0,0,0,0,0,0,0,0,0,0,0,0,0,0,0,0,0,0,0,0,0,0,0,0,0,0,0,0,0,0,0,0,0,0,0,0,0,0,0,0,0,0,0,0,0,0,0,0,0,0,0,0,0,0,0,0,0,0,0,0,0,0,0,0,0,0,0,0,0,0,0,0,0,0,0,0,0,0,0,0,0,0,0,0,0,0,0,0,0,0,0,0,0,0,0,0,0,0,0,0,0,0,0,0,0,0,0,0,0,0,0,0,0,0,0,0,0,0,0,0,0,0,0,0,0,0,0,0,0,0,0,0,0,0,0,0,0,0,0,0,0,0,0,0,0,0,0,0,0,0,0,0,0,0,0,0,0,0,0,0,0,0,0,0,0,0,0,0,0,0,0,0,0,0,0,0,0,0,0,0,0,0,0,0,0,0,0,0,0,0,0,0,0,0,0,0,0,0,0,0,0,0,0,0,0,0,0,0,0,0,0,0,0,0,0,0,0,0,0,0,0,0,0,0,0,0,0,0,0,0,0,0,0,0,0,0,0,0,0,0,0,0,0,0,0,0,0,0,0,0,0,0,0,0,0,0,0,0,0,0,0,0,0,0,0,0,0,0,0,0,0,0,0,0,0,0,0,0,0,0,0,0,0,0,0,0,0,0,0,0,0,0,0,0,0,0,0,0,0,0,0,0,0,0,0,0,0,0,0,0,0,0,0,0,0,0,0,0,0,0,0,0,0,0,0,0,0,0,0,0,0,0,0,0,0,0,0,0,0,0,0,0,0,0,0,0,0,0,0,0,0,0,0,0,0,0,0,0,0,0,0,0,0,0,0,0,0,0,0,0,0,0,0,0,0,0,0,0,0,0,0,0,0,0,0,0,0,0,0,0,0,0,0,0,0,0,0,0,0,0,0,0,0,0,0,0,0,0,0,0,0,0,0,0,0,0,0,0,0,0,0,0,0,0,0,0,0,0,0,0,0,0,0,0,0,0,0,0,0,0,0,0,0,0,0,0,0,0,0,0,0,0,0,0,0,0,0,0,0,0,0,0,0,0,0,0,0,0,0,0,0,0,0,0,0,0,0,0,0,0,0,0,0,0,0,0,0,0,0,0,0,0,0,0,0,0,0,0,0,0,0,0,0,0,0,0,0,0,0,0,0,0,0,0,0,0,0,0,0,0,0,0,0,0,0,0,0,0,0,0,0,0,0,0,0,0,0,0,0,0,0,0,0,0,0,0,0,0,0,0,0,0,0,0,0,0,0,0,0,0,0,0,0,0,0,0,0,0,0,0,0,0,0,0,0,0,0,0,0,0,0,0,0,0,0,0,0,0,0,0,0,0,0,0,0,0,0,0,0,0,0,0,0,0,0,0,0,0,0,0,0,0,0,0,0,0,0,0,0,0,0,0,0,0,0,0,0,0,0,0,0,0,0,0,0,0,0,0,0,0,0,0,0,0,0,0,0,0,0,0,0,0,0,0,0,0,0,0,0,0,0,0,0,0,0,0,0,0,0,0,0,0,0,0,0,0,0,0,0,0,0,0,0,0,0,0,0,0,0,0,0,0,0,0,0,0,0,0,0,0,0,0,0,0,0,0,0,0,0,0,0,0,0,0,0,0,0,0,0,0,0,0,0,0,0,0,0,0,0,0,0,0,0,0,0,0,0,0,0,0,0,0,0,0,0,0,0,0,0,0,0,0,0,0,0,0,0,0,0,0,0,0,0,0,0,0,0,0,0,0,0,0,0,0,0,0,0,0,0,0,0,0,0,0,0,0,0,0,0,0,0,0,0,0,0,0,0,0,0,0,0,0,0,0,0,0,0,0,0,0,0,0,0,0,0,0,0,0,0,0,0,0,0,0,0,0,0,0,0,0,0,0,0,0,0,0,0,0,0,0,0,0,0,0,0,0,0,0,0,0,0,0,0,0,0,0,0,0,0,0,0,0,0,0,0,0,0,0,0,0,0,0,0,0,0,0,0,0,0,0,0,0,0,0,0,0,0,0,0,0,0,0,0,0,0,0,0,0,0,0,0,0,0,0,0,0,0,0,0,0,0,0,0,0,0,0,0,0,0,0,0,0,0,0,0,0,0,0,0,0,0,0,0,0,0,0,0,0,0,0,0,0,0,0,0,0,0,0,0,0,0,0,0,0,0,0,0,0,0,0,0,0,0,0,0,0,0,0,0,0,0,0,0,0,0,0,0,0,0,0,0,0,0,0,0,0,0,0,0,0,0,0,0,0,0,0,0,0,0,0,0,0,0,0,0,0,0,0,0,0,0,0,0,0,0,0,0,0,0,0,0,0,0,0,0,0,0,0,0,0,0,0,0,0,0,0,0,0,0,0,0,0,0,0,0,0,0,0,0,0,0,0,0,0,0,0,0,0,0,0,0,0,0,0,0,0,0,0,0,0,0,0,0,0,0,0,0,0,0,0,0,0,0,0,0,0,0,0,0,0,0,0,0,0,0,0,0,0,0,0,0,0,0,0,0,0,0,0,0,0,0,0,0,0,0,0,0,0,0,0,0,0,0,0,0,0,0,0,0,0,0,0,0,0,0,0,0,0,0,0,0,0,0,0,0,0,0,0,0,0,0,0,0,0,0,0,0,0,0,0,0,0,0,0,0,0,0,0,0,0,0,0,0,0,0,0,0,0,0,0,0,0,0,0,0,0,0,0,0,0,0,0,0,0,0,0,0,0,0,0,0,0,0,0,0,0,0,0,0,0,0,0,0,0,0,0,0,0,0,0,0,0,0,0,0,0,0,0,0,0,0,0,0,0,0,0,0,0,0,0,0,0,0,0,0,0,0,0,0,0,0,0,0,0,0,0,0,0,0,0,0,0,0,0,0,0,0,0,0,0,0,0,0,0,0,0,0,0,0,0,0,0,0,0,0,0,0,0,0,0,0,0,0,0,0,0,0,0,0,0,0,0,0,0,0,0,0,0,0,0,0,0,0,0,0,0,0,0,0,0,0,0,0,0,0,0,0,0,0,0,0,0,0,0,0,0,0,0,0,0,0,0,0,0,0,0,0,0,0,0,0,0,0,0,0,0,0,0,0,0,0,0,0,0,0,0,0,0,0,0,0,0,0,0,0,0,0,0,0,0,0,0,0,0,0,0,0,0,0,0,0,0,0,0,0,0,0,0,0,0,0,0,0,0,0,0,0,0,0,0,0,0,0,0,0,0,0,0,0,0,0,0,0,0,0,0,0,0,0,0,0,0,0,0,0,0,0,0,0,0,0,0,0,0,0,0,0,0,0,0,0,0,0,0,0,0,0,0,0,0,0,0,0,0,0,0,0,0,0,0,0,0,0,0,0,0,0,0,0,0,0,0,0,0,0,0,0,0,0,0,0,0,0,0,0,0,0,0,0,0,0,0,0,0,0,0,0,0,0,0,0,0,0,0,0,0,0,0,0,0,0,0,0,0,0,0,0,0,0,0,0,0,0,0,0,0,0,0,0,0,0,0,0,0,0,0,0,0,0,0,0,0,0,0,0,0,0,0,0,0,0,0,0,0,0,0,0,0,0,0,0,0,0,0,0,0,0,0,0,0,0,0,0,0,0,0,0,0,0,0,0,0,0,0,0,0,0,0,0,0,0,0,0,0,0,0,0,0,0,0,0,0,0,0,0,0,0,0,0,0,0,0,0,0,0,0,0,0,0,0,0,0,0,0,0,0,0,0,0,0,0,0,0,0,0,0,0,0,0,0,0,0,0,0,0,0,0,0,0,0,0,0,0,0,0,0,0,0,0,0,0,0,0,0,0,0,0,0,0,0,0,0,0,0,0,0,0,0,0,0,0,0,0,0,0,0,0,0,0,0,0,0,0,0,0,0,0,0,0,0,0,0,0,0,0,0,0,0,0,0,0,0,0,0,0,0,0,0,0,0,0,0,0,0,0,0,0,0,0,0,0,0,0,0,0,0,0,0,0,0,0,0,0,0,0,0,0,0,0,0,0,0,0,0,0,0,0,0,0,0,0,0,0,0,0,0,0,0,0,0,0,0,0,0,0,0,0,0,0,0,0,0,0,0,0,0,0,0,0,0,0,0,0,0,0,0,0,0,0,0,0,0,0,0,0,0,0,0,0,0,0,0,0,0,0,0,0,0,0,0,0,0,0,0,0,0,0,0,0,0,0,0,0,0,0,0,0,0,0,0,0,0,0,0,0,0,0,0,0,0,0,0,0,0,0,0,0,0,0,0,0,0,0,0,0,0,0,0,0,0,0,0,0,0,0,0,0,0,0,0,0,0,0,0,0,0,0,0,0,0,0,0,0,0,0,0,0,0,0,0,0,0,0,0,0,0,0,0,0,0,0,0,0,0,0,0,0,0,0,0,0,0,0,0,0,0,0,0,0,0,0,0,0,0,0,0,0,0,0,0,0,0,0,0,0,0,0,0,0,0,0,0,0,0,0,0,0,0,0,0,0,0,0,0,0,0,0,0,0,0,0,0,0,0,0,0,0,0,0,0,0,0,0,0,0,0,0,0,0,0,0,0,0,0,0,0,0,0,0,0,0,0,0,0,0,0,0,0,0,0,0,0,0,0,0,0,0,0,0,0,0,0,0,0,0,0,0,0,0,0,0,0,0,0,0,0,0,0,0,0,0,0,0,0,0,0,0,0,0,0,0,0,0,0,0,0,0,0,0,0,0,0,0,0,0,0,0,0,0,0,0,0,0,0,0,0,0,0,0,0,0,0,0,0,0,0,0,0,0,0,0,0,0,0,0,0,0,0,0,0,0,0,0,0,0,0,0,0,0,0,0,0,0,0,0,0,0,0,0,0,0,0,0,0,0,0,0,0,0,0,0,0,0,0,0,0,0,0,0,0,0,0,0,0,0,0,0,0,0,0,0,0,0,0,0,0,0,0,0,0,0,0,0,0,0,0,0,0,0,0,0,0,0,0,0,0,0,0,0,0,0,0,0,0,0,0,0,0,0,0,0,0,0,0,0,0,0,0,0,0,0,0,0,0,0,0,0,0,0,0,0,0,0,0,0,0,0,0,0,0,0,0,0,0,0,0,0,0,0,0,0,0,0,0,0,0,0,0,0,0,0,0,0,0,0,0,0,0,0,0,0,0,0,0,0,0,0,0,0,0,0,0,0,0,0,0,0,0,0,0,0,0,0,0,0,0,0,0,0,0,0,0,0,0,0,0,0,0,0,0,0,0,0,0,0,0,0,0,0,0,0,0,0,0,0,0,0,0,0,0,0,0,0,0,0,0,0,0,0,0,0,0,0,0,0,0,0,0,0,0,0,0,0,0,0,0,0,0,0,0,0,0,0,0,0,0,0,0,0,0,0,0,0,0,0,0,0,0,0,0,0,0,0,0,0,0,0,0,0,0,0,0,0,0,0,0,0,0,0,0,0,0,0,0,0,0,0,0,0,0,0,0,0,0,0,0,0,0,0,0,0,0,0,0,0,0,0,0,0,0,0,0,0,0,0,0,0,0,0,0,0,0,0,0,0,0,0,0,0,0,0,0,0,0,0,0,0,0,0,0,0,0,0,0,0,0,0,0,0,0,0,0,0,0,0,0,0,0,0,0,0,0,0,0,0,0,0,0,0,0,0,0,0,0,0,0,0,0,0,0,0,0,0,0,0,0,0,0,0,0,0,0,0,0,0,0,0,0,0,0,0,0,0,0,0,0,0,0,0,0,0,0,0,0,0,0,0,0,0,0,0,0,0,0,0,0,0,0,0,0,0,0,0,0,0,0,0,0,0,0,0,0,0,0]},{"id":6,"name":"steppe","type":"tilelayer","x":0,"y":0,"opacity":1,"visible":true,"width":144,"height":96,"data":[0,0,0,0,0,0,0,0,781,2147484607,815,863,911,815,2147484511,2147484559,2147484607,815,911,959,2147484463,2147484511,2147484607,815,863,911,815,2147484511,2147484559,2147484607,863,911,959,2147484463,2147484511,811,0,0,0,0,0,0,0,781,911,959,2147484463,2147484559,2147484607,2147484463,863,911,815,2147484511,2147484559,2147484607,811,0,0,0,0,781,2147484463,863,959,815,2147484511,2147484559,2147484607,863,911,959,2147484463,2147484559,2147484607,2147484463,863,959,815,2147484511,2147484559,2147484463,863,911,959,815,2147484559,2147484607,2147484463,863,959,815,2147484511,2147484559,2147484463,863,911,959,863,2147484559,2147484607,2147484463,863,959,815,2147484511,2147484559,2147484463,863,911,959,863,2147484559,2147484607,2147484463,911,959,815,2147484511,2147484559,2147484463,2147484511,911,959,863,2147484559,2147484607,2147484463,911,811,0,0,0,0,0,0,0,0,0,0,0,0,0,0,0,0,0,0,0,779,800,800,802,2147484607,863,959,2147484463,959,2147484607,959,815,2147484607,2147484511,2147484607,2147484607,959,959,815,863,2147484607,2147484511,959,815,2147484463,863,2147484511,2147484559,2147484607,2147484463,814,800,800,795,0,779,800,800,802,959,863,911,2147484511,2147484607,959,815,863,959,2147484463,2147484607,2147484559,814,800,800,800,800,802,2147484463,911,863,2147484511,2147484463,2147484607,2147484463,959,815,2147484607,863,911,815,2147484463,0,0,0,0,0,0,0,0,0,0,0,0,0,0,0,0,0,0,0,0,0,0,0,2147484463,959,2147484511,2147484607,911,2147484511,815,2147484463,911,2147484511,911,2147484559,815,863,863,863,2147484559,2147484607,2147484511,911,815,863,863,2147484463,2147484463,959,2147484511,959,863,2147484511,814,800,800,800,800,800,800,800,795,0,0,0,0,0,0,0,0,0,0,779,802,911,863,2147484463,815,863,2147484463,2147484559,911,959,2147484559,863,2147484511,2147484559,863,2147484607,911,959,2147484607,2147484511,863,911,863,911,2147484559,911,2147484559,863,959,911,959,2147484607,2147484559,814,800,802,815,2147484607,959,2147484607,959,2147484463,2147484511,2147484559,2147484463,959,815,2147484559,2147484511,2147484559,959,815,911,863,911,911,2147484511,911,959,0,0,0,0,0,0,0,0,0,0,0,0,0,911,2147484511,2147484607,2147484559,2147484607,911,911,815,2147484559,863,815,2147484607,2147484607,2147484559,959,2147484511,959,2147484559,815,959,911,0,0,0,0,0,0,0,0,0,0,0,0,0,0,0,0,0,0,0,0,0,0,0,0,0,0,0,0,0,0,0,0,0,0,0,0,0,815,2147484511,811,0,0,0,0,0,0,0,0,0,0,773,810,2147484463,959,2147484463,863,911,815,2147484607,2147484559,2147484463,2147484463,911,2147484511,863,959,863,2147484511,959,815,2147484511,911,863,815,959,2147484607,911,863,959,2147484607,959,2147484511,863,2147484607,959,2147484559,2147484607,2147484511,863,815,2147484559,2147484511,2147484463,2147484463,2147484511,815,2147484463,2147484559,2147484511,2147484463,959,2147484463,2147484511,959,911,813,805,810,2147484559,2147484559,2147484607,2147484607,2147484559,863,2147484511,959,2147484607,2147484559,815,2147484511,813,805,805,805,805,805,805,805,805,805,805,805,805,805,805,805,805,805,805,805,805,805,805,805,810,2147484511,2147484463,959,2147484559,863,863,959,863,863,2147484511,2147484607,911,959,2147484607,2147484559,815,959,2147484559,2147484511,2147484463,2147484559,2147484559,2147484463,2147484559,2147484463,2147484463,2147484559,2147484607,815,2147484463,813,805,805,805,805,805,805,805,803,0,0,0,0,0,0,0,0,0,0,0,781,863,2147484463,815,815,2147484559,2147484559,2147484463,2147484607,2147484607,863,863,959,815,2147484511,2147484607,2147484511,2147484511,815,815,2147484463,2147484463,2147484463,2147484559,863,2147484511,2147484607,959,2147484607,2147484559,2147484559,0,0,0,0,0,0,0,0,0,0,0,0,0,0,0,0,0,0,0,0,0,805,805,803,0,773,805,805,805,805,805,805,805,805,805,805,805,805,803,0,0,0,0,0,0,0,0,0,0,0,0,0,0,0,0,0,0,0,0,0,0,0,773,805,805,805,805,805,805,805,805,805,805,805,805,805,805,805,805,805,805,805,805,805,805,805,805,805,805,805,805,805,805,803,0,0,0,0,0,0,0,0,0,0,0,0,0,0,0,0,0,0,779,802,815,2147484559,2147484607,959,2147484511,813,805,810,2147484607,2147484559,2147484559,2147484463,863,911,0,0,0,0,0,0,0,0,0,0,0,0,0,0,0,0,0,911,911,2147484559,2147484463,2147484607,2147484607,813,805,805,805,805,805,805,805,805,805,805,805,805,803,0,0,0,0,0,0,0,0,0,0,0,0,0,0,0,0,0,0,0,0,0,0,0,0,0,0,0,0,0,0,0,0,0,0,0,0,0,0,0,0,0,0,0,0,0,0,0,0,0,0,0,0,0,0,0,0,0,0,0,0,0,0,0,0,0,0,0,0,0,0,0,0,0,0,0,0,0,0,0,0,0,0,0,0,0,0,0,0,0,779,800,802,815,2147484463,911,2147484607,911,2147484607,811,0,773,805,805,805,805,805,805,805,805,805,805,805,805,805,805,810,2147484559,863,2147484559,815,2147484559,911,911,2147484559,815,2147484559,911,911,2147484607,911,811,0,0,0,0,0,0,0,0,0,0,0,0,0,0,0,0,0,0,0,0,0,0,0,0,0,0,0,0,0,0,0,0,0,0,0,0,0,0,0,0,0,0,0,0,0,0,0,0,0,0,0,0,0,0,0,0,0,0,0,0,0,0,0,0,0,0,0,0,0,0,0,0,0,0,0,0,0,0,0,0,0,0,0,0,0,0,0,0,0,0,0,0,0,0,0,0,0,0,0,0,0,779,802,2147484463,2147484607,863,959,863,911,2147484559,911,814,795,0,0,0,0,0,0,0,0,0,0,0,0,0,0,0,773,810,2147484607,2147484511,2147484607,959,911,2147484559,0,911,863,2147484607,2147484463,863,815,811,0,0,0,0,0,0,0,0,0,0,0,0,0,0,0,0,0,0,0,0,0,0,0,0,0,0,0,0,0,0,0,0,0,0,0,0,0,0,0,0,0,0,0,0,0,0,0,0,0,0,0,0,0,0,0,0,0,0,0,0,0,0,0,0,0,0,0,0,0,0,0,0,0,0,0,0,0,0,0,0,0,0,0,0,0,0,0,0,0,0,0,0,0,0,0,0,0,0,0,0,800,802,863,2147484607,815,2147484511,863,2147484559,911,2147484463,911,815,814,795,0,0,0,0,0,0,0,0,0,0,0,0,0,0,0,3893,3925,3925,3930,959,0,0,0,0,0,0,0,0,0,0,0,0,0,0,0,0,0,0,0,0,0,0,0,0,0,0,0,0,0,0,0,0,0,0,0,0,0,0,0,0,0,0,0,0,0,0,0,0,0,0,0,0,0,0,0,0,0,0,0,0,0,0,0,0,0,0,0,0,0,0,0,0,0,0,0,0,0,0,0,0,0,0,0,0,0,0,0,0,0,0,0,0,0,0,0,0,0,0,0,0,0,0,0,0,0,0,0,0,0,0,805,810,2147484607,815,815,2147484511,2147484559,2147484607,863,2147484559,2147484607,815,813,803,0,0,0,0,0,0,0,0,0,0,0,0,0,0,0,0,0,0,0,0,0,0,0,0,0,0,0,0,0,0,0,0,0,0,0,0,0,0,0,0,0,0,0,0,0,0,0,0,0,0,0,0,0,0,0,0,0,0,0,0,0,0,0,0,0,0,0,0,0,0,0,0,0,0,0,0,0,0,0,0,0,0,0,0,0,0,0,0,0,0,0,0,0,0,0,0,0,0,0,0,0,0,0,0,0,0,0,0,0,0,0,0,0,0,0,0,0,0,0,0,0,0,0,0,0,0,0,0,0,0,0,773,810,2147484559,911,863,815,863,863,959,2147484607,813,803,0,0,0,0,0,0,0,0,0,0,0,0,0,0,0,0,0,0,0,0,0,0,0,0,0,0,0,0,0,0,0,0,0,0,0,0,0,0,0,0,0,0,0,0,0,0,0,0,0,0,0,0,0,0,0,0,0,0,0,0,0,0,0,0,0,0,0,0,0,0,0,0,0,0,0,0,0,0,0,0,0,0,0,0,0,0,0,0,0,0,0,0,0,0,0,0,0,0,0,0,0,0,0,0,0,0,0,0,0,0,0,0,0,0,0,0,0,0,0,0,0,0,0,0,0,0,0,0,0,0,0,0,0,773,805,810,815,863,2147484511,911,813,805,803,0,0,0,0,0,0,0,0,0,0,0,0,0,0,0,0,0,0,0,0,0,0,0,0,0,0,0,0,0,0,0,0,0,0,0,0,0,0,0,0,0,0,0,0,0,0,0,0,0,0,0,0,0,0,0,0,0,0,0,0,0,0,0,0,0,0,0,0,0,0,0,0,0,0,0,0,0,0,0,0,0,0,0,0,0,0,0,0,0,0,0,0,0,0,0,0,0,0,0,0,0,0,0,0,0,0,0,0,0,0,0,0,0,0,0,0,0,0,0,0,0,0,0,0,0,0,0,0,0,0,0,0,0,0,0,0,773,805,805,805,805,803,0,0,0,0,0,0,0,0,0,0,0,0,0,0,0,0,0,0,0,0,0,0,0,0,0,0,0,0,0,0,0,0,0,0,0,0,0,0,0,0,0,0,0,0,0,0,0,0,0,0,0,0,0,0,0,0,0,0,0,0,0,0,0,0,0,0,0,0,0,0,0,0,0,0,0,0,0,0,0,0,0,0,0,0,0,0,0,0,0,0,0,0,0,0,0,0,0,0,0,0,0,0,0,0,0,0,0,0,0,0,0,0,0,0,0,0,0,0,0,0,0,0,0,0,0,0,0,0,0,0,0,0,0,0,0,0,0,0,0,0,0,0,0,0,0,0,0,0,0,0,0,0,0,0,0,0,0,0,0,0,0,0,0,0,0,0,0,0,0,0,0,0,0,0,0,0,0,0,0,0,0,0,0,0,0,0,0,0,0,0,0,0,0,0,0,0,0,0,0,0,0,0,0,0,0,0,0,0,0,0,0,0,0,0,0,0,0,0,0,0,0,0,0,0,0,0,0,0,0,0,0,0,0,0,0,0,0,0,0,0,0,0,0,0,0,0,0,0,0,0,0,0,0,0,0,0,0,0,0,0,0,0,0,0,0,0,0,0,0,0,0,0,0,0,0,0,0,0,0,0,0,0,0,0,0,0,0,0,0,0,0,0,0,0,0,0,0,0,0,0,0,0,0,0,0,0,0,0,0,0,0,0,0,0,0,0,0,0,0,0,0,0,0,0,0,0,0,0,0,0,0,0,0,0,0,0,0,0,0,0,0,0,0,0,0,0,0,0,0,0,0,0,0,0,0,0,0,0,0,0,0,0,0,0,0,0,0,0,0,0,0,0,0,0,0,0,0,0,0,0,0,0,0,0,0,0,0,0,0,0,0,0,0,0,0,0,0,0,0,0,0,0,0,0,0,0,0,0,0,0,0,0,0,0,0,0,0,0,0,0,0,0,0,0,0,0,0,0,0,0,0,0,0,0,0,0,0,0,0,0,0,0,0,0,0,0,0,0,0,0,0,0,0,0,0,0,0,0,0,0,0,0,0,0,0,0,0,0,0,0,0,0,0,0,0,0,0,0,0,0,0,0,0,0,0,0,0,0,0,0,0,0,0,0,0,0,0,0,0,0,0,0,0,0,0,0,0,0,0,0,0,0,0,0,0,0,0,0,0,0,0,0,0,0,0,0,0,0,0,0,0,0,0,0,0,0,0,0,0,0,0,0,0,0,0,0,0,0,0,0,0,0,0,0,0,0,0,0,0,0,0,0,0,0,0,0,0,0,0,0,0,0,0,0,0,0,0,0,0,0,0,0,0,0,0,0,0,0,0,0,0,0,0,0,0,0,0,0,0,0,0,0,0,0,0,0,0,0,0,0,0,0,0,0,0,0,0,0,0,0,0,0,0,0,0,0,0,0,0,0,0,0,0,0,0,0,0,0,0,0,0,0,0,0,0,0,0,0,0,0,0,0,0,0,0,0,0,0,0,0,0,0,0,0,0,0,0,0,0,0,0,0,0,0,0,0,0,0,0,0,0,0,0,0,0,0,0,0,0,0,0,0,0,0,0,0,0,0,0,0,0,0,0,0,0,0,0,0,0,0,0,0,0,0,0,0,0,0,0,0,0,0,0,0,0,0,0,0,0,0,0,0,0,0,0,0,0,0,0,0,0,0,0,0,0,0,0,0,0,0,0,0,0,0,0,0,0,0,0,0,0,0,0,0,0,0,0,0,0,0,0,0,0,0,0,0,0,0,0,0,0,0,0,0,0,0,0,0,0,0,0,0,0,0,0,0,0,0,0,0,0,0,0,0,0,0,0,0,0,0,0,0,0,0,0,0,0,0,0,0,0,0,0,0,0,0,0,0,0,0,0,0,0,0,0,0,0,0,0,0,0,0,0,0,0,0,0,0,0,0,0,0,0,0,0,0,0,0,0,0,0,0,0,0,0,0,0,0,0,0,0,0,0,0,0,0,0,0,0,0,0,0,0,0,0,0,0,0,0,0,0,0,0,0,0,0,0,0,0,0,0,0,0,0,0,0,0,0,0,0,0,0,0,0,0,0,0,0,0,0,0,0,0,0,0,0,0,0,0,0,0,0,0,0,0,0,0,0,0,0,0,0,0,0,0,0,0,0,0,0,0,0,0,0,0,0,0,0,0,0,0,0,0,0,0,0,0,0,0,0,0,0,0,0,0,0,0,0,0,0,0,0,0,0,0,0,0,0,0,0,0,0,0,0,0,0,0,0,0,0,0,0,0,0,0,0,0,0,0,0,0,0,0,0,0,0,0,0,0,0,0,0,0,0,0,0,0,0,0,0,0,0,0,0,0,0,0,0,0,0,0,0,0,0,0,0,0,0,0,0,0,0,0,0,0,0,0,0,0,0,0,0,0,0,0,0,0,0,0,0,0,0,0,0,0,0,0,0,0,0,0,0,0,0,0,0,0,0,0,0,0,0,0,0,0,0,0,0,0,0,0,0,0,0,0,0,0,0,0,0,0,0,0,0,0,0,0,0,0,0,0,0,0,0,0,0,0,0,0,0,0,0,0,0,0,0,0,0,0,0,0,0,0,0,0,0,0,0,0,0,0,0,0,0,0,0,0,0,0,0,0,0,0,0,0,0,0,0,0,0,0,0,0,0,0,0,0,0,0,0,0,0,0,0,0,0,0,0,0,0,0,0,0,0,0,0,0,0,0,0,0,0,0,0,0,0,0,0,0,0,0,0,0,0,0,0,0,0,0,0,0,0,0,0,0,0,0,0,0,0,0,0,0,0,0,0,0,0,0,0,0,0,0,0,0,0,0,0,0,0,0,0,0,0,0,0,0,0,0,0,0,0,0,0,0,0,0,0,0,0,0,0,0,0,0,0,0,0,0,0,0,0,0,0,0,0,0,0,0,0,0,0,0,0,0,0,0,0,0,0,0,0,0,0,0,0,0,0,0,0,0,0,0,0,0,0,0,0,0,0,0,0,0,0,0,0,0,0,0,0,0,0,0,0,0,0,0,0,0,0,0,0,0,0,0,0,0,0,0,0,0,0,0,0,0,0,0,0,0,0,0,0,0,0,0,0,0,0,0,0,0,0,0,0,0,0,0,0,0,0,0,0,0,0,0,0,0,0,0,0,0,0,0,0,0,0,0,0,0,0,0,0,0,0,0,0,0,0,0,0,0,0,0,0,0,0,0,0,0,0,0,0,0,0,0,0,0,0,0,0,0,0,0,0,0,0,0,0,0,0,0,0,0,0,0,0,0,0,0,0,0,0,0,0,0,0,0,0,0,0,0,0,0,0,0,0,0,0,0,0,0,0,0,0,0,0,0,0,0,0,0,0,0,0,0,0,0,0,0,0,0,0,0,0,0,0,0,0,0,0,0,0,0,0,0,0,0,0,0,0,0,0,0,0,0,0,0,0,0,0,0,0,0,0,0,0,0,0,0,0,0,0,0,0,0,0,0,0,0,0,0,0,0,0,0,0,0,0,0,0,0,0,0,0,0,0,0,0,0,0,0,0,0,0,0,0,0,0,0,0,0,0,0,0,0,0,0,0,0,0,0,0,0,0,0,0,0,0,0,0,0,0,0,0,0,0,0,0,0,0,0,0,0,0,0,0,0,0,0,0,0,0,0,0,0,0,0,0,0,0,0,0,0,0,0,0,0,0,0,0,0,0,0,0,0,0,0,0,0,0,0,0,0,0,0,0,0,0,0,0,0,0,0,0,0,0,0,0,0,0,0,0,0,0,0,0,0,0,0,0,0,0,0,0,0,0,0,0,0,0,0,0,0,0,0,0,0,0,0,0,0,0,0,0,0,0,0,0,0,0,0,0,0,0,0,0,0,0,0,0,0,0,0,0,0,0,0,0,0,0,0,0,0,0,0,0,0,0,0,0,0,0,0,0,0,0,0,0,0,0,0,0,0,0,0,0,0,0,0,0,0,0,0,0,0,0,0,0,0,0,0,0,0,0,0,0,0,0,0,0,0,0,0,0,0,0,0,0,0,0,0,0,0,0,0,0,0,0,0,0,0,0,0,0,0,0,0,0,0,0,0,0,0,0,0,0,0,0,0,0,0,0,0,0,0,0,0,0,0,0,0,0,0,0,0,0,0,0,0,0,0,0,0,0,0,0,0,0,0,0,0,0,0,0,0,0,0,0,0,0,0,0,0,0,0,0,0,0,0,0,0,0,0,0,0,0,0,0,0,0,0,0,0,0,0,0,0,0,0,0,0,0,0,0,0,0,0,0,0,0,0,0,0,0,0,0,0,0,0,0,0,0,0,0,0,0,0,0,0,0,0,0,0,0,0,0,0,0,0,0,0,0,0,0,0,0,0,0,0,0,0,0,0,0,0,0,0,0,0,0,0,0,0,0,0,0,0,0,0,0,0,0,0,0,0,0,0,0,0,0,0,0,0,0,0,0,0,0,0,0,0,0,0,0,0,0,0,0,0,0,0,0,0,0,0,0,0,0,0,0,0,0,0,0,0,0,0,0,0,0,0,0,0,0,0,0,0,0,0,0,0,0,0,0,0,0,0,0,0,0,0,0,0,0,0,0,0,0,0,0,0,0,0,0,0,0,0,0,0,0,0,0,0,0,0,0,0,0,0,0,0,0,0,0,0,0,0,0,0,0,0,0,0,0,0,0,0,0,0,0,0,0,0,0,0,0,0,0,0,0,0,0,0,0,0,0,0,0,0,0,0,0,0,0,0,0,0,0,0,0,0,0,0,0,0,0,0,0,0,0,0,0,0,0,0,0,0,0,0,0,0,0,0,0,0,0,0,0,0,0,0,0,0,0,0,0,0,0,0,0,0,0,0,0,0,0,0,0,0,0,0,0,0,0,0,0,0,0,0,0,0,0,0,0,0,0,0,0,0,0,0,0,0,0,0,0,0,0,0,0,0,0,0,0,0,0,0,0,0,0,0,0,0,0,0,0,0,0,0,0,0,0,0,0,0,0,0,0,0,0,0,0,0,0,0,0,0,0,0,0,0,0,0,0,0,0,0,0,0,0,0,0,0,0,0,0,0,0,0,0,0,0,0,0,0,0,0,0,0,0,0,0,0,0,0,0,0,0,0,0,0,0,0,0,0,0,0,0,0,0,0,0,0,0,0,0,0,0,0,0,0,0,0,0,0,0,0,0,0,0,0,0,0,0,0,0,0,0,0,0,0,0,0,0,0,0,0,0,0,0,0,0,0,0,0,0,0,0,0,0,0,0,0,0,0,0,0,0,0,0,0,0,0,0,0,0,0,0,0,0,0,0,0,0,0,0,0,0,0,0,0,0,0,0,0,0,0,0,0,0,0,0,0,0,0,0,0,0,0,0,0,0,0,0,0,0,0,0,0,0,0,0,0,0,0,0,0,0,0,0,0,0,0,0,0,0,0,0,0,0,0,0,0,0,0,0,0,0,0,0,0,0,0,0,0,0,0,0,0,0,0,0,0,0,0,0,0,0,0,0,0,0,0,0,0,0,0,0,0,0,0,0,0,0,0,0,0,0,0,0,0,0,0,0,0,0,0,0,0,0,0,0,0,0,0,0,0,0,0,0,0,0,0,0,0,0,0,0,0,0,0,0,0,0,0,0,0,0,0,0,0,0,0,0,0,0,0,0,0,0,0,0,0,0,0,0,0,0,0,0,0,0,0,0,0,0,0,0,0,0,0,0,0,0,0,0,0,0,0,0,0,0,0,0,0,0,0,0,0,0,0,0,0,0,0,0,0,0,0,0,0,0,0,0,0,0,0,0,0,0,0,0,0,0,0,0,0,0,0,0,0,0,0,0,0,0,0,0,0,0,0,0,0,0,0,0,0,0,0,0,0,0,0,0,0,0,0,0,0,0,0,0,0,0,0,0,0,0,0,0,0,0,0,0,0,0,0,0,0,0,0,0,0,0,0,0,0,0,0,0,0,0,0,0,0,0,0,0,0,0,0,0,0,0,0,0,0,0,0,0,0,0,0,0,0,0,0,0,0,0,0,0,0,0,0,0,0,0,0,0,0,0,0,0,0,0,0,0,0,0,0,0,0,0,0,0,0,0,0,0,0,0,0,0,0,0,0,0,0,0,0,0,0,0,0,0,0,0,0,0,0,0,0,0,0,0,0,0,0,0,0,0,0,0,0,0,0,0,0,0,0,0,0,0,0,0,0,0,0,0,0,0,0,0,0,0,0,0,0,0,0,0,0,0,0,0,0,0,0,0,0,0,0,0,0,0,0,0,0,0,0,0,0,0,0,0,0,0,0,0,0,0,0,0,0,0,0,0,0,0,0,0,0,0,0,0,0,0,0,0,0,0,0,0,0,0,0,0,0,0,0,0,0,0,0,0,0,0,0,0,0,0,0,0,0,0,0,0,0,0,0,0,0,0,0,0,0,0,0,0,0,0,0,0,0,0,0,0,0,0,0,0,0,0,0,0,0,0,0,0,0,0,0,0,0,0,0,0,0,0,0,0,0,0,0,0,0,0,0,0,0,0,0,0,0,0,0,0,0,0,0,0,0,0,0,0,0,0,0,0,0,0,0,0,0,0,0,0,0,0,0,0,0,0,0,0,0,0,0,0,0,0,0,0,0,0,0,0,0,0,0,0,0,0,0,0,0,0,0,0,0,0,0,0,0,0,0,0,0,0,0,0,0,0,0,0,0,0,0,0,0,0,0,0,0,0,0,0,0,0,0,0,0,0,0,0,0,0,0,0,0,0,0,0,0,0,0,0,0,0,0,0,0,0,0,0,0,0,0,0,0,0,0,0,0,0,0,0,0,0,0,0,0,0,0,0,0,0,0,0,0,0,0,0,0,0,0,0,0,0,0,0,0,0,0,0,0,0,0,0,0,0,0,0,0,0,0,0,0,0,0,0,0,0,0,0,0,0,0,0,0,0,0,0,0,0,0,0,0,0,0,0,0,0,0,0,0,0,0,0,0,0,0,0,0,0,0,0,0,0,0,0,0,0,0,0,0,0,0,0,0,0,0,0,0,0,0,0,0,0,0,0,0,0,0,0,0,0,0,0,0,0,0,0,0,0,0,0,0,0,0,0,0,0,0,0,0,0,0,0,0,0,0,0,0,0,0,0,0,0,0,0,0,0,0,0,0,0,0,0,0,0,0,0,0,0,0,0,0,0,0,0,0,0,0,0,0,0,0,0,0,0,0,0,0,0,0,0,0,0,0,0,0,0,0,0,0,0,0,0,0,0,0,0,0,0,0,0,0,0,0,0,0,0,0,0,0,0,0,0,0,0,0,0,0,0,0,0,0,0,0,0,0,0,0,0,0,0,0,0,0,0,0,0,0,0,0,0,0,0,0,0,0,0,0,0,0,0,0,0,0,0,0,0,0,0,0,0,0,0,0,0,0,0,0,0,0,0,0,0,0,0,0,0,0,0,0,0,0,0,0,0,0,0,0,0,0,0,0,0,0,0,0,0,0,0,0,0,0,0,0,0,0,0,0,0,0,0,0,0,0,0,0,0,0,0,0,0,0,0,0,0,0,0,0,0,0,0,0,0,0,0,0,0,0,0,0,0,0,0,0,0,0,0,0,0,0,0,0,0,0,0,0,0,0,0,0,0,0,0,0,0,0,0,0,0,0,0,0,0,0,0,0,0,0,0,0,0,0,0,0,0,0,0,0,0,0,0,0,0,0,0,0,0,0,0,0,0,0,0,0,0,0,0,0,0,0,0,0,0,0,0,0,0,0,0,0,0,0,0,0,0,0,0,0,0,0,0,0,0,0,0,0,0,0,0,0,0,0,0,0,0,0,0,0,0,0,0,0,0,0,0,0,0,0,0,0,0,0,0,0,0,0,0,0,0,0,0,0,0,0,0,0,0,0,0,0,0,0,0,0,0,0,0,0,0,0,0,0,0,0,0,0,0,0,0,0,0,0,0,0,0,0,0,0,0,0,0,0,0,0,0,0,0,0,0,0,0,0,0,0,0,0,0,0,0,0,0,0,0,0,0,0,0,0,0,0,0,0,0,0,0,0,0,0,0,0,0,0,0,0,0,0,0,0,0,0,0,0,0,0,0,0,0,0,0,0,0,0,0,0,0,0,0,0,0,0,0,0,0,0,0,0,0,0,0,0,0,0,0,0,0,0,0,0,0,0,0,0,0,0,0,0,0,0,0,0,0,0,0,0,0,0,0,0,0,0,0,0,0,0,0,0,0,0,0,0,0,0,0,0,0,0,0,0,0,0,0,0,0,0,0,0,0,0,0,0,0,0,0,0,0,0,0,0,0,0,0,0,0,0,0,0,0,0,0,0,0,0,0,0,0,0,0,0,0,0,0,0,0,0,0,0,0,0,0,0,0,0,0,0,0,0,0,0,0,0,0,0,0,0,0,0,0,0,0,0,0,0,0,0,0,0,0,0,0,0,0,0,0,0,0,0,0,0,0,0,0,0,0,0,0,0,0,0,0,0,0,0,0,0,0,0,0,0,0,0,0,0,0,0,0,0,0,0,0,0,0,0,0,0,0,0,0,0,0,0,0,0,0,0,0,0,0,0,0,0,0,0,0,0,0,0,0,0,0,0,0,0,0,0,0,0,0,0,0,0,0,0,0,0,0,0,0,0,0,0,0,0,0,0,0,0,0,0,0,0,0,0,0,0,0,0,0,0,0,0,0,0,0,0,0,0,0,0,0,0,0,0,0,0,0,0,0,0,0,0,0,0,0,0,0,0,0,0,0,0,0,0,0,0,0,0,0,0,0,0,0,0,0,0,0,0,0,0,0,0,0,0,0,0,0,0,0,0,0,0,0,0,0,0,0,0,0,0,0,0,0,0,0,0,0,0,0,0,0,0,0,0,0,0,0,0,0,0,0,0,0,0,0,0,0,0,0,0,0,0,0,0,0,0,0,0,0,0,0,0,0,0,0,0,0,0,0,0,0,0,0,0,0,0,0,0,0,0,0,0,0,0,0,0,0,0,0,0,0,0,0,0,0,0,0,0,0,0,0,0,0,0,0,0,0,0,0,0,0,0,0,0,0,0,0,0,0,0,0,0,0,0,0,0,0,0,0,0,0,0,0,0,0,0,0,0,0,0,0,0,0,0,0,0,0,0,0,0,0,0,0,0,0,0,0,0,0,0,0,0,0,0,0,0,0,0,0,0,0,0,0,0,0,0,0,0,0,0,0,0,0,0,0,0,0,0,0,0,0,0,0,0,0,0,0,0,0,0,0,0,0,0,0,0,0,0,0,0,0,0,0,0,0,0,0,0,0,0,0,0,0,0,0,0,0,0,0,0,0,0,0,0,0,0,0,0,0,0,0,0,0,0,0,0,0,0,0,0,0,0,0,0,0,0,0,0,0,0,0,0,0,0,0,0,0,0,0,0,0,0,0,0,0,0,0,0,0,0,0,0,0,0,0,0,0,0,0,0,0,0,0,0,0,0,0,0,0,0,0,0,0,0,0,0,0,0,0,0,0,0,0,0,0,0,0,0,0,0,0,0,0,0,0,0,0,0,0,0,0,0,0,0,0,0,0,0,0,0,0,0,0,0,0,0,0,0,0,0,0,0,0,0,0,0,0,0,0,0,0,0,0,0,0,0,0,0,0,0,0,0,0,0,0,0,0,0,0,0,0,0,0,0,0,0,0,0,0,0,0,0,0,0,0,0,0,0,0,0,0,0,0,0,0,0,0,0,0,0,0,0,0,0,0,0,0,0,0,0,0,0,0,0,0,0,0,0,0,0,0,0,0,0,0,0,0,0,0,0,0,0,0,0,0,0,0,0,0,0,0,0,0,0,0,0,0,0,0,0,0,0,0,0,0,0,0,0,0,0,0,0,0,0,0,0,0,0,0,0,0,0,0,0,0,0,0,0,0,0,0,0,0,0,0,0,0,0,0,0,0,0,0,0,0,0,0,0,0,0,0,0,0,0,0,0,0,0,0,0,0,0,0,0,0,0,0,0,0,0,0,0,0,0,0,0,0,0,0,0,0,0,0,0,0,0,0,0,0,0,0,0,0,0,0,0,0,0,0,0,0,0,0,0,0,0,0,0,0,0,0,0,0,0,0,0,0,0,0,0,0,0,0,0,0,0,0,0,0,0,0,0,0,0,0,0,0,0,0,0,0,0,0,0,0,0,0,0,0,0,0,0,0,0,0,0,0,0,0,0,0,0,0,0,0,0,0,0,0,0,0,0,0,0,0,0,0,0,0,0,0,0,0,0,0,0,0,0,0,0,0,0,0,0,0,0,0,0,0,0,0,0,0,0,0,0,0,0,0,0,0,0,0,0,0,0,0,0,0,0,0,0,0,0,0,0,0,0,0,0,0,0,0,0,0,0,0,0,0,0,0,0,0,0,0,0,0,0,0,0,0,0,0,0,0,0,0,0,0,0,0,0,0,0,0,0,0,0,0,0,0,0,0,0,0,0,0,0,0,0,0,0,0,0,0,0,0,0,0,0,0,0,0,0,0,0,0,0,0,0,0,0,0,0,0,0,0,0,0,0,0,0,0,0,0,0,0,0,0,0,0,0,0,0,0,0,0,0,0,0,0,0,0,0,0,0,0,0,0,0,0,0,0,0,0,0,0,0,0,0,0,0,0,0,0,0,0,0,0,0,0,0,0,0,0,0,0,0,0,0,0,0,0,0,0,0,0,0,0,0,0,0,0,0,0,0,0,0,0,0,0,0,0,0,0,0,0,0,0,0,0,0,0,0,0,0,0,0,0,0,0,0,0,0,0,0,0,0,0,0,0,0,0,0,0,0,0,0,0,0,0,0,0,0,0,0,0,0,0,0,0,0,0,0,0,0,0,0,0,0,0,0,0,0,0,0,0,0,0,0,0,0,0,0,0,0,0,0,0,0,0,0,0,0,0,0,0,0,0,0,0,0,0,0,0,0,0,0,0,0,0,0,0,0,0,0,0,0,0,0,0,0,0,0,0,0,0,0,0,0,0,0,0,0,0,0,0,0,0,0,0,0,0,0,0,0,0,0,0,0,0,0,0,0,0,0,0,0,0,0,0,0,0,0,0,0,0,0,0,0,0,0,0,0,0,0,0,0,0,0,0,0,0,0,0,0,0,0,0,0,0,0,0,0,0,0,0,0,0,0,0,0,0,0,0,0,0,0,0,0,0,0,0,0,0,0,0,0,0,0,0,0,0,0,0,0,0,0,0,0,0,0,0,0,0,0,0,0,0,0,0,0,0,0,0,0,0,0,0,0,0,0,0,0,0,0,0,0,0,0,0,0,0,0,0,0,0,0,0,0,0,0,0,0,0,0,0,0,0,0,0,0,0,0,0,0,0,0,0,0,0,0,0,0,0,0,0,0,0,0,0,0,0,0,0,0,0,0,0,0,0,0,0,0,0,0,0,0,0,0,0,0,0,0,0,0,0,0,0,0,0,0,0,0,0,0,0,0,0,0,0,0,0,0,0,0,0,0,0,0,0,0,0,0,0,0,0,0,0,0,0,0,0,0,0,0,0,0,0,0,0,0,0,0,0,0,0,0,0,0,0,0,0,0,0,0,0,0,0,0,0,0,0,0,0,0,0,0,0,0,0,0,0,0,0,0,0,0,0,0,0,0,0,0,0,0,0,0,0,0,0,0,0,0,0,0,0,0,0,0,0,0,0,0,0,0,0,0,0,0,0,0,0,0,0,0,0,0,0,0,0,0,0,0,0,0,0,0,0,0,0,0,0,0,0,0,0,0,0,0,0,0,0,0,0,0,0,0,0,0,0,0,0,0,0,0,0,0,0,0,0,0,0,0,0,0,0,0,0,0,0,0,0,0,0,0,0,0,0,0,0,0,0,0,0,0,0,0,0,0,0,0,0,0,0,0,0,0,0,0,0,0,0,0,0,0,0,0,0,0,0,0,0,0,0,0,0,0,0,0,0,0,0,0,0,0,0,0,0,0,0,0,0,0,0,0,0,0,0,0,0,0,0,0,0,0,0,0,0,0,0,0,0,0,0,0,0,0,0,0,0,0,0,0,0,0,0,0,0,0,0,0,0,0,0,0,0,0,0,0,0,0,0,0,0,0,0,0,0,0,0,0,0,0,0,0,0,0,0,0,0,0,0,0,0,0,0,0,0,0,0,0,0,0,0,0,0,0,0,0,0,0,0,0,0,0,0,0,0,0,0,0,0,0,0,0,0,0,0,0,0,0,0,0,0,0,0,0,0,0,0,0,0,0,0,0,0,0,0,0,0,0,0,0,0,0,0,0,0,0,0,0,0,0,0,0,0,0,0,0,0,0,0,0,0,0,0,0,0,0,0,0,0,0,0,0,0,0,0,0,0,0,0,0,0,0,0,0,0,0,0,0,0,0,0,0,0,0,0,0,0,0,0,0,0,0,0,0,0,0,0,0,0,0,0,0,0,0,0,0,0,0,0,0,0,0,0,0,0,0,0,0,0,0,0,0,0,0,0,0,0,0,0,0,0,0,0,0,0,0,0,0,0,0,0,0,0,0,0,0,0,0,0,0,0,0,0,0,0,0,0,0,0,0,0,0,0,0,0,0,0,0,0,0,0,0,0,0,0,0,0,0,0,0,0,0,0,0,0,0,0,0,0,0,0,0,0,0,0,0,0,0,0,0,0,0,0,0,0,0,0,0,0,0,0,0,0,0,0,0,0,0,0,0,0,0,0,0,0,0,0,0,0,0,0,0,0,0,0,0,0,0,0,0,0,0,0,0,0,0,0,0,0,0,0,0,0,0,0,0,0,0,0,0,0,0,0,0,0,0,0,0,0,0,0,0,0,0,0,0,0,0,0,0,0,0,0,0,0,0,0,0,0,0,0,0,0,0,0,0,0,0,0,0,0,0,0,0,0,0,0,0,0,0,0,0,0,0,0,0,0,0,0,0,0,0,0,0,0,0,0,0,0,0,0,0,0,0,0,0,0,0,0,0,0,0,0,0,0,0,0,0,0,0,0,0,0,0,0,0,0,0,0,0,0,0,0,0,0,0,0,0,0,0,0,0,0,0,0,0,0,0,0,0,0,0,0,0,0,0,0,0,0,0,0,0,0,0,0,0,0,0,0,0,0,0,0,0,0,0,0,0,0,0,0,0,0,0,0,0,0,0,0,0,0,0,0,0,0,0,0,0,0,0,0,0,0,0,0,0,0,0,0,0,0,0,0,0,0,0,0,0,0,0,0,0,0,0,0,0,0,0,0,0,0,0,0,0,0,0,0,0,0,0,0,0,0,0,0,0,0,0,0,0,0,0,0,0,0,0,0,0,0,0,0,0,0,0,0,0,0,0,0,0,0,0,0,0,0,0,0,0,0,0,0,0,0,0,0,0,0,0,0,0,0,0,0,0,0,0,0,0,0,0,0,0,0,0,0,0,0,0,0,0,0,0,0,0,0,0,0,0,0,0,0,0,0,0,0,0,0,0,0,0,0,0,0,0,0,0,0,0,0,0,0,0,0,0,0,0,0,0,0,0,0,0,0,0,0,0,0,0,0,0,0,0,0,0,0,0,0,0,0,0,0,0,0,0,0,0,0,0,0,0,0,0,0,0,0,0,0,0,0,0,0,0,0,0,0,0,0,0,0,0,0,0,0,0,0,0,0,0,0,0,0,0,0,0,0,0,0,0,0,0,0,0,0,0,0,0,0,0,0,0,0,0,0,0,0,0,0,0,0,0,0,0,0,0,0,0,0,0,0,0,0,0,0,0,0,0,0,0,0,0,0,0,0,0,0,0,0,0,0,0,0,0,0,0,0,0,0,0,0,0,0,0,0,0,0,0,0,0,0,0,0,0,0,0,0,0,0,0,0,0,0,0,0,0,0,0,0,0,0,0,0,0,0,0,0,0,0,0,0,0,0,0,0,0,0,0,0,0,0,0,0,0,0,0,0,0,0,0,0,0,0,0,0,0,0,0,0,0,0,0,0,0,0,0,0,0,0,0,0,0,0,0,0,0,0,0,0,0,0,0,0,0,0,0,0,0,0,0,0,0,0,0,0,0,0,0,0,0,0,0,0,0,0,0,0,0,0,0,0,0,0,0,0,0,0,0,0,0,0,0,0,0,0,0,0,0,0,0,0,0,0,0,0,0,0,0,0,0,0,0,0,0,0,0,0,0,0,0,0,0,0,0,0,0,0,0,0,0,0,0,0,0,0,0,0,0,0,0,0,0,0,0,0,0,0,0,0,0,0,0,0,0,0,0,0,0,0,0,0,0,0,0,0,0,0,0,0,0,0,0,0,0,0,0,0,0,0,0,0,0,0,0,0,0,0,0,0,0,0,0,0,0,0,0,0,0,0,0,0,0,0,0,0,0,0,0,0,0,0,0,0,0,0,0,0,0,0,0,0,0,0,0,0,0,0,0,0,0,0,0,0,0,0,0,0,0,0,0,0,0,0,0,0,0,0,0,0,0,0,0,0,0,0,0,0,0,0,0,0,0,0,0,0,0,0,0,0,0,0,0,0,0,0,0,0,0,0,0,0,0,0,0,0,0,0,0,0,0,0,0,0,0,0,0,0,0,0,0,0,0,0,0,0,0,0,0,0,0,0,0,0,0,0,0,0,0,0,0,0,0,0,0,0,0,0,0,0,0,0,0,0,0,0,0,0,0,0,0,0,0,0,0,0,0,0,0,0,0,0,0,0,0,0,0,0,0,0,0,0,0,0,0,0,0,0,0,0,0,0,0,0,0,0,0,0,0,0,0,0,0,0,0,0,0,0,0,0,0,0,0,0,0,0,0,0,0,0,0,0,0,0,0,0,0,0,0,0,0,0,0,0,0,0,0,0,0,0,0,0,0,0,0,0,0,0,0,0,0,0,0,0,0,0,0,0,0,0,0,0,0,0,0,0,0,0,0,0,0,0,0,0,0,0,0,0,0,0,0,0,0,0,0,0,0,0,0,0,0,0,0,0,0,0,0,0,0,0,0,0,0,0,0,0,0,0,0,0,0,0,0,0,0,0,0,0,0,0,0,0,0,0,0,0,0,0,0,0,0,0,0,0,0,0,0,0,0,0,0,0,0,0,0,0,0,0,0,0,0,0,0,0,0,0,0,0,0,0,0,0,0,0,0,0,0,0,0,0,0,0,0,0,0,0,0,0,0,0,0,0,0,0,0,0,0,0,0,0,0,0,0,0,0,0,0,0,0,0,0,0,0,0,0,0,0,0,0,0,0,0,0,0,0,0,0,0,0,0,0,0,0,0,0,0,0,0,0,0,0,0,0,0,0,0,0,0,0,0,0,0,0,0,0,0,0,0,0,0,0,0,0,0,0,0,0,0,0,0,0,0,0,0,0,0,0,0,0,0,0,0,0,0,0,0,0,0,0,0,0,0,0,0,0,0,0,0,0,0,0,0,0,0,0,0,0,0,0,0,0,0,0,0,0,0,0,0,0,0,0,0,0,0,0,0,0,0,0,0,0,0,0,0,0,0,0,0,0,0,0,0,0,0,0,0,0,0,0,0,0,0,0,0,0,0,0,0,0,0,0,0,0,0,0,0,0,0,0,0,0,0,0,0,0,0,0,0,0,0,0,0,0,0,0,0,0,0,0,0,0,0,0,0,0,0,0,0,0,0,0,0,0,0,0,0,0,0,0,0,0,0,0,0,0,0,0,0,0,0,0,0,0,0,0,0,0,0,0,0,0,0,0,0,0,0,0,0,0,0,0,0,0,0,0,0,0,0,0,0,0,0,0,0,0,0,0,0,0,0,0,0,0,0,0,0,0,0,0,0,0,0,0,0,0,0,0,0,0,0,0,0,0,0,0,0,0,0,0,0,0,0,0,0,0,0,0,0,0,0,0,0,0,0,0,0,0,0,0,0,0,0,0,0,0,0,0,0,0,0,0,0,0,0,0,0,0,0,0,0,0,0,0,0,0,0,0,0,0,0,0,0,0,0,0,0,0,0,0,0,0,0,0,0,0,0,0,0,0,0,0,0,0,0,0,0,0,0,0,0,0,0,0,0,0,0,0,0,0,0,0,0,0,0,0,0,0,0,0,0,0,0,0,0,0,0,0,0,0,0,0,0,0,0,0,0,0,0,0,0,0,0,0,0,0,0,0,0,0,0,0,0,0,0,0,0,0,0,0,0,0,0,0,0,0,0,0,0,0,0,0,0,0,0,0,0,0,0,0,0,0,0,0,0,0,0,0,0,0,0,0,0,0,0,0,0,0,0,0,0,0,0,0,0,0,0,0,0,0,0,0,0,0,0,0,0,0,0,0,0,0,0,0,0,0,0,0,0,0,0,0,0,0,0,0,0,0,0,0,0,0,0,0,0,0,0,0,0,0,0,0,0,0,0,0,0,0,0,0,0,0,0,0,0,0,0,0,0,0,0,0,0,0,0,0,0,0,0,0,0,0,0,0,0,0,0,0,0,0,0,0,0,0,0,0,0,0,0,0,0,0,0,0,0,0,0,0,0,0,0,0,0,0,0,0,0,0,0,0,0,0,0,0,0,0,0,0,0,0,0,0,0,0,0,0,0,0,0,0,0,0,0,0,0,0,0,0,0,0,0,0,0,0,0,0,0,0,0,0,0,0,0,0,0,0,0,0,0,0,0,0,0,0,0,0,0,0,0,0,0,0,0,0,0,0,0,0,0,0,0,0,0,0,0,0,0,0,0,0,0,0,0,0,0,0,0,0,0,0,0,0,0,0,0,0,0,0,0,0,0,0,0,0,0,0,0,0,0,0,0,0,0,0,0,0,0,0,0,0,0,0,0,0,0,0,0,0,0,0,0,0,0,0,0,0,0,0,0,0,0,0,0,0,0,0,0,0,0,0,0,0,0,0,0,0,0,0,0,0,0,0,0,0,0,0,0,0,0,0,0,0,0,0,0,0,0,0,0,0,0,0,0,0,0,0,0,0,0,0,0,0,0,0,0,0,0,0,0,0,0,0,0,0,0,0,0,0,0,0,0,0,0,0,0,0,0,0,0,0,0,0,0,0,0,0,0,0,0,0,0,0,0,0,0,0,0,0,0,0,0,0,0,0,0,0,0,0,0,0,0,0,0,0,0,0,0,0,0,0,0,0,0,0,0,0,0,0,0,0,0,0,0,0,0,0,0,0,0,0,0,0,0,0,0,0,0,0,0,0,0,0,0,0,0,0,0,0,0,0,0,0,0,0,0,0,0,0,0,0,0,0,0,0,0,0,0,0,0,0,0,0,0,0,0,0,0,0,0,0,0,0,0,0,0,0,0,0,0,0,0,0,0,0,0,0,0,0,0,0,0,0,0,0,0,0,0,0,0,0,0,0,0,0,0,0,0,0,0,0,0,0,0,0,0,0,0,0,0,0,0,0,0,0,0,0,0,0,0,0,0,0,0,0,0,0,0,0,0,0,0,0,0,0,0,0,0,0,0,0,0,0,0,0,0,0,0,0,0,0,0,0,0,0,0,0,0,0,0,0,0,0,0,0,0,0,0,0,0,0,0,0,0,0,0,0,0,0,0,0,0,0,0,0,0,0,0,0,0,0,0,0,0,0,0,0,0,0,0,0,0,0,0,0,0,0,0,0,0,0,0,0,0,0,0,0,0,0,0,0,0,0,0,0,0,0,0,0,0,0,0,0,0,0,0,0,0,0,0,0,0,0,0,0,0,0,0,0,0,0,0,0,0,0,0,0,0,0,0,0,0,0,0,0,0,0,0,0,0,0,0,0,0,0,0,0,0,0,0,0,0,0,0,0,0,0,0,0,0,0,0,0,0,0,0,0,0,0,0,0,0,0,0,0,0,0,0,0,0,0,0,0,0,0,0,0,0,0,0,0,0,0,0,0,0,0,0,0,0,0,0,0,0,0,0,0,0,0,0,0,0,0,0,0,0,0,0,0,0,0,0,0,0,0,0,0,0,0,0,0,0,0,0,0,0,0,0,0,0,0,0,0,0,0,0,0,0,0,0,0,0,0,0,0,0,0,0,0,0,0,0,0,0,0,0,0,0,0,0,0,0,0,0,0,0,0,0,0,0,0,0,0,0,0,0,0,0,0,0,0,0,0,0,0,0,0,0,0,0,0,0,0,0,0,0,0,0,0,0,0,0,0,0,0,0,0,0,0,0,0,0,0,0,0,0,0,0,0,0,0,0,0,0,0,0,0,0,0,0,0,0,0,0,0,0,0,0,0,0,0,0,0,0,0,0,0,0,0,0,0,0,0,0,0,0,0,0,0,0,0,0,0,0,0,0,0,0,0,0,0,0,0,0,0,0,0,0,0,0,0,0,0,0,0,0,0,0,0,0,0,0,0,0,0,0,0,0,0,0,0,0,0,0,0,0,0,0,0,0,0,0,0,0,0,0,0,0,0,0,0,0,0,0,0,0,0,0,0,0,0,0,0,0,0,0,0,0,0,0,0,0,0,0,0,0,0,0,0,0,0,0,0,0,0,0,0,0,0,0,0,0,0,0,0,0,0,0,0,0,0,0,0,0,0,0,0,0,0,0,0,0,0,0,0,0,0,0,0,0,0,0,0,0,0,0,0,0,0,0,0,0,0,0,0,0,0,0,0,0,0,0,0,0,0,0,0,0,0,0,0,0,0,0,0,0,0,0,0,0,0,0,0,0,0,0,0,0,0,0,0,0,0,0,0,0,0,0,0,0,0,0,0,0,0,0,0,0,0,0,0,0,0,0,0,0,0,0,0,0,0,0,0,0,0,0,0,0,0,0,0,0,0,0,0,0,0,0,0,0,0,0,0,0,0,0,0,0,0,0,0,0,0,0,0,0,0,0,0,0,0,0,0,0,0,0,0,0,0,0,0,0,0,0,0,0,0,0,0,0,0,0,0,0,0,0,0,0,0,0,0,0,0,0,0,0,0,0,0,0,0,0,0,0,0,0,0,0,0,0,0,0,0,0,0,0,0,0,0,0,0,0,0,0,0,0,0,0,0,0,0,0,0,0,0,0,0,0,0,0,0,0,0,0,0,0,0,0,0,0,0,0,0,0,0,0,0,0,0,0,0,0,0,0,0,0,0,0,0,0,0,0,0,0,0,0,0,0,0,0,0,0,0,0,0,0,0,0,0,0,0,0,0,0,0,0,0,0,0,0,0,0,0,0,0,0,0,0,0,0,0,0,0,0,0,0,0,0,0,0,0,0,0,0,0,0,0,0,0,0,0,0,0,0,0,0,0,0,0,0,0,0,0,0,0,0,0,0,0,0,0,0,0,0,0,0,0,0,0,0,0,0,0,0,0,0,0,0,0,0,0,0,0,0,0,0,0,0,0,0,0,0,0,0,0,0,0,0,0,0,0,0,0,0,0,0,0,0,0,0,0,0,0,0,0,0,0,0,0,0,0,0,0,0,0,0,0,0,0,0,0,0,0,0,0,0,0,0,0,0,0,0,0,0,0,0,0,0,0,0,0,0,0,0,0,0,0,0,0,0,0,0,0,0,0,0,0,0,0,0,0,0,0,0,0,0,0,0,0,0,0,0,0,0,0,0,0,0,0,0,0,0,0,0,0,0,0,0,0,0,0,0,0,0,0,0,0,0,0,0,0,0,0,0,0,0,0,0,0,0,0,0,0,0,0,0,0,0,0,0,0,0,0,0,0,0,0,0,0,0,0,0,0,0,0,0,0,0,0,0,0,0,0,0,0,0,0,0,0,0,0,0,0,0,0,0,0,0,0,0,0,0,0,0,0,0,0,0,0,0,0,0,0,0,0,0,0,0,0,0,0,0,0,0,0,0,0,0,0,0,0,0,0,0,0,0,0,0,0,0,0,0,0,0,0,0,0,0,0,0,0,0,0,0,0,0,0,0,0,0,0,0,0,0,0,0,0,0,0,0,0,0,0,0,0,0,0,0,0,0,0,0,0,0,0,0,0,0,0,0,0,0,0,0,0,0,0,0,0,0,0,0,0,0,0,0,0,0,0,0,0,0,0,0,0,0,0,0,0,0,0,0,0,0,0,0,0,0,0,0,0,0,0,0,0,0,0,0,0,0,0,0,0,0,0,0,0,0,0,0,0,0,0,0,0,0,0,0,0,0,0,0,0,0,0,0,0,0,0,0,0,0,0,0,0,0,0,0,0,0,0,0,0,0,0,0,0,0,0,0,0,0,0,0,0,0,0,0,0,0,0,0,0,0,0,0,0,0,0,0,0,0,0,0,0,0,0,0,0,0,0,0,0,0,0,0,0,0,0,0,0,0,0,0,0,0,0,0,0,0,0,0,0,0,0,0,0,0,0,0,0,0,0,0,0,0,0,0,0,0,0,0,0,0,0,0,0,0,0,0,0,0,0,0,0,0,0,0,0,0,0,0,0,0,0,0,0,0,0,0,0,0,0,0,0,0,0,0,0,0,0,0,0,0,0,0,0,0,0,0,0,0,0,0,0,0,0,0,0,0,0,0,0,0,0,0,0,0,0,0,0,0,0,0,0,0,0,0,0,0,0,0,0,0,0,0,0,0,0,0,0,0,0,0,0,0,0,0,0,0,0,0,0,0,0,0,0,0,0,0,0,0,0,0,0,0,0,0,0,0,0,0,0,0,0,0,0,0,0,0,0,0,0,0,0,0,0,0,0,0,0,0,0,0,0,0,0,0,0,0,0,0,0,0,0,0,0,0,0,0,0,0,0,0,0,0,0,0,0,0,0,0,0,0,0,0,0,0,0,0,0,0,0,0,0,0,0,0,0,0,0,0,0,0,0,0,0,0,0,0,0,0,0,0,0,0,0,0,0,0,0,0,0,0,0,0,0,0,0,0,0,0,0,0,0,0,0,0,0,0,0,0,0,0,0,0,0,0,0,0,0,0,0,0,0,0,0,0,0,0,0,0,0,0,0,0,0,0,0,0,0,0,0,0,0,0,0,0,0,0,0,0,0,0,0,0,0,0,0,0,0,0,0,0,0,0,0,0,0,0,0,0,0,0,0,0,0,0,0,0,0,0,0,0,0,0,0,0,0,0,0,0,0,0,0,0,0,0,0,0,0,0,0,0,0,0,0,0,0,0,0,0,0,0,0,0,0,0,0,0,0,0,0,0,0,0,0,0,0,0,0,0,0,0,0,0,0,0,0,0,0,0,0,0,0,0,0,0,0,0,0,0,0,0,0,0,0,0,0,0,0,0,0,0,0,0,0,0,0,0,0,0,0,0,0,0,0,0,0,0,0,0,0,0,0,0,0,0,0,0,0,0,0,0,0,0,0,0,0,0,0,0,0,0,0,0,0,0,0,0,0,0,0,0,0,0,0,0,0,0,0,0,0,0,0,0,0,0,0,0,0,0,0,0,0,0,0,0,0,0,0,0,0,0,0,0,0,0,0,0,0,0,0,0,0,0,0,0,0,0,0,0,0,0,0,0,0,0,0,0,0,0,0,0,0,0,0,0,0,0,0,0,0,0,0,0,0,0,0,0,0,0,0,0,0,0,0,0,0,0,0,0,0,0,0,0,0,0,0,0,0,0,0,0,0,0,0,0,0,0,0,0,0,0,0,0,0,0,0,0,0,0,0,0,0,0,0,0,0,0,0,0,0,0,0,0,0,0,0,0,0,0,0,0,0,0,0,0,0,0,0,0,0,0,0,0,0,0,0,0,0,0,0,0,0,0,0,0,0,0,0,0,0,0,0,0,0,0,0,0,0,0,0,0,0,0,0,0,0,0,0,0,0,0,0,0,0,0,0,0,0,0,0,0,0,0,0,0,0,0,0,0,0,0,0,0,0,0,0,0,0,0,0,0,0,0,0,0,0,0,0,0,0,0,0,0,0,0,0,0,0,0,0,0,0,0,0,0,0,0,0,0,0,0,0,0,0,0,0,0,0,0,0,0,0,0,0,0,0,0,0,0,0,0,0,0,0,0,0,0,0,0,0,0,0,0,0,0,0,0,0,0,0,0,0,0,0,0,0,0,0,0,0,0,0,0,0,0,0,0,0,0,0,0,0,0,0,0,0,0,0,0,0,0,0,0,0,0,0,0,0,0,0,0,0,0,0,0,0,0,0,0,0,0,0,0,0,0,0,0,0,0,0,0,0,0,0,0,0,0,0,0,0,0,0,0,0,0,0,0,0,0,0,0,0,0,0,0,0,0,0,0,0,0,0,0,0,0,0,0,0,0,0,0,0,0,0,0,0,0,0,0,0,0,0,0,0,0,0,0,0,0,0,0,0,0,0,0,0,0,0,0,0,0,0,0,0,0,0,0,0,0,0,0,0,0,0,0,0,0,0,0,0,0,0,0,0,0,0,0,0,0,0,0,0,0,0,0,0,0,0,0,0,0,0,0,0,0,0,0,0,0,0,0,0,0,0,0,0,0,0,0,0,0,0,0,0,0,0,0,0,0,0,0,0,0,0,0,0,0,0,0,0,0,0,0,0,0,0,0,0,0,0,0,0,0,0,0,0,0,0,0,0,0,0,0,0,0,0,0,0,0,0,0,0,0,0,0,0,0,0,0,0,0,0,0,0,0,0,0,0,0,0,0,0,0,0,0,0,0,0,0,0,0,0,0,0,0,0,0,0,0,0,0,0,0,0,0,0,0,0,0,0,0,0,0,0,0,0,0,0,0,0,0,0,0,0,0,0,0,0,0,0,0,0,0,0,0,0,0,0,0,0,0,0,0,0,0,0,0,0,0,0,0,0,0,0,0,0,0,0,0,0,0,0,0,0,0,0,0,0,0,0,0,0,0,0,0,0,0,0,0,0,0,0,0,0,0,0,0,0,0,0,0,0,0,0,0,0,0,0,0,0,0,0,0,0,0,0,0,0,0,0,0,0,0,0,0,0,0,0,0,0,0,0,0,0,0,0,0,0,0,0,0,0,0,0,0,0,0,0,0,0,0,0,0,0,0,0,0,0,0,0,0,0,0,0,0,0,0,0,0,0,0,0,0,0,0,0,0,0,0,0,0,0,0,0,0,0,0,0,0,0,0,0,0,0,0,0,0,0,0,0,0,0,0,0,0,0,0,0,0,0,0,0,0,0,0,0,0,0,0,0,0,0,0,0,0,0,0,0,0,0,0,0,0,0,0,0,0,0,0,0,0,0,0,0,0,0,0,0,0,0,0,0,0,0,0,0,0,0,0,0,0,0,0,0,0,0,0,0,0,0,0,0,0,0,0,0,0,0,0,0,0,0,0,0,0,0,0,0,0,0,0,0,0,0,0,0,0,0,0,0,0,0,0,0,0,0,0,0,0,0,0,0,0,0,0,0,0,0,0,0,0,0,0,0,0,0,0,0,0,0,0,0,0,0,0,0,0,0,0,0,0,0,0,0,0,0,0,0,0,0,0,0,0,0,0,0,0,0,0,0,0,0,0,0,0,0,0,0,0,0,0,0,0,0,0,0,0,0,0,0,0,0,0,0,0,0,0,0,0,0,0,0,0,0,0,0,0,0,0,0,0,0,0,0,0,0,0,0,0,0,0,0,0,0,0,0,0,0,0,0,0,0,0,0,0,0,0,0,0,0,0,0,0,0,0,0,0,0,0,0,0,0,0,0,0,0,0,0,0,0,0,0,0,0,0,0,0,0,0,0,0,0,0,0,0,0,0,0,0,0,0,0,0,0,0,0,0,0,0,0,0,0,0,0,0,0,0,0,0,0,0,0,0,0,0,0,0,0,0,0,0,0,0,0,0,0,0,0,0,0,0,0,0,0,0,0,0,0,0,0,0,0,0,0,0,0,0,0,0,0,0,0,0,0,0,0,0,0,0,0,0,0,0,0,0,0,0,0,0,0,0,0,0,0,0,0,0,0,0,0,0,0,0,0,0,0,0,0,0,0,0,0,0,0,0,0,0,0,0,0,0,0,0,0,0,0,0,0,0,0,0,0,0,0,0,0,0,0,0,0,0,0,0,0,0,0,0,0,0,0,0,0,0,0,0,0,0,0,0,0,0,0,0,0,0,0,0,0,0,0,0,0,0,0,0,0,0,0,0,0,0,0,0,0,0,0,0,0,0,0,0,0,0,0,0,0,0,0,0,0,0,0,0,0,0,0,0,0,0,0,0,0,0,0,0,0,0,0,0,0,0,0,0,0,0,0,0,0,0,0,0,0,0,0,0,0,0,0,0,0,0,0,0,0,0,0,0,0,0,0,0,0,0,0,0,0,0,0,0,0,0,0,0,0,0,0,0,0,0,0,0,0,0,0,0,0,0,0,0,0,0,0,0,0,0,0,0,0,0,0,0,0,0,0,0,0,0,0,0,0,0,0,0,0,0,0,0,0,0,0,0,0,0,0,0,0,0,0,0,0,0,0,0,0,0,0,0,0,0,0,0,0,0,0,0,0,0,0,0,0,0,0,0,0,0,0,0,0,0,0,0,0,0,0,0,0,0,0,0,0,0,0,0,0,0,0,0,0,0,0,0,0,0,0,0,0,0,0,0,0,0,0,0,0,0,0,0,0,0,0,0,0,0,0,0,0,0,0,0,0,0,0,0,0,0,0,0,0,0,0,0,0,0,0,0,0,0,0,0,0,0,0,0,0,0,0,0,0,0,0,0,0,0,0,0,0,0,0,0,0,0,0,0,0,0,0,0,0,0,0,0,0,0,0,0,0,0,0,0,0,0,0,0,0,0,0,0,0,0,0,0,0,0,0,0,0,0,0,0,0,0,0,0,0,0,0,0,0,0,0,0,0,0,0,0,0,0,0,0,0,0,0,0,0,0,0,0,0,0,0,0,0,0,0,0,0,0,0,0,0,0,0,0,0,0,0,0,0,0,0,0,0,0,0,0,0,0,0,0,0,0,0,0,0,0,0,0,0,0,0,0,0,0,0,0,0,0,0,0,0,0,0,0,0,0,0,0,0,0,0,0,0,0,0,0,0,0,0,0,0,0,0,0,0,0,0,0,0,0,0,0,0,0,0,0,0,0,0,0,0,0,0,0,0,0,0,0,0,0,0,0,0,0,0,0,0,0,0,0,0,0,0,0,0,0,0,0,0,0,0,0,0,0,0,0,0,0,0,0,0,0,0,0,0,0,0,0,0,0,0,0,0,0,0,0,0,0,0,0,0,0,0,0,0,0,0,0,0,0,0,0,0,0,0,0,0,0,0,0,0,0,0,0,0,0,0,0,0,0,0,0,0,0,0,0,0,0,0,0,0,0,0,0,0,0,0,0,0,0,0,0,0,0,0,0,0,0,0,0,0,0,0,0,0,0,0,0,0,0,0,0,0,0,0,0,0,0,0,0,0,0,0,0,0,0,0,0,0,0,0,0,0,0,0,0,0,0,0,0,0,0,0,0,0,0,0,0,0,0,0,0,0,0,0,0,0,0,0,0,0,0,0,0,0,0,0,0,0,0,0,0,0,0,0,0,0,0,0,0,0,0,0,0,0,0,0,0,0,0,0,0,0,0,0,0,0,0,0,0,0,0,0,0,0,0,0,0,0,0,0,0,0,0,0,0,0,0,0,0,0,0,0,0,0,0,0,0,0,0,0,0,0,0,0,0,0,0,0,0,0,0,0,0,0,0,0,0,0,0,0,0,0,0,0,0,0,0,0,0,0,0,0,0,0,0,0,0,0,0,0,0,0,0,0,0,0,0,0,0,0,0,0,0,0,0,0,0,0,0,0,0,0,0,0,0,0,0,0,0,0,0,0,0,0,0,0,0,0,0,0,0,0,0,0,0,0,0,0,0,0,0,0,0,0,0,0,0,0,0,0,0,0,0,0,0,0,0,0,0,0,0,0,0,0,0,0,0,0,0,0,0,0,0,0,0,0,0,0,0,0,0,0,0,0,0,0,0,0,0,0,0,0,0,0,0,0,0,0,0,0,0,0,0,0,0,0,0,0,0,0,0,0,0,0,0,0,0,0,0,0,0,0,0,0,0,0,0,0,0,0,0,0,0,0,0,0,0,0,0,0,0,0,0,0,0,0,0,0,0,0,0,0,0,0,0,0,0,0,0,0,0,0,0,0,0,0,0,0,0,0,0,0,0,0,0,0,0,0,0,0,0,0,0,0,0,0,0,0,0,0,0,0,0,0,0,0,0,0,0,0,0,0,0,0,0,0,0,0,0,0,0,0,0,0,0,0,0,0,0,0,0,0,0,0,0,0,0,0,0,0,0,0,0,0,0,0,0,0,0,0,0,0,0,0,0,0,0,0,0,0,0,0,0,0,0,0,0,0,0,0,0,0,0,0,0,0,0,0,0,0,0,0,0,0,0,0,0,0,0,0,0,0,0,0,0,0,0,0,0,0,0,0,0,0,0,0,0,0,0,0,0,0,0,0,0,0,0,0,0,0,0,0,0,0,0,0,0,0,0,0,0,0,0,0,0,0,0,0,0,0,0,0,0,0,0,0,0,0,0,0,0,0,0,0,0,0,0,0,0,0,0,0,0,0,0,0,0,0,0,0,0,0,0,0,0,0,0,0,0,0,0,0,0,0,0,0,0,0,0,0,0,0,0,0,0,0,0,0,0,0,0,0,0,0,0,0,0,0,0,0,0,0,0,0,0,0,0,0,0,0,0,0,0,0,0,0,0,0,0,0,0,0,0,0,0,0,0,0,0,0,0,0,0,0,0,0,0,0,0,0,0,0,0,0,0,0,0,0,0,0,0,0,0,0,0,0,0,0,0,0,0,0,0,0,0,0,0,0,0,0,0,0,0,0,0,0,0,0,0,0,0,0,0,0,0,0,0,0,0,0,0,0,0,0,0,0,0,0,0,0,0,0,0,0,0,0,0,0,0,0,0,0,0,0,0,0,0,0,0,0,0,0,0,0,0,0,0,0,0,0,0,0,0,0,0,0,0,0,0,0,0,0,0,0,0,0,0,0,0,0,0,0,0,0,0,0,0,0,0,0,0,0,0,0,0,0,0,0,0,0,0,0,0,0,0,0,0,0,0,0,0,0,0,0,0,0,0,0,0,0,0,0,0,0,0,0,0,0,0,0,0,0,0,0,0,0,0,0,0,0,0,0,0,0,0,0,0,0,0,0,0,0,0,0,0,0,0,0,0,0,0,0,0,0,0,0,0,0,0,0,0,0,0,0,0,0,0,0,0,0,0,0,0,0,0,0,0,0,0,0,0,0,0,0,0,0,0,0,0,0,0,0,0,0,0,0,0,0,0,0,0,0,0,0,0,0,0,0,0,0,0,0,0,0,0,0,0,0,0,0,0,0,0,0,0,0,0,0,0,0,0,0,0,0,0,0,0,0,0,0,0,0,0,0,0,0,0,0,0,0,0,0,0,0,0,0,0,0,0,0,0,0,0,0,0,0,0,0,0,0,0,0,0,0,0,0,0,0,0]},{"id":7,"name":"field","type":"tilelayer","x":0,"y":0,"opacity":1,"visible":true,"width":144,"height":96,"data":[0,0,0,0,0,0,0,0,0,0,0,0,0,0,0,0,0,0,0,0,0,0,0,0,0,0,0,0,0,0,0,0,0,0,0,0,0,0,0,0,0,0,0,0,0,0,0,0,0,0,0,0,0,0,0,0,0,0,0,0,0,0,0,0,0,0,0,0,0,0,0,0,0,0,0,0,0,0,0,0,0,0,0,0,0,0,0,0,0,0,0,0,0,0,0,0,0,0,0,0,0,0,0,0,0,0,0,0,0,0,0,0,0,0,0,0,0,0,0,0,0,0,0,0,0,0,0,0,0,0,0,0,0,0,0,0,0,0,0,0,0,0,0,0,0,0,0,0,0,0,0,0,0,0,0,0,0,0,0,0,0,0,0,0,0,0,0,0,0,0,0,0,0,0,0,0,0,0,0,0,0,0,0,0,0,0,0,0,0,0,0,0,0,0,0,0,0,0,0,0,0,0,0,0,0,0,0,0,0,0,0,0,0,0,0,0,0,0,0,0,0,0,0,0,0,0,0,0,0,0,0,0,0,0,0,0,0,0,0,0,0,0,0,0,0,0,0,0,0,0,0,0,0,0,0,0,0,0,0,0,0,0,0,0,0,0,0,0,0,0,0,0,0,0,0,0,0,0,0,0,0,0,0,0,0,0,0,0,0,0,0,0,0,0,0,0,0,0,0,0,0,0,0,0,0,0,0,0,0,0,0,0,0,0,0,0,0,0,0,0,0,0,0,0,0,0,0,0,0,0,0,0,0,0,0,0,0,0,0,0,0,0,0,0,0,0,0,0,0,0,0,0,0,0,0,0,0,0,0,0,0,0,0,0,0,0,0,0,0,0,0,0,0,0,0,0,0,0,0,0,0,0,0,0,0,0,0,0,0,0,0,0,0,0,0,0,0,0,0,0,0,0,0,0,0,0,0,0,0,0,0,0,0,0,0,0,0,0,0,0,0,0,0,0,0,0,0,0,0,0,0,0,0,0,0,0,0,0,0,0,0,0,0,0,0,0,0,0,0,0,0,0,0,0,0,0,0,0,0,0,0,0,0,0,0,0,0,0,0,0,0,0,0,0,0,0,0,0,0,0,0,0,0,0,0,0,0,0,0,0,0,0,0,0,0,0,0,0,0,0,0,0,0,0,0,0,0,0,0,0,0,0,0,0,0,0,0,0,0,0,0,0,0,0,0,0,0,0,0,0,0,0,0,0,0,0,0,0,0,0,0,0,0,0,0,0,0,0,0,0,0,0,0,0,0,0,0,0,0,0,0,0,0,0,0,0,0,0,0,0,0,0,0,0,0,0,0,0,0,0,0,0,0,0,0,0,0,0,0,0,0,0,0,0,0,0,0,0,0,0,0,0,0,0,0,0,0,0,0,0,0,0,0,0,0,0,0,0,0,0,0,0,0,0,0,0,0,0,0,0,0,0,0,0,0,0,0,0,0,0,0,0,0,0,0,0,0,0,0,0,0,0,0,0,0,0,0,0,0,0,0,0,0,0,0,0,0,0,0,0,0,0,0,0,0,0,0,0,0,0,0,0,0,0,0,0,0,0,0,0,0,0,0,0,0,0,0,0,0,0,0,0,0,0,0,0,0,0,0,0,0,0,0,0,0,0,0,0,0,0,0,0,0,0,0,0,0,0,0,0,0,0,0,0,0,0,0,0,0,0,0,0,0,0,0,0,0,0,0,0,0,0,0,0,0,0,0,0,0,0,0,0,0,0,0,0,0,0,0,0,0,0,0,0,0,0,0,0,0,0,0,0,0,0,0,0,0,0,0,0,0,0,0,0,0,0,0,0,0,0,0,0,0,0,0,0,0,0,0,0,0,0,0,0,0,0,0,0,0,0,0,0,0,0,0,0,0,0,0,0,0,0,0,0,0,0,0,0,0,0,0,0,0,0,0,0,0,0,0,0,0,0,0,0,0,0,0,0,0,0,0,0,0,0,0,0,0,0,0,0,0,0,0,0,0,0,0,0,0,0,0,0,0,0,0,0,0,0,0,0,0,0,0,0,0,0,0,0,0,0,0,0,0,0,0,0,0,0,0,0,0,0,0,0,0,0,0,0,0,0,0,0,0,0,0,0,0,0,0,0,0,0,0,0,0,0,0,0,0,0,0,0,0,0,0,0,0,0,0,0,0,0,0,0,0,0,0,0,0,0,0,0,0,0,0,0,0,0,0,0,0,0,0,0,0,0,0,0,0,0,0,0,0,0,0,0,0,0,0,0,0,0,0,0,0,0,0,0,0,0,0,0,0,0,0,0,0,0,0,0,0,0,0,0,0,0,0,0,0,0,0,0,0,0,0,0,0,0,0,0,0,0,0,0,0,0,0,0,0,0,0,0,0,0,0,0,0,0,0,0,0,0,0,0,0,0,0,0,0,0,0,0,0,0,0,0,0,0,0,0,0,0,0,0,0,0,0,0,0,0,0,0,0,0,0,0,0,0,0,0,0,0,0,0,0,0,0,0,0,0,0,0,0,0,0,0,0,0,0,0,0,0,0,0,0,0,0,0,0,0,0,0,0,0,0,0,0,0,0,0,0,0,0,0,0,0,0,0,0,0,0,0,0,0,0,0,0,0,0,0,0,0,0,0,0,0,0,0,0,0,0,0,0,0,0,0,0,0,0,0,0,0,0,0,0,0,0,0,0,0,0,0,0,0,0,0,0,0,0,0,0,0,0,0,0,0,0,0,0,0,0,0,0,0,0,0,0,0,0,0,0,0,0,0,0,0,0,0,0,0,0,0,0,0,0,0,0,0,0,0,0,0,0,0,0,0,0,0,0,0,0,0,0,0,0,0,0,0,0,0,0,0,0,0,0,0,0,0,0,0,0,0,0,0,0,0,0,0,0,0,0,0,0,0,0,0,0,0,0,0,0,0,0,0,0,0,0,0,0,0,0,0,0,0,0,0,0,0,0,0,0,0,0,0,0,0,0,0,0,0,0,0,0,0,0,0,0,0,0,0,0,0,0,0,0,0,0,0,0,0,0,0,0,0,0,0,0,0,0,0,0,0,0,0,0,0,0,0,0,0,0,0,0,0,0,0,0,0,0,0,0,0,0,0,0,0,0,0,0,0,0,0,0,0,0,0,0,0,0,0,0,0,0,0,0,0,0,0,0,0,0,0,0,0,0,0,0,0,0,0,0,0,0,0,0,0,0,0,0,0,0,0,0,0,0,0,0,0,0,0,0,0,0,0,0,0,0,0,0,0,0,0,0,0,0,0,0,0,0,0,0,0,0,0,0,0,0,0,0,0,0,0,0,0,0,0,0,0,0,0,0,0,0,0,0,0,0,0,0,0,0,0,0,0,0,0,0,0,0,0,0,0,0,0,0,0,0,0,0,0,0,0,0,0,0,0,0,0,0,0,0,0,0,0,0,0,0,0,0,0,0,0,0,0,0,0,0,0,0,0,0,0,0,0,0,0,0,0,0,0,0,0,0,0,0,0,0,0,0,0,0,0,0,0,0,0,0,0,0,0,0,0,0,0,0,0,0,0,0,0,0,0,0,0,0,0,0,0,0,0,0,0,0,0,0,0,0,0,0,0,0,0,0,0,0,0,0,0,0,0,0,0,0,0,0,0,0,0,0,0,0,0,0,0,0,0,0,0,0,0,0,0,0,0,0,0,0,0,0,0,0,0,0,0,0,0,0,0,0,0,0,0,0,0,0,0,0,0,0,0,0,0,0,0,0,0,0,0,0,0,0,0,0,0,0,0,0,0,0,0,0,0,0,0,0,0,0,0,0,0,0,0,0,0,0,0,0,0,0,0,0,0,0,0,0,0,0,0,0,0,0,0,0,0,0,0,0,0,0,0,0,0,0,0,0,0,0,0,0,0,0,0,0,0,0,0,0,0,0,0,0,0,0,0,0,0,0,0,0,0,0,0,0,0,0,0,0,0,0,0,0,0,0,0,0,0,0,0,0,0,0,0,0,0,0,0,0,0,0,0,0,0,0,0,0,0,0,0,0,0,0,0,0,0,0,0,0,0,0,0,0,0,0,0,0,0,0,0,0,0,0,0,0,0,0,0,0,0,0,0,0,0,0,0,0,0,0,0,0,0,0,0,0,0,0,0,0,0,0,0,0,0,0,0,0,0,0,0,0,0,0,0,0,0,0,0,0,0,0,0,0,0,0,0,0,0,0,0,0,0,0,0,0,0,0,0,0,0,0,0,0,0,0,0,0,0,0,0,0,0,0,0,0,0,0,0,0,0,0,0,0,0,0,0,0,0,0,0,0,0,0,0,0,0,0,0,0,0,0,0,0,0,0,0,0,0,0,0,0,0,0,0,0,0,0,0,0,0,0,0,0,0,0,0,0,0,0,0,0,0,0,0,0,0,0,0,0,0,0,0,0,0,0,0,0,0,0,0,0,0,0,0,0,0,0,0,0,0,0,0,0,0,0,0,0,0,0,0,0,0,0,0,0,0,0,0,0,0,0,0,0,0,0,0,0,0,0,0,0,0,0,0,0,0,0,0,0,0,0,0,0,0,0,0,0,0,0,0,0,0,0,0,0,0,0,0,0,0,0,0,0,0,0,0,0,0,0,0,0,0,0,0,0,0,0,0,0,0,0,0,0,0,0,0,0,0,0,0,0,0,0,0,0,0,0,0,0,0,0,0,0,0,0,0,0,0,0,0,0,0,0,0,0,0,0,0,0,0,0,0,0,0,0,0,0,0,0,0,0,0,0,0,0,0,0,0,0,0,0,0,0,0,0,0,0,0,0,0,0,0,0,0,0,0,0,0,0,0,0,0,0,0,0,0,0,0,0,0,0,0,0,0,0,0,0,0,0,0,0,0,0,0,0,0,0,0,0,0,0,0,0,0,0,0,0,0,0,0,0,0,0,0,0,0,0,0,0,0,0,0,0,0,0,0,0,0,0,0,0,0,0,0,0,0,0,0,0,0,0,0,0,0,0,0,0,0,0,0,0,0,0,0,0,0,0,0,0,0,0,0,0,0,0,0,0,0,0,0,0,0,0,0,0,0,0,0,0,0,0,0,0,0,0,0,0,0,0,0,0,0,0,0,0,0,0,0,0,0,0,0,0,0,0,0,0,0,0,0,0,0,0,0,0,0,0,0,0,0,0,0,0,0,0,0,0,0,0,0,0,0,0,0,0,0,0,0,0,0,0,0,0,0,0,0,0,0,0,0,0,0,0,0,0,0,0,0,0,0,0,0,0,0,0,0,0,0,0,0,0,0,0,0,0,0,0,0,0,0,0,0,0,0,0,0,0,0,0,0,0,0,0,0,0,0,0,0,0,0,0,0,0,0,0,0,0,0,0,0,0,0,0,0,0,0,0,0,0,0,0,0,0,0,0,0,0,0,0,0,0,0,0,0,0,0,0,0,0,0,0,0,0,0,0,0,0,0,0,0,0,0,0,0,0,0,0,0,0,0,0,0,0,0,0,0,0,0,0,0,0,0,0,0,0,0,0,0,0,0,0,0,0,0,0,0,0,0,0,0,0,0,0,0,0,0,0,0,0,0,0,0,0,0,0,0,0,0,0,0,0,0,0,0,0,0,0,0,0,0,0,0,0,0,0,0,0,0,0,0,0,0,0,0,0,0,0,0,0,0,0,0,0,0,0,0,0,0,0,0,0,0,0,0,0,0,0,0,0,0,0,0,0,0,0,0,0,0,0,0,0,0,0,0,0,0,0,0,0,0,0,0,0,0,0,0,0,0,0,0,0,0,0,0,0,0,0,0,0,0,0,0,0,0,0,0,0,0,0,0,0,0,0,0,0,0,0,0,0,0,0,0,0,0,0,0,0,0,0,0,0,0,0,0,0,0,0,0,0,0,0,0,0,0,0,0,0,0,0,0,0,0,0,0,0,0,0,0,0,0,0,0,0,0,0,0,0,0,0,0,0,0,0,0,0,0,0,0,0,0,0,0,0,0,0,0,0,0,0,0,0,0,0,0,0,0,0,0,0,0,0,0,0,0,0,0,0,0,0,0,0,0,0,0,0,0,0,0,0,0,0,0,0,0,0,0,0,0,0,0,0,0,0,0,0,0,0,0,0,0,0,0,0,0,0,0,0,0,0,0,0,0,0,0,0,0,0,0,0,0,0,0,0,0,0,0,0,0,0,0,0,0,0,0,0,0,0,0,0,0,0,0,0,0,0,0,0,0,0,0,0,0,0,0,0,0,0,0,0,0,0,0,0,0,0,0,0,0,0,0,0,0,0,0,0,0,0,0,0,0,0,0,0,0,0,0,0,0,0,0,0,0,0,0,0,0,0,0,0,0,0,0,0,0,0,0,0,0,0,0,0,0,0,0,0,0,0,0,0,0,0,0,0,0,0,0,0,0,0,0,0,0,0,0,0,0,0,0,0,0,0,0,0,0,0,0,0,0,0,0,0,0,0,0,0,0,0,0,0,0,0,0,0,0,0,0,0,0,0,0,0,0,0,0,0,0,0,0,0,0,0,0,0,0,0,0,0,0,0,0,0,0,0,0,0,0,0,0,0,0,0,0,0,0,0,0,0,0,0,0,0,0,0,0,0,0,0,0,0,0,0,0,0,0,0,0,0,0,0,0,0,0,0,0,0,0,0,0,0,0,0,0,0,0,0,0,0,0,0,0,0,0,0,0,0,0,0,0,0,0,0,0,0,0,0,0,0,0,0,0,0,0,0,0,0,0,0,0,0,0,0,0,0,0,0,0,0,0,0,0,0,0,0,0,0,0,0,0,0,0,0,0,0,0,0,0,0,0,0,0,0,0,0,0,0,0,0,0,0,0,0,0,0,0,0,0,0,0,0,0,0,0,0,0,0,0,0,0,0,0,0,0,0,0,0,0,0,0,0,0,0,0,0,0,0,0,0,0,0,0,0,0,0,0,0,0,0,0,0,0,0,0,0,0,0,0,0,0,0,0,0,0,0,0,0,0,0,0,0,0,0,0,0,0,0,0,0,0,0,0,0,0,0,0,0,0,0,0,0,0,0,0,0,0,0,0,0,0,0,0,0,0,0,0,0,0,0,0,0,0,0,0,0,0,0,0,0,0,0,0,0,0,0,0,0,0,0,0,0,0,0,0,0,0,0,0,0,0,0,0,0,0,0,0,0,0,0,0,0,0,0,0,0,0,0,0,0,0,0,0,0,0,0,0,0,0,0,0,0,0,0,0,0,0,0,0,0,0,0,0,0,0,0,0,0,0,0,0,0,0,0,0,0,0,0,0,0,0,0,0,0,0,0,0,0,0,0,0,0,0,0,0,0,0,0,0,0,0,0,0,0,0,0,0,0,0,0,0,0,0,0,0,0,0,0,0,0,0,0,0,0,0,0,0,0,0,0,0,0,0,0,0,0,0,0,0,0,0,0,0,0,0,0,0,0,0,0,0,0,0,0,0,0,0,0,0,0,0,0,0,0,0,0,0,0,0,0,0,0,0,0,0,0,0,0,0,0,0,0,0,0,0,0,0,0,0,0,0,0,0,0,0,0,0,0,0,0,0,0,0,0,0,0,0,0,0,0,0,0,0,0,0,0,0,0,0,0,0,0,0,0,0,0,0,0,0,0,0,0,0,0,0,0,0,0,0,0,0,0,0,0,0,0,0,0,0,0,0,0,0,0,0,0,0,0,0,0,0,0,0,0,0,0,0,0,0,0,0,0,0,0,0,0,0,0,0,0,0,0,0,0,0,0,0,0,0,0,0,0,0,0,0,0,0,0,0,0,0,0,0,0,0,0,0,0,0,0,0,0,0,0,0,0,0,0,0,0,0,0,0,0,0,0,0,0,0,0,0,0,0,0,0,0,0,0,0,0,0,0,0,0,0,0,0,0,0,0,0,0,0,0,0,0,0,0,0,0,0,0,0,0,0,0,0,0,0,0,0,0,0,0,0,0,0,0,0,0,0,0,0,0,0,0,0,0,0,0,0,0,0,0,0,0,0,0,0,0,0,0,0,0,0,0,0,0,0,0,0,0,0,0,0,0,0,0,0,0,0,0,0,0,0,0,0,0,0,0,0,0,0,0,0,0,0,0,0,0,0,0,0,0,0,0,0,0,0,0,0,0,0,0,0,0,0,0,0,0,0,0,0,0,0,0,0,0,0,0,0,0,0,0,0,0,0,0,0,0,0,0,0,0,0,0,0,0,0,0,0,0,0,0,0,0,0,0,0,0,0,0,0,0,0,0,0,0,0,0,0,0,0,0,0,0,0,0,0,0,0,0,0,0,0,0,0,0,0,0,0,0,0,0,0,0,0,0,0,0,0,0,0,0,0,0,0,0,0,0,0,0,0,0,0,0,0,0,0,0,0,0,0,0,0,0,0,0,0,0,0,0,0,0,0,0,0,0,0,0,0,0,0,0,0,0,0,0,0,0,0,0,0,0,0,0,0,0,0,0,0,0,0,0,0,0,0,0,0,0,0,0,0,0,0,0,0,0,0,0,0,0,0,0,0,0,0,0,0,0,0,0,0,0,0,0,0,0,0,0,0,0,0,0,0,0,0,0,0,0,0,0,0,0,0,0,0,0,0,0,0,0,0,0,0,0,0,0,0,0,0,0,0,0,0,0,0,0,0,0,0,0,0,0,0,0,0,0,0,0,0,0,0,0,0,0,0,0,0,0,0,0,0,0,0,0,0,0,0,0,0,0,0,0,0,0,0,0,3947,3968,3963,0,0,0,0,0,0,0,0,0,0,0,0,0,0,0,0,0,0,0,0,0,0,0,0,0,0,0,0,0,0,0,0,0,0,0,0,0,0,0,0,0,0,0,0,0,0,0,0,0,0,0,0,0,0,0,0,0,0,0,0,0,0,0,0,0,0,0,0,0,0,0,0,0,0,0,0,0,0,0,0,0,0,0,0,0,0,0,0,0,0,0,0,0,0,0,0,0,0,0,0,0,0,0,0,0,0,0,0,0,0,0,0,0,0,0,3275,0,3296,3296,3296,3291,0,0,0,0,0,0,0,0,0,0,0,0,0,0,0,0,0,0,3947,3968,3970,3311,0,0,0,3455,3310,3291,0,0,0,0,0,0,0,0,0,0,0,0,0,0,0,0,0,0,0,0,0,0,0,0,0,0,0,0,0,0,0,0,0,0,0,0,0,0,0,0,0,0,0,0,0,0,0,0,0,0,0,0,0,0,0,0,0,0,0,0,0,0,0,0,0,0,0,0,0,0,0,0,0,0,0,0,0,0,0,0,0,0,0,0,0,0,0,0,0,0,0,0,0,0,0,0,0,0,0,0,0,0,0,0,0,0,0,0,3275,3296,3298,0,3455,2147487007,2147487055,4030,4016,4011,0,0,0,0,0,0,0,0,0,0,0,0,0,0,0,0,3269,3306,0,0,0,0,3455,3309,3301,3299,0,0,0,0,0,0,0,0,0,0,0,0,0,0,0,0,0,0,0,0,0,0,0,0,0,0,0,0,0,0,0,0,0,0,0,0,0,0,0,0,0,0,0,0,0,0,0,0,0,0,0,0,0,0,0,0,0,0,0,0,0,0,0,0,0,0,0,0,0,0,0,0,0,0,0,0,0,0,0,0,0,0,0,0,0,0,0,0,0,0,0,0,0,0,0,0,0,0,0,0,0,0,0,0,0,0,0,3275,3298,3407,2147486959,0,3455,2147487103,2147487055,3407,2147487055,4030,4011,0,0,0,0,0,0,0,0,0,0,0,0,0,0,0,0,0,0,0,0,3269,3301,3299,0,0,0,0,0,0,0,0,0,0,0,0,0,0,0,0,0,0,0,0,0,0,0,0,0,0,0,0,0,0,0,0,0,0,0,0,0,0,0,0,0,0,0,0,0,0,0,0,0,0,0,0,0,0,0,0,0,0,0,0,0,0,0,0,0,0,0,0,0,0,0,0,0,0,0,0,0,0,0,0,0,0,0,0,0,0,0,0,0,0,0,0,0,0,0,0,0,0,0,0,0,0,0,0,0,0,0,0,0,3269,3306,3311,2147487103,0,3311,2147487055,2147487007,2147487007,2147487055,4029,4019,0,0,0,0,0,0,0,0,0,0,0,0,0,0,0,0,0,0,0,0,0,0,0,0,0,0,0,0,0,0,0,0,0,0,0,0,0,0,0,0,0,0,0,0,0,0,0,0,0,0,0,0,0,0,0,0,0,0,0,0,0,0,0,0,0,0,0,0,0,0,0,0,0,0,0,0,0,0,0,0,0,0,0,0,0,0,0,0,0,0,0,0,0,0,0,0,0,0,0,0,0,0,0,0,0,0,0,0,0,0,0,0,0,0,0,0,0,0,0,0,0,0,0,0,0,0,0,0,0,0,0,0,0,3269,3301,3306,0,2147487103,2147487103,2147487055,4029,4021,4019,0,0,0,0,0,0,0,0,0,0,0,0,0,0,0,0,0,0,0,0,0,0,0,0,0,0,0,0,0,0,0,0,0,0,0,0,0,0,0,0,0,0,0,0,0,0,0,0,0,0,0,0,0,0,0,0,0,0,0,0,0,0,0,0,0,0,0,0,0,0,0,0,0,0,0,0,0,0,0,0,0,0,0,0,0,0,0,0,0,0,0,0,0,0,0,0,0,0,0,0,0,0,0,0,0,0,0,0,0,0,0,0,0,0,0,0,0,0,0,0,0,0,0,0,0,0,0,0,0,0,0,0,0,0,0,0,3269,0,3301,3301,3301,3299,0,0,0,0,0,0,0,0,0,0,0,0,0,0,0,0,0,0,0,0,0,0,0,0,0,0,0,0,0,0,0,0,0,0,0,0,0,0,0,0,0,0,0,0,0,0,0,0,0,0,0,0,0,0,0,0,0,0,0,0,0,0,0,0,0,0,0,0,0,0,0,0,0,0,0,0,0,0,0,0,0,0,0,0,0,0,0,0,0,0,0,0,0,0,0,0,0,0,0,0,0,0,0,0,0,0,0,0,0,0,0,0,0,0,0,0,0,0,0,0,0,0,0,0,0,0,0,0,0,0,0,0,0,0,0,0,0,0,0,0,0,0,0,0,0,0,0,0,0,0,0,0,0,0,0,0,0,0,0,0,0,0,0,0,0,0,0,0,0,0,0,0,0,0,0,0,0,0,0,0,0,0,0,0,0,0,0,0,0,0,0,0,0,0,0,0,0,0,0,0,0,0,0,0,0,0,0,0,0,0,0,0,0,0,0,0,0,0,0,0,0,0,0,0,0,0,0,0,0,0,0,0,0,0,0,0,0,0,0,0,0,0,0,0,0,0,0,0,0,0,0,0,0,0,0,0,0,0,0,0,0,0,0,0,0,0,0,0,0,0,0,0,0,0,0,0,0,0,0,0,0,0,0,0,0,0,0,0,0,0,0,0,0,0,0,0,0,0,0,0,0,0,0,0,0,0,0,0,0,0,0,0,0,0,0,0,0,0,0,0,0,0,0,0,0,0,0,0,0,0,0,0,0,0,0,0,0,0,0,0,0,0,0,0,0,0,0,0,0,0,0,0,0,0,0,0,0,0,0,0,0,0,0,0,0,0,0,0,0,0,0,0,0,0,0,0,0,0,0,0,0,0,0,0,0,0,0,0,0,0,0,0,0,0,0,0,0,0,0,0,0,0,0,0,0,0,0,0,0,0,0,0,0,0,0,0,0,0,0,0,0,0,0,0,0,0,0,0,0,0,0,0,0,0,0,0,0,0,0,0,0,0,0,0,0,0,0,0,0,0,0,0,0,0,0,0,0,0,0,0,0,0,0,0,0,0,0,0,0,0,0,0,0,0,0,0,0,0,0,0,0,0,0,0,0,0,0,0,0,0,0,0,0,0,0,0,0,0,0,0,0,0,0,0,0,0,0,0,0,0,0,0,0,0,0,0,0,0,0,0,0,0,0,0,0,0,0,0,0,0,0,0,0,0,0,0,0,0,0,0,0,0,0,0,0,0,0,0,0,0,0,0,0,0,0,0,0,0,0,0,0,0,0,0,0,0,0,0,0,0,0,0,0,0,0,0,0,0,0,0,0,0,0,0,0,0,0,0,0,0,0,0,0,0,0,0,0,0,0,0,0,0,0,0,0,0,0,0,0,0,0,0,0,0,0,0,0,0,0,0,0,0,0,0,0,0,0,0,0,0,0,0,0,0,0,0,0,0,0,0,0,0,0,0,0,0,0,0,0,0,0,0,0,0,0,0,0,0,0,0,0,0,0,0,0,0,0,0,0,0,0,0,0,0,0,0,0,0,0,0,0,0,0,0,0,0,0,0,0,0,0,0,0,0,0,0,0,0,0,0,0,0,0,0,0,0,0,0,0,0,0,0,0,0,0,0,0,0,0,0,0,0,0,0,0,0,0,0,0,0,0,0,0,0,0,0,0,0,0,0,0,0,0,0,0,0,0,0,0,0,0,0,0,0,0,0,0,0,0,0,0,0,0,0,0,0,0,0,0,0,0,0,0,0,0,0,0,0,0,0,0,0,0,0,0,0,0,0,0,0,0,0,0,0,0,0,0,0,0,0,0,0,0,0,0,0,0,0,0,0,0,0,0,0,0,0,0,0,0,0,0,0,0,0,0,0,0,0,0,0,0,0,0,0,0,0,0,0,0,0,0,0,0,0,0,0,0,0,0,0,0,0,0,0,0,0,0,0,0,0,0,0,0,0,0,0,0,0,0,0,0,0,0,0,0,3310,3296,3296,3296,3296,3291,0,0,0,0,0,0,0,0,0,0,0,0,0,0,0,0,0,0,0,0,0,0,0,0,0,0,0,0,0,0,0,0,0,0,0,0,0,0,0,0,0,0,0,0,0,0,0,0,0,0,0,0,0,0,0,0,0,0,0,0,0,0,0,0,0,0,0,0,0,0,0,0,0,0,0,0,0,0,0,0,0,0,0,0,0,0,0,0,0,0,0,0,0,0,0,0,0,0,0,0,0,0,0,0,0,0,0,0,0,0,0,0,0,0,0,0,0,0,0,0,0,0,0,0,0,0,0,0,0,0,0,0,0,0,0,0,0,2147486959,3455,2147487055,3407,3311,2147487055,3310,0,0,3291,0,0,0,0,0,0,0,0,0,0,0,0,0,0,0,0,0,0,0,0,0,0,0,0,0,0,0,0,0,0,0,0,0,0,0,0,0,0,0,0,0,0,0,0,0,0,0,0,0,0,0,0,0,0,0,0,0,0,0,0,0,0,0,0,0,0,0,0,0,0,0,0,0,0,0,0,0,0,0,0,0,0,0,0,0,0,0,0,0,0,0,0,0,0,0,0,0,0,0,0,0,0,0,0,0,0,0,0,0,0,0,0,0,0,0,0,0,0,0,0,0,0,0,0,0,0,0,0,0,0,0,3298,3359,2147487007,2147486959,2147486959,2147487055,3359,2147487007,2147486959,0,2147487055,2147487103,3310,3291,0,0,0,0,0,0,0,0,0,0,0,0,0,0,0,0,0,0,0,0,0,0,0,0,0,0,0,0,0,0,0,0,0,0,0,0,0,0,0,0,0,0,0,0,0,0,0,0,0,0,0,0,0,0,0,0,0,0,0,0,0,0,0,0,0,0,0,0,0,0,0,0,0,0,0,0,0,0,0,0,0,0,0,0,0,0,0,0,0,0,0,0,0,0,0,0,0,0,0,0,0,0,0,0,0,0,0,0,0,0,0,0,0,0,0,0,0,0,0,0,0,0,0,0,0,0,0,0,3269,3306,2147486959,2147486959,3407,2147487007,3455,2147487055,2147487103,0,0,2147487007,2147486959,2147487007,3309,0,0,0,0,0,0,0,0,0,0,0,0,0,0,0,0,0,0,0,0,0,0,0,0,0,0,0,0,0,0,0,0,0,0,0,0,0,0,0,0,0,0,0,0,0,0,0,0,0,0,0,0,0,0,0,0,0,0,0,0,0,0,0,0,0,0,0,0,0,0,0,0,0,0,0,0,0,0,0,0,0,0,0,0,0,0,0,0,0,0,0,0,0,0,0,0,0,0,0,0,0,0,0,0,0,0,0,0,0,0,0,0,0,0,0,0,0,0,0,0,0,0,0,0,0,0,0,0,0,0,3269,3301,3301,3306,2147487103,3311,3309,0,0,3359,3309,3301,3301,3299,0,0,0,0,0,0,0,0,0,0,0,0,0,0,0,0,0,0,0,0,0,0,0,0,0,0,0,0,0,0,0,0,0,0,0,0,0,0,0,0,0,0,0,0,0,0,0,0,0,0,0,0,0,0,0,0,0,0,0,0,0,0,0,0,0,0,0,0,3275,3296,3297,3296,0,3296,3296,0,3278,0,0,0,0,3270,0,0,0,0,0,0,0,0,0,0,0,0,0,0,0,0,0,0,0,0,0,0,0,0,0,0,0,0,0,0,0,0,0,0,0,0,0,0,0,0,0,0,0,0,0,0,0,0,0,0,0,3269,3304,3301,0,0,3269,3301,3299,0,0,0,0,0,0,0,0,0,0,0,0,0,0,0,0,0,0,0,0,0,0,0,0,0,0,0,0,0,0,0,0,0,0,0,0,0,0,0,0,0,0,0,0,0,0,0,0,0,0,0,0,0,0,0,0,0,0,0,0,0,0,0,0,0,0,0,0,0,0,0,0,0,0,0,0,0,0,0,0,0,0,0,0,0,0,0,0,0,0,0,0,0,0,0,0,0,0,0,0,0,0,0,0,0,0,0,0,0,0,0,0,0,0,0,0,0,0,0,0,0,0,2147487103,2147486959,0,2147487007,3310,3296,3296,3291,0,0,0,0,0,0,0,0,0,0,0,0,0,0,0,0,0,0,0,0,0,0,0,0,0,0,0,0,0,0,0,0,0,0,0,0,0,0,0,0,0,0,0,0,0,0,0,0,0,0,0,0,0,0,0,0,0,0,0,0,0,0,0,0,0,0,0,0,0,0,0,0,0,0,0,0,0,0,0,0,0,3989,4021,3301,3301,3306,3407,2147487055,2147487103,2147487103,2147486959,2147487055,0,3296,3297,3296,3296,3298,3309,3300,3278,0,0,0,0,0,0,0,0,0,0,0,0,0,0,0,0,0,0,0,0,0,0,0,0,0,0,0,0,0,0,2147487103,2147487007,0,3407,2147487007,3455,3309,0,3306,2147487103,3311,2147487007,3310,3296,0,0,0,0,0,0,0,0,0,0,0,0,0,0,0,0,0,0,0,0,0,0,0,0,0,0,0,0,0,0,0,0,0,0,0,0,0,0,0,0,0,0,0,0,0,0,0,0,0,0,0,0,0,0,0,0,0,0,0,0,0,0,0,0,0,0,0,0,0,0,0,0,0,0,0,0,0,0,0,0,0,0,0,0,3269,3301,3301,3301,3301,3301,3301,0,3301,3301,3301,3301,3301,3299,0,0,0,0,0,0,0,0,0,0,0,0,0,0,0,0,0,0,0,0,0,0,0,0,0,0,0,3277,3311,2147487103,3359,2147487103,3311,0,2147486959,2147487055,3311,2147487103,0,0,0,0,0,0,0,0,3359,2147487055,3311,3310,3291,0,0,0,0,0,0,0,0,0,0,0,0,0,0,0,0,0,0,0,0,0,0,0,0,0,0,0,0,0,0,0,0,0,0,0,0,0,0,0,0,0,0,0,0,0,0,0,0,0,0,0,0,0,0,0,0,0,0,0,0,0,0,0,0,0,0,0,0,0,0,0,0,0,0,0,0,0,0,0,0,0,0,0,0,0,0,0,0,0,0,0,0,0,0,0,0,0,0,0,0,0,0,0,0,0,0,0,0,0,0,0,0,0,0,0,0,0,0,0,3275,3298,2147486959,0,0,0,0,0,0,0,0,0,0,0,3277,2147486959,3455,3359,2147487007,2147487103,3359,2147487103,3407,3311,3310,3291,0,0,0,0,0,0,0,0,0,0,0,0,0,0,0,0,0,0,0,0,0,0,0,0,0,0,0,0,0,0,0,0,0,0,0,0,0,0,0,0,0,0,0,0,0,0,0,0,0,0,0,0,0,0,0,0,0,0,0,0,0,0,0,0,0,0,0,0,0,0,0,0,0,0,0,0,0,0,0,0,0,0,0,0,0,0,0,0,0,0,0,0,0,0,0,0,0,0,0,0,0,0,0,0,0,0,0,0,0,0,0,0,0,0,0,0,0,0,0,0,0,0,3311,3455,3455,3455,3455,2147487103,2147487103,2147487103,3310,0,3298,3359,2147486959,3311,2147487007,3359,2147487055,2147487007,3359,3359,3309,3299,0,0,0,0,0,0,0,0,0,0,0,0,0,0,0,0,0,0,0,0,0,0,0,0,0,0,0,0,0,0,0,0,0,0,0,0,0,0,0,0,0,0,0,0,0,0,0,0,0,0,0,0,0,0,0,0,0,0,0,0,0,0,0,0,0,0,0,0,0,0,0,0,0,0,0,0,0,0,0,0,0,0,0,0,0,0,0,0,0,0,0,0,0,0,0,0,0,0,0,0,0,0,0,0,0,0,0,0,0,0,0,0,0,0,0,0,0,0,0,3269,3301,3306,3407,3455,2147487007,2147487055,2147486959,2147486959,3407,3455,3455,0,2147487007,2147486959,3455,3455,2147487055,3455,2147487055,2147487007,3309,3301,3299,0,0,0,0,0,0,0,0,0,0,0,0,0,0,0,0,0,0,0,0,0,0,0,0,0,0,0,0,0,0,0,0,0,0,0,0,0,0,0,0,0,0,0,0,0,0,0,0,0,0,0,0,0,0,0,0,0,0,0,0,0,0,0,0,0,0,0,0,0,0,0,0,0,0,0,0,0,0,0,0,0,0,0,0,0,0,0,0,0,0,0,0,0,0,0,0,0,0,0,0,0,0,0,0,0,0,0,0,0,0,0,0,0,0,0,0,0,0,0,0,0,0,3269,3301,3301,3301,3306,2147487055,3455,3455,2147487007,2147487007,0,3311,2147487103,3311,3407,3309,3301,3301,3301,3299,0,0,0,0,0,0,0,0,0,0,0,0,0,0,0,0,0,0,0,0,0,0,0,0,0,0,0,0,0,0,0,0,0,0,0,0,0,0,0,0,0,0,0,0,0,0,0,0,0,0,0,0,0,0,0,0,0,0,0,0,0,0,0,0,0,0,0,0,0,0,0,0,0,0,0,0,0,0,0,0,0,0,0,0,0,0,0,0,0,0,0,0,0,0,0,0,0,0,0,0,0,0,0,0,0,0,0,0,0,0,0,0,0,0,0,0,0,0,0,0,0,0,0,0,0,0,0,0,3269,3301,3301,3301,3301,3301,3301,0,3301,3301,3301,3299,0,0,0,0,0,0,0,0,0,0,0,0,0,0,0,0,0,0,0,0,0,0,0,0,0,0,0,0,0,0,0,0,0,0,0,0,0,0,0,0,0,0,0,0,0,0,0,0,0,0,0,0,0,0,0,0,0,0,0,0,0,0,0,0,0,0,0,0,0,0,0,0,0,0,0,0,0,0,0,0,0,0,0,0,0,0,0,0,0,0,0,0,0,0,0,0,0,0,0,0,0,0,0,0,0,0,0,0,0,0,0,0,0,0,0,0,0,0,0,0,0,0,0,0,0,0,0,0,0,0,0,0,0,0,0,0,0,0,0,0,0,0,0,0,0,0,0,0,0,0,0,0,0,0,0,0,0,0,0,0,0,0,0,0,0,0,0,0,0,0,0,0,0,0,0,0,0,0,0,0,0,0,0,0,0,0,0,0,0,0,0,0,0,0,0,0,0,0,0,0,0,0,0,0,0,0,0,0,0,0,0,0,0,0,0,0,0,0,0,0,0,0,0,0,0,0,0,0,0,0,0,0,0,0,0,0,0,0,0,0,0,0,0,0,0,0,0,0,0,0,0,0,0,0,0,0,0,0,0,0,0,0,0,0,0,0,0,0,0,0,0,0,0,0,0,0,0,0,0,0,0,0,0,0,0,0,0,0,0,0,0,0,0,0,0,0,0,0,0,0,0,0,0,0,0,0,0,0,0,0,0,0,0,0,0,0,0,0,0,0,0,0,0,0,0,0,0,0,0,0,0,0,0,0,0,0,0,0,0,0,0,0,0,0,0,0,0,0,0,0,0,0,0,0,0,0,0,0,0,0,0,0,0,0,0,0,0,0,0,0,0,0,0,0,0,0,0,0,0,0,0,0,0,0,0,0,0,0,0,0,0,0,0,0,0,0,0,0,0,0,0,0,0,0,0,0,0,0,0,0,0,0,0,0,0,0,0,0,0,0,0,0,0,0,0,0,0,0,0,0,0,0,0,0,0,0,0,0,0,0,0,0,0,0,0,0,0,0,0,0,0,0,0,0,0,0,0,0,0,0,0,0,0,0,0,0,0,0,0,0,0,0,0,0,0,0,0,0,0,0,0,0,0,0,0,0,0,0,0,0,0,0,0,0,0,0,0,0,0,0,0,0,0,0,0,0,0,0,0,0,0,0,0,0,0,0,0,0,0,0,0,0,0,0,0,0,0,0,0,0,0,0,0,0,0,0,0,0,0,0,0,0,0,0,0,0,0,0,0,0,0,0,0,0,0,0,0,0,0,0,0,0,0,0,0,0,0,0,0,0,0,0,0,0,0,0,0,0,0,0,0,0,0,0,0,0,0,0,0,0,0,0,0,0,0,0,0,0,0,0,0,0,0,0,0,0,0,0,0,0,0,0,0,0,0,0,0,0,0,0,0,0,0,0,0,0,0,0,0,0,0,0,0,0,0,0,0,0,0,0,0,0,0,0,0,0,0,0,0,0,0,0,0,0,0,0,0,0,0,0,0,0,0,0,0,0,0,0,0,0,0,0,0,0,0,0,0,0,0,0,0,0,0,0,0,0,0,0,0,0,0,0,0,0,0,0,0,0,0,0,0,0,0,0,0,0,0,0,0,0,0,0,0,0,0,0,0,0,0,0,0,0,0,0,0,0,0,0,0,0,0,0,0,0,0,0,0,0,0,0,0,0,0,0,0,0,0,0,0,0,0,0,0,0,0,0,0,0,0,0,0,0,0,0,0,0,0,0,0,0,0,0,0,0,0,0,0,0,0,0,0,0,0,0,0,0,0,0,0,0,0,0,0,0,0,0,0,0,0,0,0,0,0,0,0,0,0,0,0,0,0,0,0,0,0,0,0,0,0,0,0,0,0,0,0,0,0,0,0,0,0,0,0,0,0,0,0,0,0,0,0,0,0,0,0,0,0,0,0,0,0,0,0,0,0,0,0,0,0,0,0,0,0,0,0,0,0,0,0,0,0,0,0,0,0,0,0,0,0,0,0,0,0,0,0,0,0,0,0,0,0,0,0,0,0,0,0,0,0,0,0,0,0,0,0,0,0,0,0,0,0,0,0,0,0,0,0,0,0,0,0,0,0,0,0,0,0,0,0,0,0,0,0,0,0,0,0,0,0,0,0,0,0,0,0,0,0,0,0,0,0,0,0,0,0,0,0,0,0,0,0,0,0,0,0,0,0,0,0,0,0,0,0,0,0,0,0,0,0,0,0,0,0,0,0,0,0,0,0,0,0,0,0,0,0,0,0,0,0,0,0,0,0,0,0,0,0,0,0,0,0,0,0,0,0,0,0,0,0,0,0,0,0,0,0,0,0,0,0,0,0,0,0,0,0,0,0,0,0,0,0,0,0,0,0,0,0,0,0,0,0,0,0,0,0,0,0,0,0,0,0,0,0,0,0,0,0,0,0,0,0,0,0,0,0,0,0,0,0,0,0,0,0,0,0,0,0,0,0,0,0,0,0,0,0,0,0,0,0,0,0,0,0,0,0,0,0,0,0,0,0,0,0,0,0,0,0,0,0,0,0,0,0,0,0,0,0,0,0,0,0,0,0,0,0,0,0,0,0,0,0,0,0,0,0,0,0,0,0,0,0,0,0,0,0,0,0,0,0,0,0,0,0,0,0,0,0,0,0,0,0,0,0,0,0,0,0,0,0,0,0,0,0,0,0,0,0,0,0,0,0,0,0,0,0,0,0,0,0,0,0,0,0,0,0,0,0,0,0,0,0,0,0,0,0,0,0,0,0,0,0,0,0,0,0,0,0,0,0,0,0,0,0,0,0,0,0,0,0,0,0,0,0,0,0,0,0,0,0,0,0,0,0,0,0,0,0,0,0,0,0,0,0,0,0,0,0,0,0,0,0,0,0,0,0,0,0,0,0,0,0,0,0,0,0,0,0,0,0,0,0,0,0,0,0,0,0,0,0,0,0,0,0,0,0,0,0,0,0,0,0,0,0,0,0,0,0,0,0,0,0,0,0,0,0,0,0,0,0,0,0,0,0,0,0,0,0,0,0,0,0,0,0,0,0,0,0,0,0,0,0,0,0,0,0,0,0,0,0,0,0,0,0,0,0,0,0,0,0,0,0,0,0,0,0,0,0,0,0,0,0,0,0,0,0,0,0,0,0,0,0,0,0,0,0,0,0,0,0,0,0,0,0,0,0,0,0,0,0,0,0,0,0,0,0,0,0,0,0,0,0,0,0,0,0,0,0,0,0,0,0,0,0,0,0,0,0,0,0,0,0,0,0,0,0,0,0,0,0,0,0,0,0,0,0,0,0,0,0,0,0,0,0,0,0,0,0,0,0,0,0,0,0,0,0,0,0,0,0,0,0,0,0,0,0,0,0,0,0,0,0,0,0,0,0,0,0,0,0,0,0,0,0,0,0,0,0,0,0,0,0,0,0,0,0,0,0,0,0,0,0,0,0,0,0,0,0,0,0,0,0,0,0,0,0,0,0,0,0,0,0,0,0,0,0,0,0,0,0,0,0,0,0,0,0,0,0,0,0,0,0,0,0,0,0,0,0,0,0,0,0,0,0,0,0,0,0,0,0,0,0,0,0,0,0,0,0,0,0,0,0,0,0,0,0,0,0,0,0,0,0,0,0,0,0,0,0,0,0,0,0,0,0,0,0,0,0,0,0,0,0,0,0,0,0,0,0,0,0,0,0,0,0,0,0,0,0,0,0,0,0,0,0,0,0,0,0,0,0,0,0,0,0,0,0,0,0,0,0,0,0,0,0,0,0,0,0,0,0,0,0,0,0,0,0,0,0,0,0,0,0,0,0,0,0,0,0,0,0,0,0,0,0,0,0,0,0,0,0,0,0,0,0,0,0,0,0,0,0,0,0,0,0,0,0,0,0,0,0,0,0,0,0,0,0,0,0,0,0,0,0,0,0,0,0,0,0,0,0,0,0,0,0,0,0,0,0,0,0,0,0,0,0,0,0,0,0,0,0,0,0,0,0,0,0,0,0,0,0,0,0,0,0,0,0,0,0,0,0,0,0,0,0,0,0,0,0,0,0,0,0,0,0,0,0,0,0,0,0,0,0,0,0,0,0,0,0,0,0,0,0,0,0,0,0,0,0,0,0,0,0,0,0,0,0,0,0,0,0,0,0,0,0,0,0,0,0,0,0,0,0,0,0,0,0,0,0,0,0,0,0,0,0,0,0,0,0,0,0,0,0,0,0,0,0,0,0,0,0,0,0,0,0,0,0,0,0,0,0,0,0,0,0,0,0,0,0,0,0,0,0,0,0,0,0,0,0,0,0,0,0,0,0,0,0,0,0,0,0,0,0,0,0,0,0,0,0,0,0,0,0,0,0,0,0,0,0,0,0,0,0,0,0,0,0,0,0,0,0,0,0,0,0,0,0,0,0,0,0,0,0,0,0,0,0,0,0,0,0,0,0,0,0,0,0,0,0,0,0,0,0,0,0,0,0,0,0,0,0,0,0,0,0,0,0,0,0,0,0,0,0,0,0,0,0,0,0,0,0,0,0,0,0,0,0,0,0,0,0,0,0,0,0,0,0,0,0,0,0,0,0,0,0,0,0,0,0,0,0,0,0,0,0,0,0,0,0,0,0,0,0,0,0,0,0,0,0,0,0,0,0,0,0,0,0,0,0,0,0,0,0,0,0,0,0,0,0,0,0,0,0,0,0,0,0,0,0,0,0,0,0,0,0,0,0,0,0,0,0,0,0,0,0,0,0,0,0,0,0,0,0,0,0,0,0,0,0,0,0,0,0,0,0,0,0,0,0,0,0,0,0,0,0,0,0,0,0,0,0,0,0,0,0,0,0,0,0,0,0,0,0,0,0,0,0,0,0,0,0,0,0,0,0,0,0,0,0,0,0,0,0,0,0,0,0,0,0,0,0,0,0,0,0,0,0,0,0,0,0,0,0,0,0,0,0,0,0,0,0,0,0,0,0,0,0,0,0,0,0,0,0,0,0,0,0,0,0,0,0,0,0,0,0,0,0,0,0,0,0,0,0,0,0,0,0,0,0,0,0,0,0,0,0,0,0,0,0,3275,0,0,3296,3296,3291,0,0,0,0,0,0,0,0,0,0,0,0,0,0,0,0,0,0,0,0,0,0,0,0,0,0,0,0,0,0,0,0,0,0,0,0,0,0,0,0,0,0,0,0,0,0,0,0,0,0,0,0,0,0,0,0,0,0,0,0,0,0,0,0,0,0,0,0,0,0,0,0,0,0,0,0,0,0,0,0,0,0,0,0,0,0,0,0,0,0,0,0,0,0,0,0,0,0,0,0,0,0,0,0,0,0,0,0,0,0,0,0,0,0,0,0,0,0,0,0,0,0,0,0,0,0,0,0,0,0,0,0,0,0,0,0,3275,3296,3298,3407,0,3407,2147487007,3310,3296,3291,0,0,0,0,0,0,0,0,0,0,0,0,0,0,0,0,0,0,0,0,0,0,0,0,0,0,0,0,0,0,0,0,0,0,0,0,0,0,0,0,0,0,0,0,0,0,0,0,0,0,0,0,0,0,0,0,0,0,0,0,0,0,0,0,0,0,0,0,0,0,0,0,0,0,0,0,0,0,0,0,0,0,0,0,0,0,0,0,0,0,0,0,0,0,0,0,0,0,0,0,0,0,0,0,0,0,0,0,0,0,0,0,0,0,0,0,0,0,0,0,0,0,0,0,0,0,0,0,0,0,0,0,0,3275,3298,2147487055,3359,3455,0,0,3311,2147487055,2147487007,3310,3291,0,0,0,0,0,0,0,0,0,0,0,0,0,0,0,0,0,0,0,0,0,0,0,0,0,0,0,0,0,0,0,0,0,0,0,0,0,0,0,0,0,0,0,0,0,0,0,0,0,0,0,0,0,0,0,0,0,0,0,0,0,0,0,0,0,0,0,0,0,0,0,0,0,0,0,0,0,0,0,0,0,0,0,0,0,0,0,0,0,0,0,0,0,0,0,0,0,0,0,0,0,0,0,0,0,0,0,0,0,0,0,0,0,0,0,0,0,0,0,0,0,0,0,0,0,0,0,0,0,0,0,0,3269,3306,2147487007,3455,2147487103,3359,0,3407,3359,2147487007,3309,3299,0,0,0,0,0,0,0,0,0,0,0,0,0,0,0,0,0,0,0,0,0,0,0,0,0,0,0,0,0,0,0,0,0,0,0,0,0,0,0,0,0,0,0,0,0,0,0,0,0,0,0,0,0,0,0,0,0,0,0,0,0,0,0,0,0,0,0,0,0,0,0,0,0,0,0,0,0,0,0,0,0,0,0,0,0,0,0,0,0,0,0,0,0,0,0,0,0,0,0,0,0,0,0,0,0,0,0,0,0,0,0,0,0,0,0,0,0,0,0,0,0,0,0,0,0,0,0,0,0,0,0,0,0,3269,3301,3306,2147487103,2147487055,0,0,3309,3301,3299,0,0,0,0,0,0,0,0,0,0,0,0,0,0,0,0,0,0,0,0,0,0,0,0,0,0,0,0,0,0,0,0,0,0,0,0,0,0,0,0,0,0,0,0,0,0,0,0,0,0,0,0,0,0,0,0,0,0,0,0,0,0,0,0,0,0,0,0,0,0,0,0,0,0,0,0,0,0,0,0,0,0,0,0,0,0,0,0,0,0,0,0,0,0,0,0,0,0,0,0,0,0,0,0,0,0,0,0,0,0,0,0,0,0,0,0,0,0,0,0,0,0,0,0,0,0,0,0,0,0,0,0,0,0,0,0,3269,3301,3301,3301,0,3299,0,0,0,0,0,0,0,0,0,0,0,0,0,0,0,0,0,0,0,0,0,0,0,0,0,0,0,0,0,0,0,0,0,0,0,0,0,0,0,0,0,0,0,0,0,0,0,0,0,0,0,0,0,0,0,0,0,0,0,0,0,0,0,0,0,0,0,0,0,0,0,0,0,0,0,0,0,0,0,0,0,0,0,0,0,0,0,0,0,0,0,0,0,0,0,0,0,0,0,0,0,0,0,0,0,0,0,0,0,0,0,0,0,0,0,0,0,0,0,0,0,0,0,0,0,0,0,0,0,0,0,0,0,0,0,0,0,0,0,0,0,0,0,0,0,0,0,0,0,0,0,0,0,0,0,0,0,0,0,0,0,0,0,0,0,0,0,0,0,0,0,0,0,0,0,0,0,0,0,0,0,0,0,0,0,0,0,0,0,0,0,0,0,0,0,0,0,0,0,0,0,0,0,0,0,0,0,0,0,0,0,0,0,0,0,0,0,0,0,0,0,0,0,0,0,0,0,0,0,0,0,0,0,0,0,0,0,0,0,0,0,0,0,0,0,0,0,0,0,0,0,0,0,0,0,0,0,0,0,0,0,0,0,0,0,0,0,0,0,0,0,0,0,0,0,0,0,0,0,0,0,0,0,0,0,0,0,0,0,0,0,0,0,0,0,0,0,0,0,0,0,0,0,0,0,0,0,0,0,0,0,0,0,0,0,0,0,0,0,0,0,0,0,0,0,0,0,0,0,0,0,0,0,0,0,0,0,0,0,0,0,0,0,0,0,0,0,0,0,0,0,0,0,0,0,0,0,0,0,0,0,0,0,0,0,0,0,0,0,0,0,0,0,0,0,0,0,0,0,0,0,0,0,0,0,0,0,0,0,0,0,0,0,0,0,0,0,0,0,0,0,0,0,0,0,0,0,0,0,0,0,0,0,0,0,0,0,0,0,0,0,0,0,0,0,0,0,0,0,0,0,0,0,0,0,0,0,0,0,0,0,0,0,0,0,0,0,0,0,0,0,0,0,0,0,0,0,0,0,0,0,0,0,0,0,0,0,0,0,0,0,0,0,0,0,0,0,0,0,0,0,0,0,0,0,0,0,0,0,0,0,0,0,0,0,0,0,0,0,0,0,0,0,0,0,0,0,0,0,0,0,0,0,0,0,0,0,0,0,0,0,0,0,0,0,0,0,0,0,0,0,0,0,0,0,0,0,0,0,0,0,0,0,0,0,0,0,0,0,0,0,0,0,0,0,0,0,0,0,0,0,0,0,0,0,0,0,0,0,0,0,0,0,0,0,0,0,0,0,0,0,0,0,0,0,0,0,0,0,0,0,0,0,0,0,0,0,0,0,0,0,0,0,0,0,0,0,0,0,0,0,0,0,0,0,0,0,0,0,0,0,0,0,0,0,0,0,0,0,0,0,0,0,0,0,0,0,0,0,0,0,0,0,0,0,0,0,0,0,0,0,0,0,0,0,0,0,0,0,0,0,0,0,0,0,0,0,0,0,0,0,0,0,0,0,0,0,0,0,0,0,0,0,0,0,0,0,0,0,0,0,0,0,0,0,0,0,0,0,0,0,0,0,0,0,0,0,0,0,0,0,0,0,0,0,0,0,0,0,0,0,0,0,0,0,0,0,0,0,0,0,0,0,0,0,0,0,0,0,0,0,0,0,0,0,0,0,0,0,0,0,0,0,0,0,0,0,0,0,0,0,0,0,0,0,0,0,0,0,0,0,0,0,0,0,0,0,0,0,0,0,0,0,0,0,0,0,0,0,0,0,0,0,0,0,0,0,0,0,0,0,0,0,0,0,0,0,0,0,0,0,0,0,0,0,0,0,0,0,0,0,0,0,0,0,0,0,0,0,0,0,0,0,0,0,0,0,0,0,0,0,0,0,0,0,0,0,0,0,0,0,0,0,0,0,0,0,0,0,0,0,0,0,0,0,0,0,0,0,0,0,0,0,0,0,0,0,0,0,0,0,0,0,0,0,0,0,0,0,0,0,0,0,0,0,0,0,0,0,0,0,0,0,0,0,0,0,0,0,0,0,0,0,0,0,0,0,0,0,0,0,0,0,0,0,0,0,0,0,0,0,0,0,0,0,0,0,0,0,0,0,0,0,0,0,0,0,0,0,0,0,0,0,0,0,0,0,0,0,0,0,0,0,0,0,0,0,0,0,0,0,0,0,0,0,0,0,0,0,0,0,0,0,0,0,0,0,0,0,0,0,0,0,0,0,0,0,0,0,0,0,0,0,0,0,0,0,0,0,0,0,0,0,0,0,0,0,0,0,0,0,0,0,0,0,0,0,0,0,0,0,0,0,0,0,0,0,0,0,0,0,0,0,0,0,0,0,0,0,0,0,0,0,0,0,0,0,0,0,0,0,0,0,0,0,0,0,0,0,0,0,0,0,0,0,0,0,0,0,0,0,0,0,0,0,0,0,0,0,0,0,0,0,0,0,0,0,0,0,0,0,0,0,0,0,0,0,0,0,0,0,0,0,0,0,0,0,0,0,0,0,0,0,0,0,0,0,0,0,0,0,0,0,0,0,0,0,0,0,0,0,0,0,0,0,0,0,0,0,0,0,0,0,0,0,0,0,0,0,0,0,0,0,0,0,0,0,0,0,0,0,0,0,0,0,0,0,0,0,0,0,0,0,0,0,0,0,0,0,0,0,0,0,0,0,0,0,0,0,0,0,0,0,0,0,0,0,0,0,0,0,0,0,0,0,0,0,0,0,0,0,0,0,0,0,0,0,0,0,0,0,0,0,0,0,0,0,0,0,0,0,0,0,0,0,0,0,0,0,0,0,0,0,0,0,0,0,0,0,0,0,0,0,0,0,0,0,0,0,0,0,0,0,0,0,0,0,0,0,0,0,0,0,0,0,0,0,0,0,0,0,0,0,0,0,0,0,0,0,0,0,0,0,0,0,0,0,0,0,0,0,0,0,0,0,0,0,0,0,0,0,0,0,0,0,0,0,0,0,0,0,0,0,0,0,0,0,0,0,0,0,0,0,0,0,0,0,0,0,0,0,0,0,0,0,0,0,0,0,0,0,0,0,0,0,0,0,0,0,0,0,0,0,0,0,0,0,0,0,0,0,0,0,0,0,0,0,0,0,0,0,0,0,0,0,0,0,0,0,0,0,0,0,0,0,0,0,0,0,0,0,0,0,0,0,0,0,0,0,0,0,0,0,0,0,0,0,0,0,0,0,0,0,0,0,0,0,0,0,0,0,0,0,0,0,0,0,0,0,0,0,0,0,0,0,0,0,0,0,0,0,0,0,0,0,0,0,0,0,0,0,0,0,0,0,0,0,0,0,0,0,0,0,0,0,0,0,0,0,0,0,0,0,0,0,0,0,0,0,0,0,0,0,0,0,0,0,0,0,0,0,0,0,0,0,0,0,0,0,0,0,0,0,0,0,0,0,0,0,0,0,0,0,0,0,0,0,0,0,0,0,0,0,0,0,0,0,0,0,0,0,0,0,0,0,0,0,0,0,0,0,0,0,0,0,0,0,0,0,0,0,0,0,0,0,0,0,0,0,0,0,0,0,0,0,0,0,0,0,0,0,0,0,0,0,0,0,0,0,0,0,0,0,0,0,0,0,0,0,0,0,0,0,0,0,0,0,0,0,0,0,0,0,0,0,0,0,0,0,0,0,0,0,0,0,0,0,0,0,0,0,0,0,0,0,0,0,0,0,0,0,0,0,0,0,0,0,0,0,0,0,0,0,0,0,0,0,0,0,0,0,0,0,0,0,0,0,0,0,0,0,0,0,0,0,0,0,0,0,0,0,0,0,0,0,0,0,0,0,0,0,0,0,0,0,0,0,0,0,0,0,0,0,0,0,0,0,0,0,0,0,0,0,0,0,0,0,0,0,0,0,0,0,0,0,0,0,0,0,0,0,0,0,0,0,0,0,0,0,0,0,0,0,0,0,0,0,0,0,0,0,0,0,0,0,0,0,0,0,0,0,0,0,0,0,0,0,0,0,0,0,0,0,0,0,0,0,0,0,0,0,0,0,0,0,0,0,0,0,0,0,0,0,0,0,0,0,0,0,0,0,0,0,0,0,0,0,0,0,0,0,0,0,0,0,0,0,0,0,0,0,0,0,0,0,0,0,0,0,0,0,0,0,0,0,0,0,0,0,0,0,0,0,0,0,0,0,0,0,0,0,0,0,0,0,0,0,0,0,0,0,0,0,0,0,0,0,0,0,0,0,0,0,0,0,0,0,0,0,0,0,0,0,0,0,0,0,0,0,0,0,0,0,0,0,0,0,0,0,0,0,0,0,0,0,0,0,0,0,0,0,0,0,0,0,0,0,0,0,0,0,0,0,0,0,0,0,0,0,0,0,0,0,0,0,0,0,0,0,0,0,0,0,0,0,0,0,0,0,0,0,0,0,0,0,0,0,0,0,0,0,0,0,0,0,0,0,0,0,0,0,0,0,0,0,0,0,0,0,0,0,0,0,0,0,0,0,0,0,0,0,0,0,0,0,0,0,0,0,0,0,0,0,0,0,0,0,0,0,0,0,0,0,0,0,0,0,0,0,0,0,0,0,0,0,0,0,0,0,0,0,0,0,0,0,0,0,0,0,0,0,0,0,0,0,0,0,0,0,0,0,0,0,0,0,0,0,0,0,0,0,0,0,0,0,0,0,0,0,0,0,0,0,0,0,0,0,0,0,0,0,0,0,0,0,0,0,0,0,0,0,0,0,0,0,0,0,0,0,0,0,0,0,0,0,0,0,0,0,0,0,0,0,0,0,0,0,0,0,0,0,0,0,0,0,0,0,0,0,0,0,0,0,0,0,0,0,0,0,0,0,0,0,0,0,0,0,0,0,0,0,0,0,0,0,0,0,0,0,0,0,0,0,0,0,0,0,0,0,0,0,0,0,0,0,0,0,0,0,0,0,0,0,0,0,0,0,0,0,0,0,0,0,0,0,0,0,0,0,0,0,0,0,0,0,0,0,0,0,0,0,0,0,0,0,0,0,0,0,0,0,0,0,0,0,0,0,0,0,0,0,0,0,0,0,0,0,0,0,0,0,0,0,0,0,0,0,0,0,0,0,0,0,0,0,0,0,0,0,0,0,0,0,0,0,0,0,0,0,0,0,0,0,0,0,0,0,0,0,0,0,0,0,0,0,0,0,0,0,0,0,0,0,0,0,0,0,0,0,0,0,0,0,0,0,0,0,0,0,0,0,0,0,0,0,0,0,0,0,0,0,0,0,0,0,0,0,0,0,0,0,0,0,0,0,0,0,0,0,0,0,0,0,0,0,0,0,0,0,0,0,0,0,0,0,0,0,0,0,0,0,0,0,0,0,0,0,0,0,0,0,0,0,0,0,0,0,0,0,0,0,0,0,0,0,0,0,0,0,0,0,0,0,0,0,0,0,0,0,0,0,0,0,0,0,0,0,0,0,0,0,0,0,0,0,0,0,0,0,0,0,0,0,0,0,0,0,0,0,0,0,0,0,0,0,0,0,0,0,0,0,0,0,0,0,0,0,0,0,0,0,0,0,0,0,0,0,0,0,0,0,0,0,0,0,0,0,0,0,0,0,0,0,0,0,0,0,0,0,0,0,0,0,0,0,0,0,0,0,0,0,0,0,0,0,0,0,0,0,0,0,0,0,0,0,0,0,0,0,0,0,0,0,0,0,0,0,0,0,0,0,0,0,0,0,0,0,0,0,0,0,0,0,0,0,0,0,0,0,0,0,0,0,0,0,0,0,0,0,0,0,0,0,0,0,0,0,0,0,0,0,0,0,0,0,0,0,0,0,0,0,0,0,0,0,0,0,0,0,0,0,0,0,0,0,0,0,0,0,0,0,0,0,0,0,0,0,0,0,0,0,0,0,0,0,0,0,0,0,0,0,0,0,0,0,0,0,0,0,0,0,0,0,0,0,0,0,0,0,0,0,0,0,0,0,0,0,0,0,0,0,0,0,0,0,0,0,0,0,0,0,0,0,0,0,0,0,0,0,0,0,0,0,0,0,0,0,0,0,0,0,0,0,0,0,0,0,0,0,0,0,0,0,0,0,0,0,0,0,0,0,0,0,0,0,0,0,0,0,0,0,0,0,0,0,0,0,0,0,0,0,0,0,0,0,0,0,0,0,0,0,0,0,0,0,0,0,0,0,0,0,0,0,0,0,0,0,0,0,0,0,0,0,0,0,0,0,0,0,0,0,0,0,0,0,0,0,0,0,0,0,0,0,0,0,0,0,0,0,0,0,0,0,0,0,0,0,0,0,0,0,0,0,0,0,0,0,0,0,0,0,0,0,0,0,0,0,0,0,0,0,0,0,0,0,0,0,0,0,0,0,0,0,0,0,0,0,0,0,0,0,0,0,0,0,0,0,0,0,0,0,0,0,0,0,0,0,0,0,0,0,0,0,0,0,0,0,0,0,0,0,0,0,0,0,0,0,0,0,0,0,0,0,0,0,0,0,0,0,0,0,0,0,0,0,0,0,0,0,0,0,0,0,0,0,0,0,0,0,0,0,0,0,0,0,0,0,0,0,0,0,0,0,0,0,0,0,0,0,0,0,0,0,0,0,0,0,0,0,0,0,0,0,0,0,0,0,0,0,0,0,0,0,0,0,0,0,0,0,0,0,0,0,0,0,0,0,0,0,0,0,0,0,0,0,0,0,0,0,0,0,0,0,0,0,0,0,0,0,0,0,0,0,0,0,0,0,0,0,0,0,0,0,0,0,0,0,0,0,0,0,0,0,0,0,0,0,0,0,0,0,0,0,0,0,0,0,0,0,0,0,0,0,0,0,0,0,0,0,0,0,0,0,0,0,0,0,0,0,0,0,0,0,0,0,0,0,0,0,0,0,0,0,0,0,0,0,0,0,0,0,0,0,0,0,0,0,0,0,0,0,0,0,0,0,0,0,0,0,0,0,0,0,0,0,0,0,0,0,0,0,0,0,0,0,0,0,0,0,0,0,0,0,0,0,0,0,0,0,0,0,0,0,0,0,0,0,0,0,0,0,0,0,0,0,0,0,0,0,0,0,0,0,0,0,0,0,0,0,0,0,0,0,0,0,0,0,0,0,0,0,0,0,0,0,0,0,0,0,0,0,0,0,0,0,0,0,0,0,0,0,0,0,0,0,0,0,0,0,0,0,0,0,0,0,0,0,0,0,0,0,0,0,0,0,0,0,0,0,0,0,0,0,0,0,0,0,0,0,0,0,0,0,0,0,0,0,0,0,0,0,0,0,0,0,0,0,0,0,0,0,0,0,0,0,0,0,0,0,0,0,0,0,0,0,0,0,0,0,0,0,0,0,0,0,0,0,0,0,0,0,0,0,0,0,0,0,0,0,0,0,0,0,0,0,0,0,0,0,0,0,0,0,0,0,0,0,0,0,0,0,0,0,0,0,0,0,0,0,0,0,0,0,0,0,0,0,0,0,0,0,0,0,0,0,0,0,0,0,0,0,0,0,0,0,0,0,0,0,0,0,0,0,0,0,0,0,0,0,0,0,0,0,0,0,0,0,0,0,0,0,0,0,0,0,0,0,0,0,0,0,0,0,0,0,0,0,0,0,0,0,0,0,0,0,0,0,0,0,0,0,0,0,0,0,0,0,0,0,0,0,0,0,0,0,0,0,0,0,0,0,0,0,0,0,0,0,0,0,0,0,0,0,0,0,0,0,0,0,0,0,0,0,0,0,0,0,0,0,0,0,0,0,0,0]},{"id":8,"name":"forest","type":"tilelayer","x":0,"y":0,"opacity":1,"visible":true,"width":144,"height":96,"data":[0,0,0,0,0,0,0,0,0,0,0,0,0,0,0,0,0,0,0,0,0,0,0,0,0,0,0,0,0,0,0,0,0,0,0,0,0,0,0,0,0,0,0,0,0,0,0,0,0,0,0,0,0,0,0,0,0,0,0,0,0,0,0,0,0,0,0,0,0,0,0,0,0,0,0,0,0,0,0,0,0,0,0,0,0,0,0,0,0,0,0,0,0,0,0,0,0,0,0,0,0,0,0,0,0,0,0,0,0,0,0,0,0,0,0,0,0,0,0,0,0,0,0,0,0,0,0,0,0,0,0,0,0,0,0,0,0,0,0,0,0,0,0,0,0,0,0,0,0,0,0,0,0,0,0,0,0,0,0,0,0,0,0,0,0,0,0,0,0,0,0,0,0,0,0,0,0,0,0,0,0,0,0,0,0,0,0,0,0,0,0,0,0,0,0,0,0,0,0,0,0,0,0,0,0,0,0,0,0,0,0,0,0,0,0,0,0,0,0,0,0,0,0,0,0,0,0,0,0,0,0,0,0,0,0,0,0,0,0,0,0,0,0,0,0,0,0,0,0,0,0,0,0,0,0,0,0,0,0,0,0,0,0,0,0,0,0,0,0,0,0,0,0,0,0,0,0,0,0,0,0,0,0,0,0,0,0,0,0,0,0,0,0,0,0,0,0,0,0,0,0,0,0,0,0,0,0,0,0,0,0,0,0,0,0,0,0,0,0,0,0,0,0,0,0,0,0,0,0,0,0,0,0,0,0,0,0,0,0,0,0,0,0,0,0,0,0,0,0,0,0,0,0,0,0,0,0,0,0,0,0,0,0,0,0,0,0,0,0,0,0,0,0,0,0,0,0,0,0,0,0,0,0,0,0,0,0,0,0,0,0,0,0,0,0,0,0,0,0,0,0,0,0,0,0,0,0,0,0,0,0,0,0,0,0,0,0,0,0,0,0,0,0,0,0,0,0,0,0,0,0,0,0,0,0,0,0,0,0,0,0,0,0,0,0,0,0,0,0,0,0,0,0,0,0,0,0,0,0,0,0,0,0,0,0,0,0,0,0,0,0,0,0,0,0,0,0,0,0,0,0,0,0,0,0,0,0,0,0,0,0,0,0,0,0,0,0,0,0,0,0,0,0,0,0,0,0,0,0,0,0,0,0,0,0,0,0,0,0,0,0,0,0,0,0,0,0,0,0,0,0,0,0,0,0,0,0,0,0,0,0,0,0,0,0,0,0,0,0,0,0,0,0,0,0,0,0,0,0,0,0,0,0,0,0,0,0,0,0,0,0,0,0,0,0,0,0,0,0,0,0,0,0,0,0,0,0,0,0,0,0,0,0,0,0,0,0,0,0,0,0,0,0,0,0,0,0,0,0,0,0,0,0,0,0,0,0,0,0,0,0,0,0,0,0,0,0,0,0,0,0,0,0,0,0,0,0,0,0,0,0,0,0,0,0,0,0,0,0,0,0,0,0,0,0,0,0,0,0,0,0,0,0,0,0,0,0,0,0,0,0,0,0,0,0,0,0,0,0,0,0,0,0,0,0,0,0,0,0,0,0,0,0,0,0,0,0,0,0,0,0,0,0,0,0,0,0,0,0,0,1547,1568,1568,1568,1568,1563,0,0,0,0,0,0,0,0,0,0,0,0,0,0,0,0,0,0,0,0,0,0,0,0,0,0,0,0,0,0,0,0,0,0,0,0,0,0,0,0,0,0,0,0,0,0,0,0,0,0,0,0,0,0,0,0,0,0,0,0,0,0,0,0,0,0,0,0,0,0,0,0,0,0,0,0,0,0,0,0,0,0,0,0,0,0,0,0,0,0,0,0,0,0,0,0,0,0,0,0,0,0,0,0,0,0,0,0,0,0,0,0,0,0,0,0,0,0,0,0,0,0,0,0,0,0,0,0,0,0,0,0,0,0,0,0,1547,1568,1570,1727,1727,1583,2147485279,1582,1568,1563,0,0,0,0,0,0,0,0,0,0,0,0,0,0,0,0,0,0,0,0,0,0,0,0,0,0,0,0,0,0,0,0,0,0,0,0,0,0,0,0,0,0,0,0,0,0,0,0,0,0,0,0,0,0,0,0,0,0,0,0,0,0,0,0,0,0,0,0,0,0,0,0,0,0,0,0,0,0,0,0,0,0,0,0,0,0,0,0,0,0,0,0,0,0,0,0,0,0,0,0,0,0,0,0,0,0,0,0,0,0,0,0,0,0,0,0,0,0,0,0,0,0,0,0,0,0,0,0,0,0,0,0,0,1547,1570,2147485327,2147485375,1727,2147485375,2147485231,2147485375,2147485327,2147485375,1582,1568,0,0,0,0,0,0,0,0,0,0,0,0,0,0,0,0,0,0,0,0,0,0,0,0,0,0,0,0,0,0,0,0,0,0,0,0,0,0,0,0,0,0,0,0,0,0,0,0,0,0,0,0,0,0,0,0,0,0,0,0,0,0,0,0,0,0,0,0,0,0,0,0,0,0,0,0,0,0,0,0,0,0,0,0,0,0,0,0,0,0,0,0,0,0,0,0,0,0,0,0,0,0,0,0,0,0,0,0,0,0,0,0,0,0,0,0,0,0,0,0,0,0,0,0,0,0,0,0,0,0,0,0,1541,1578,1583,2147485375,1583,2147485279,2147485231,2147485231,2147485375,1727,2147485375,2147485231,0,0,0,0,0,0,0,0,0,0,0,0,0,0,0,0,0,0,0,0,0,0,0,0,0,0,0,0,0,0,0,0,0,0,0,0,0,0,0,0,0,0,0,0,0,0,0,0,0,0,0,0,0,0,0,0,0,0,0,0,0,0,0,0,0,0,0,0,0,0,0,0,0,0,0,0,0,0,0,0,0,0,0,0,0,0,0,0,0,0,0,0,0,0,0,1549,2147485375,2147485375,2147485375,2147485231,2147485231,0,0,0,0,0,0,0,0,0,0,0,0,0,0,0,0,0,0,0,0,0,0,0,0,0,0,0,0,0,0,0,0,1549,1583,1583,1583,2147485279,1679,1583,2147485327,1583,1679,0,0,0,0,0,0,0,0,0,0,0,0,0,0,0,0,0,0,0,0,0,0,0,0,0,0,0,0,0,0,0,0,0,0,0,0,0,0,0,0,0,0,0,0,0,0,0,0,0,0,0,0,0,0,0,0,0,0,0,0,0,0,0,0,0,0,0,0,0,0,0,0,0,0,0,0,0,0,0,0,0,0,0,0,0,0,0,0,0,0,0,0,0,0,0,1547,1570,1583,1679,2147485231,1631,2147485327,1631,1679,1679,1583,0,0,0,0,0,0,0,0,0,0,0,0,0,0,0,0,0,0,0,0,0,0,0,0,0,0,0,0,0,0,2147485327,2147485327,2147485279,1583,1631,2147485375,0,0,0,0,0,0,0,0,0,0,0,0,0,0,0,0,0,0,0,0,0,0,0,0,0,0,0,0,0,0,0,0,0,0,0,0,0,0,0,0,0,0,0,0,0,0,0,0,0,0,0,0,0,0,0,0,0,0,0,0,0,0,0,0,0,0,0,0,0,0,0,0,0,0,0,0,0,0,0,0,0,0,0,0,0,0,0,0,0,0,0,0,0,0,0,0,0,1541,1578,1727,2147485231,2147485375,2147485327,1631,1679,2147485279,2147485279,1727,1631,1581,1571,0,0,0,0,0,0,0,0,0,0,0,0,0,0,0,0,0,0,0,0,0,0,0,0,0,0,0,0,0,0,0,0,0,0,0,0,0,0,0,0,0,0,0,0,0,0,0,0,0,0,0,0,0,0,0,0,0,0,0,0,0,0,0,0,0,0,0,0,0,0,0,0,0,0,0,0,0,0,0,0,0,0,0,0,0,0,0,0,0,0,0,0,0,0,0,0,0,0,0,0,0,0,0,0,0,0,0,0,0,0,0,0,0,0,0,0,0,0,0,0,0,0,0,0,0,0,0,0,0,0,0,1541,1573,1578,1583,2147485279,2147485279,1679,2147485327,2147485375,1581,1573,1571,0,0,0,0,0,0,0,0,0,0,0,0,0,0,0,0,0,0,0,0,0,0,0,0,0,0,0,0,0,0,0,0,0,0,0,0,0,0,0,0,0,0,0,0,0,0,0,0,0,0,0,0,0,0,0,0,0,0,0,0,0,0,0,0,0,0,0,0,0,0,0,0,0,0,0,0,0,0,0,0,0,0,0,0,0,0,0,0,0,0,0,0,0,0,0,0,0,0,0,0,0,0,0,0,0,0,0,0,0,0,0,0,0,0,0,0,0,0,0,0,0,0,0,0,0,0,0,0,0,0,0,0,0,0,1541,1573,1573,1573,1573,1573,1573,1571,0,0,0,0,0,0,0,0,0,0,0,0,0,0,0,0,0,0,0,0,0,0,0,0,0,0,0,0,0,0,0,0,0,0,0,0,0,0,0,0,0,0,0,0,0,0,0,0,0,0,0,0,0,0,0,0,0,0,0,0,0,0,0,0,0,0,0,0,0,0,0,0,0,0,0,0,0,0,0,0,0,0,0,0,0,0,0,0,0,0,0,0,0,0,0,0,0,0,0,0,0,0,0,0,0,0,0,0,0,0,0,0,0,0,0,0,0,0,0,0,0,0,0,0,0,0,0,0,0,0,0,0,0,0,0,0,0,0,0,0,0,0,0,0,0,0,0,0,0,0,0,0,0,0,0,0,0,0,0,0,0,0,0,0,0,0,0,0,0,0,0,0,0,0,0,0,0,0,0,0,0,0,0,0,0,0,0,0,0,0,0,0,0,0,0,0,0,0,0,0,0,0,0,0,0,0,0,0,0,0,0,0,0,0,0,0,0,0,0,0,0,0,0,0,0,0,0,0,0,0,0,0,0,0,0,0,0,0,0,0,0,0,0,0,0,0,0,0,0,0,0,0,0,0,0,0,0,0,0,0,0,0,0,0,0,0,0,0,0,0,0,0,0,0,0,0,0,0,0,0,0,0,0,0,0,0,0,0,0,0,0,0,0,0,0,0,0,0,0,0,0,0,0,0,0,0,0,0,0,0,0,0,0,0,0,0,0,0,0,0,0,0,0,0,0,0,0,0,0,0,0,0,0,0,0,0,0,0,0,0,0,0,0,0,0,0,0,0,0,0,0,0,0,0,0,0,0,0,0,0,0,0,0,0,0,0,0,0,0,0,0,0,0,0,0,0,0,0,0,0,0,0,0,0,0,0,0,0,0,0,0,0,0,0,0,0,0,0,0,0,0,0,0,0,0,0,0,0,0,0,0,0,0,0,0,0,0,0,0,0,0,0,0,0,0,0,0,0,0,0,0,0,0,0,0,0,0,0,0,0,0,0,0,0,0,0,0,0,0,0,0,0,0,0,0,0,0,0,0,0,0,0,0,0,0,0,0,0,0,0,0,0,0,0,0,0,0,0,0,0,0,0,0,0,0,0,0,0,0,0,0,0,0,0,0,0,0,0,0,0,0,0,0,0,0,0,0,0,0,0,0,0,0,0,0,0,0,0,0,0,0,0,0,0,0,0,0,0,0,0,0,0,0,0,0,0,0,0,0,0,0,0,0,0,0,0,0,0,0,0,0,0,0,0,0,0,0,0,0,0,0,0,0,0,0,0,0,0,0,0,0,0,0,0,0,0,0,0,0,0,0,0,0,0,0,0,0,0,0,0,0,0,0,0,0,0,0,0,0,0,0,0,0,0,0,0,0,0,0,0,0,0,0,0,0,0,0,0,0,0,0,0,0,0,0,0,0,0,0,0,0,0,0,0,0,0,0,0,0,0,0,0,0,0,0,0,0,0,0,0,0,0,0,0,0,0,0,0,0,0,0,0,0,0,0,0,0,0,0,0,0,0,0,0,0,0,0,0,0,0,0,0,0,0,0,0,0,0,0,0,0,0,0,0,0,0,0,0,0,0,0,0,0,0,0,0,0,0,0,0,0,0,0,0,0,0,0,0,0,0,0,0,0,0,0,0,0,0,0,0,0,0,0,0,0,0,0,0,0,0,0,0,0,0,0,0,0,0,0,0,0,0,0,0,0,0,0,0,0,0,0,0,0,0,0,0,0,0,0,0,0,0,0,0,0,0,0,0,0,0,0,0,0,0,0,0,0,0,0,0,0,0,0,0,0,0,0,0,0,0,0,0,0,0,0,0,0,0,0,0,0,0,0,0,0,0,0,0,0,0,0,0,0,0,0,0,0,0,0,0,0,0,0,0,0,0,0,0,0,0,0,0,0,0,0,0,0,0,0,0,0,0,0,0,0,0,0,0,0,0,0,0,0,0,0,0,0,0,0,0,0,0,0,0,0,0,0,0,0,0,0,0,0,0,0,0,0,0,0,0,0,0,0,0,0,0,0,0,0,0,0,0,0,0,0,0,0,0,0,0,0,0,0,0,0,0,0,0,0,0,0,0,0,0,0,0,0,0,0,0,0,0,0,0,0,0,0,0,0,0,0,0,0,0,0,0,0,0,0,0,0,0,0,0,0,0,0,0,0,0,0,0,0,0,0,0,0,0,0,0,0,0,0,0,0,0,0,0,0,0,0,0,0,0,0,0,0,0,0,0,0,0,0,0,0,0,0,0,0,0,0,0,0,0,0,0,0,0,0,0,0,0,0,0,0,0,0,0,0,0,0,0,0,0,0,0,0,0,0,0,0,0,0,0,0,0,0,0,0,0,0,0,0,0,0,0,0,0,0,0,0,0,0,0,0,0,0,0,0,0,0,0,0,0,0,0,0,0,0,0,0,0,0,0,0,0,0,0,0,0,0,0,0,0,0,0,0,0,0,0,0,0,0,0,0,0,0,0,0,0,0,0,0,0,0,0,0,0,0,0,0,0,0,0,0,0,0,0,0,0,0,0,0,0,0,0,0,0,0,0,0,0,0,0,0,0,0,0,0,0,0,0,0,0,0,0,0,0,0,0,0,0,0,0,0,0,0,0,0,0,0,0,0,0,0,0,0,0,0,0,0,0,0,0,0,0,0,0,0,0,0,0,0,0,0,0,0,0,0,0,0,0,0,0,0,0,0,0,0,0,0,0,0,0,0,0,0,0,0,0,0,0,0,0,0,0,0,0,0,0,0,0,0,0,0,0,0,0,0,0,0,0,0,0,0,0,0,0,0,0,0,0,0,0,0,0,0,0,0,0,0,0,0,0,0,0,0,0,0,0,0,0,0,0,0,0,0,0,0,0,0,0,0,0,0,0,0,0,0,0,0,0,0,0,0,0,0,0,0,0,0,0,0,0,0,0,0,0,0,0,0,0,0,0,0,0,0,0,0,0,0,0,0,0,0,0,0,0,0,0,0,0,0,0,0,0,0,0,0,0,0,0,0,0,0,0,0,0,0,0,0,0,0,0,0,0,0,0,0,0,0,0,0,0,0,0,0,0,0,0,0,0,0,0,0,0,0,0,0,0,0,0,0,0,0,0,0,0,0,0,0,0,0,0,0,0,0,0,0,0,0,0,0,0,0,0,0,0,0,0,0,0,0,0,0,0,0,0,0,0,0,0,0,0,0,0,0,0,0,0,0,0,0,0,0,0,0,0,0,0,0,0,0,0,0,0,0,0,0,0,0,0,0,0,0,0,0,0,0,0,0,0,0,0,0,0,0,0,0,0,0,0,0,0,0,0,0,0,0,0,0,0,0,0,0,0,0,0,0,0,0,0,0,0,0,0,0,0,0,0,0,0,0,0,0,0,0,0,0,0,0,0,0,0,0,0,0,0,0,0,0,0,0,0,0,0,0,0,0,0,0,0,0,0,0,0,0,0,0,0,0,0,0,0,0,0,0,0,0,0,0,0,0,0,0,0,0,0,0,0,0,0,0,0,0,0,0,0,0,0,0,0,0,0,0,0,0,0,0,0,0,0,0,0,0,0,0,0,0,0,0,0,0,0,0,0,0,0,0,0,0,0,0,0,0,0,0,0,0,0,0,0,0,0,0,0,0,0,0,0,0,0,0,0,0,0,0,0,0,0,0,0,0,0,0,0,0,0,0,0,0,0,0,0,0,0,0,0,0,0,0,0,0,0,0,0,0,0,0,0,0,0,0,0,0,0,0,0,0,0,0,0,0,0,0,0,0,0,0,0,0,0,0,0,0,0,0,0,0,0,0,0,0,0,0,0,0,0,0,0,0,0,0,0,0,0,0,0,0,0,0,0,0,0,0,0,0,0,0,0,0,0,0,0,0,0,0,0,0,0,0,0,0,0,0,0,0,0,0,0,0,0,0,0,0,0,0,0,0,0,0,0,0,0,0,0,0,0,0,0,0,0,0,0,0,0,0,0,0,0,0,0,0,0,0,0,0,0,0,0,0,0,0,0,0,0,0,0,0,0,0,0,0,0,0,0,0,0,0,0,0,0,0,0,0,0,0,0,0,0,0,0,0,0,0,0,0,0,0,0,0,0,0,0,0,0,0,0,0,0,0,0,0,0,0,0,0,0,0,0,0,0,0,0,0,0,0,0,0,0,0,0,0,0,0,0,0,0,0,0,0,0,0,0,0,0,0,0,0,0,0,0,0,0,0,0,0,0,0,0,0,0,0,0,0,0,0,0,0,0,0,0,0,0,0,0,0,0,0,0,0,0,0,0,0,0,0,0,0,0,0,0,0,0,0,0,0,0,0,0,0,0,0,0,0,0,0,0,0,0,0,0,0,0,0,0,0,0,0,0,0,0,0,0,0,0,0,0,0,0,0,0,0,0,0,0,0,0,0,0,0,0,0,0,0,0,0,0,0,0,0,0,0,0,0,0,0,0,0,0,0,0,0,0,0,0,0,0,0,0,0,0,0,0,0,0,0,0,0,0,0,0,0,0,0,0,0,0,0,0,0,0,0,0,0,0,0,0,0,0,0,0,0,0,0,0,0,0,0,0,0,0,0,0,0,0,0,0,0,0,0,0,0,0,0,0,0,0,0,0,0,0,0,0,0,0,0,0,0,0,0,0,0,0,0,0,0,0,0,0,0,0,0,0,0,0,0,0,0,0,0,0,0,0,0,0,0,0,0,0,0,0,0,0,0,0,0,0,0,0,0,0,0,0,0,0,0,0,0,0,0,0,0,0,0,0,0,0,0,0,0,0,0,0,0,0,0,0,0,0,0,0,0,0,0,0,0,0,0,0,0,0,0,0,0,0,0,0,0,0,0,0,0,0,0,0,0,0,0,0,0,0,0,0,0,0,0,0,0,0,0,0,0,0,0,0,0,0,0,0,0,0,0,0,0,0,0,0,0,0,0,0,0,0,0,0,0,0,0,0,0,0,0,0,0,0,0,0,0,0,0,0,0,0,0,0,0,0,0,0,0,0,0,0,0,0,0,0,0,0,0,0,0,0,0,0,0,0,0,0,0,0,0,0,0,0,0,0,0,0,0,0,0,0,0,0,0,0,0,0,0,0,0,0,0,0,0,0,0,0,0,0,0,0,0,0,0,0,0,0,0,0,0,0,0,0,0,0,0,0,0,0,0,0,0,0,0,0,0,0,0,0,0,0,0,0,0,0,0,0,0,0,0,0,0,0,0,0,0,0,0,0,0,0,0,0,0,0,0,0,0,0,0,0,0,0,0,0,0,0,0,0,0,0,0,0,0,0,0,0,0,0,0,0,0,0,0,0,0,0,0,0,0,0,0,0,0,0,0,0,0,0,0,0,0,0,0,0,0,0,0,0,0,0,0,0,0,0,0,0,0,0,0,0,0,0,0,0,0,0,0,0,0,0,0,0,0,0,0,0,0,0,0,0,0,0,0,0,0,0,0,0,0,0,0,0,0,0,0,0,0,0,0,0,0,0,0,0,0,0,0,0,0,0,0,0,0,0,0,0,0,0,0,0,0,0,0,0,0,0,0,0,0,0,0,0,0,0,0,0,0,0,0,0,0,0,0,0,0,0,0,0,0,0,0,0,0,0,0,0,0,0,0,0,0,0,0,0,0,0,0,0,0,0,0,0,0,0,0,0,0,0,0,0,0,0,0,0,0,0,0,0,0,0,0,0,0,0,0,0,0,0,0,0,0,0,0,0,0,0,0,0,0,0,0,0,0,0,0,0,0,0,0,0,0,0,0,0,0,0,0,0,0,0,0,0,0,0,0,0,0,0,0,0,0,0,0,0,0,0,0,0,0,0,0,0,0,0,0,0,0,0,0,0,0,0,0,0,0,0,0,0,0,0,0,0,0,0,0,0,0,0,0,0,0,0,0,0,0,0,0,0,0,0,0,0,0,0,0,0,0,0,0,0,0,0,0,0,0,0,0,0,0,0,0,0,0,0,0,0,0,0,0,0,0,0,0,0,0,0,0,0,0,0,0,0,0,0,0,0,0,0,0,0,0,0,0,0,0,0,0,0,0,0,0,0,0,0,0,0,0,0,0,0,0,0,0,0,0,0,0,0,0,0,0,0,0,0,0,0,0,0,0,0,0,0,0,0,0,0,0,0,0,0,0,0,0,0,0,0,0,0,0,0,0,0,0,0,0,0,0,0,0,0,0,0,0,0,0,0,0,0,0,0,0,0,0,0,0,0,0,0,0,0,0,0,0,0,0,0,0,0,0,0,0,0,0,0,0,0,0,0,0,0,0,0,0,0,0,0,0,0,0,0,0,0,0,0,0,0,0,0,0,0,0,0,0,0,0,0,0,0,0,0,0,0,0,0,0,0,0,0,0,0,0,0,0,0,0,0,0,0,0,0,0,0,0,0,0,0,0,0,0,0,0,0,0,0,0,0,0,0,0,0,0,0,0,0,0,0,0,0,0,0,0,0,0,0,0,0,0,0,0,0,0,0,0,0,0,0,0,0,0,0,0,0,0,0,0,0,0,0,0,0,0,0,0,0,0,0,0,0,0,0,0,0,0,0,0,0,0,0,0,0,0,0,0,0,0,0,0,0,0,0,0,0,0,0,0,0,0,0,0,0,0,0,0,0,0,0,0,0,0,0,0,0,0,0,0,0,0,0,0,0,0,0,0,0,0,0,0,0,0,0,0,0,0,0,0,0,0,0,0,0,0,0,0,0,0,0,0,0,0,0,0,0,0,0,0,0,0,0,0,0,0,0,0,0,0,0,0,0,0,0,0,0,0,0,0,0,0,0,0,0,0,0,0,0,0,0,0,0,0,0,0,0,0,0,0,0,0,0,0,0,0,0,0,0,0,0,0,0,0,0,0,0,0,0,0,0,0,0,0,0,0,0,0,0,0,0,0,0,0,0,0,0,0,0,0,0,0,0,0,0,0,0,0,0,0,0,0,0,0,0,0,0,0,0,0,0,0,0,0,0,0,0,0,0,0,0,0,0,0,0,0,0,0,0,0,0,0,0,0,0,0,0,0,0,0,0,0,0,0,0,0,0,0,0,0,0,0,0,0,0,0,0,0,0,0,0,0,0,0,0,0,0,0,0,0,0,0,0,0,0,0,0,0,0,0,0,0,0,0,0,0,0,0,0,0,0,0,0,0,0,0,0,0,0,0,0,0,0,0,0,0,0,0,0,0,0,0,0,0,0,0,0,0,0,0,0,0,0,0,0,0,0,0,0,0,0,0,0,0,0,0,0,0,0,0,0,0,0,0,0,0,0,0,0,0,0,0,0,0,0,0,0,0,0,0,0,0,0,0,0,0,0,0,0,0,0,0,0,0,0,0,0,0,0,0,0,0,0,0,0,0,0,0,0,0,0,0,0,0,0,0,0,0,0,0,0,0,0,0,0,0,0,0,0,0,0,0,0,0,0,0,0,0,0,0,0,0,0,0,0,0,0,0,0,0,0,0,0,0,0,0,0,0,0,0,0,0,0,0,0,0,0,0,0,0,0,0,0,0,0,0,0,0,0,0,0,0,0,0,0,0,0,0,0,0,0,0,0,0,0,0,0,0,0,0,0,0,0,0,0,0,0,0,0,0,0,0,0,0,0,0,0,0,0,0,0,0,0,0,0,0,0,0,0,0,0,0,0,0,0,0,0,0,0,0,0,0,0,0,0,0,0,0,0,0,0,0,0,0,0,0,0,0,0,0,0,0,0,0,0,0,0,0,0,0,0,0,0,0,0,0,0,0,0,0,0,0,0,0,0,0,0,0,0,0,0,0,0,0,0,0,0,0,0,0,0,0,0,0,0,0,0,0,0,0,0,0,0,0,0,0,0,0,0,0,0,0,0,0,0,0,0,0,0,0,0,0,0,0,0,0,0,0,0,0,0,0,0,0,0,0,0,0,0,0,0,0,0,0,0,0,0,0,0,0,0,0,0,0,0,0,0,0,0,0,0,0,0,0,0,0,0,0,0,0,0,0,0,0,0,0,0,0,0,0,0,0,0,0,0,0,0,0,0,0,0,0,0,0,0,0,0,0,0,0,0,0,0,0,0,0,0,0,0,0,0,0,0,0,0,0,0,0,0,0,0,0,0,0,0,0,0,0,0,0,0,0,0,0,0,0,0,0,0,0,0,0,0,0,0,0,0,0,0,0,0,0,0,0,0,0,0,0,0,0,0,0,0,0,0,0,0,0,0,0,0,0,0,0,0,0,0,0,0,0,0,0,0,0,0,0,0,0,0,0,0,0,0,0,0,0,0,0,0,0,0,0,0,0,0,0,0,0,0,0,0,0,0,0,0,0,0,0,0,0,0,0,0,0,0,0,0,0,0,0,0,0,0,0,0,0,0,0,0,0,0,0,0,0,0,0,0,0,0,0,0,0,0,0,0,0,0,0,0,0,0,0,0,0,0,0,0,0,0,0,0,0,0,0,0,0,0,0,0,0,0,0,0,0,0,0,0,0,0,0,0,0,0,0,0,0,0,0,0,0,0,0,0,0,0,0,0,0,0,0,0,0,0,0,0,0,0,0,0,0,0,0,0,0,0,0,0,0,0,0,0,0,0,0,0,0,0,0,0,0,0,0,0,0,0,0,0,0,0,0,0,0,0,0,0,0,0,0,0,0,0,0,0,0,0,0,0,0,0,0,0,0,0,0,0,0,0,0,0,0,0,0,0,0,0,0,0,0,0,0,0,0,0,0,0,0,0,0,0,0,0,0,0,0,0,0,0,0,0,0,0,0,0,0,0,0,0,0,0,0,0,0,0,0,0,0,0,0,0,0,0,0,0,0,0,0,0,0,0,0,0,0,0,0,0,0,0,0,0,0,0,0,0,0,0,0,0,0,0,0,0,0,0,0,0,0,0,0,0,0,0,0,0,0,0,0,0,0,0,0,0,0,0,0,0,0,0,0,0,0,0,0,0,0,0,0,0,0,0,0,0,0,0,0,0,0,0,0,0,0,0,0,0,0,0,0,0,0,0,0,0,0,0,0,0,0,0,0,0,0,0,0,0,0,0,0,0,0,0,0,0,0,0,0,0,0,0,0,0,0,0,0,0,0,0,0,0,0,0,0,0,0,0,0,0,0,0,0,0,0,0,0,0,0,0,0,0,0,0,0,0,0,0,0,0,0,0,0,0,0,0,0,0,0,0,0,0,0,0,0,0,0,0,0,0,0,0,0,0,0,0,0,0,0,0,0,0,0,0,0,0,0,0,0,0,0,0,0,0,0,0,0,0,0,0,0,0,0,0,0,0,0,0,0,0,0,0,0,0,0,0,0,0,0,0,0,0,0,0,0,0,0,0,0,0,0,0,0,0,0,0,0,0,0,0,0,0,0,0,0,0,0,0,0,0,0,0,0,0,0,0,0,0,0,0,0,0,0,0,0,0,0,0,0,0,0,0,0,0,0,0,0,0,0,0,0,0,0,0,0,0,0,0,0,0,0,0,0,0,0,0,0,0,0,0,0,0,0,0,0,0,0,0,0,0,0,0,0,0,0,0,0,0,0,0,0,0,0,0,0,0,0,0,0,0,0,0,0,0,0,0,0,0,0,0,0,0,0,0,0,0,0,0,0,0,0,0,0,0,0,0,0,0,0,0,0,0,0,0,0,0,0,0,0,0,0,0,0,0,0,0,0,0,0,0,0,0,0,0,0,0,0,0,0,0,0,0,0,0,0,0,0,0,0,0,0,0,0,0,0,0,0,0,0,0,0,0,0,0,0,0,0,0,0,0,0,0,0,0,0,0,0,0,0,0,0,0,0,0,0,0,0,0,0,0,0,0,0,0,0,0,0,0,0,0,0,0,0,0,0,0,0,0,0,0,0,0,0,0,0,0,0,0,0,0,0,0,0,0,0,0,0,0,0,0,0,0,0,0,0,0,0,0,0,0,0,0,0,0,0,0,0,0,0,0,0,0,0,0,0,0,0,0,0,0,0,0,0,0,0,0,0,0,0,0,0,0,0,0,0,0,0,0,0,0,0,0,0,0,0,0,0,0,0,0,0,0,0,0,0,0,0,0,0,0,0,0,0,0,0,0,0,0,0,0,0,0,0,0,0,0,0,0,0,0,0,0,0,0,0,0,0,0,0,0,0,0,0,0,0,0,0,0,0,0,0,0,0,0,0,0,0,0,0,0,0,0,0,0,0,0,0,0,0,0,0,0,0,0,0,0,0,0,0,0,0,0,0,0,0,0,0,0,0,0,0,0,0,0,0,0,0,0,0,0,0,0,0,0,0,0,0,0,0,0,0,0,0,0,0,0,0,0,0,0,0,0,0,0,0,0,0,0,0,0,0,0,0,0,0,0,0,0,0,0,0,0,0,0,0,0,0,0,0,0,0,0,0,0,0,0,0,0,0,0,0,0,0,0,0,0,0,0,0,0,0,0,0,0,0,0,0,0,0,0,0,0,0,0,0,0,0,0,0,0,0,0,0,0,0,0,0,0,0,0,0,0,0,0,0,0,0,0,0,0,0,0,0,0,0,0,0,0,0,0,0,0,0,0,0,0,0,0,0,0,0,0,0,0,0,0,0,0,0,0,0,0,0,0,0,0,0,0,0,0,0,0,0,0,0,0,0,0,0,0,0,0,0,0,0,0,0,0,0,0,0,0,0,0,0,0,0,0,0,0,0,0,0,0,0,0,0,0,0,0,0,0,0,0,0,0,0,0,0,0,0,0,0,0,0,0,0,0,0,0,0,0,0,0,0,0,0,0,0,0,0,0,0,0,0,0,0,0,0,0,0,0,0,0,0,0,0,0,0,0,0,0,0,0,0,0,0,0,0,0,0,0,0,0,0,0,0,0,0,0,0,0,0,0,0,0,0,0,0,0,0,0,0,0,0,0,0,0,0,0,0,0,0,0,0,0,0,0,0,0,0,0,0,0,0,0,0,0,0,0,0,0,0,0,0,0,0,0,0,0,0,0,0,0,0,0,0,0,0,0,0,0,0,0,0,0,0,0,0,0,0,0,0,0,0,0,0,0,0,0,0,0,0,0,0,0,0,0,0,0,0,0,0,0,0,0,0,0,0,0,0,0,0,0,0,0,0,0,0,0,0,0,0,0,0,0,0,0,0,0,0,0,0,0,0,0,0,0,0,0,0,0,0,0,0,0,0,0,0,0,0,0,0,0,0,0,0,0,0,0,0,0,0,0,0,0,0,0,0,0,0,0,0,0,0,0,0,0,0,0,0,0,0,0,0,0,0,0,0,0,0,0,0,0,0,0,0,0,0,0,0,0,0,0,0,0,0,0,0,0,0,0,0,0,0,0,0,0,0,0,0,0,0,0,0,0,0,0,0,0,0,0,0,0,0,0,0,0,0,0,0,0,0,0,0,0,0,0,0,0,0,0,0,0,0,0,0,0,0,0,0,0,0,0,0,0,0,0,0,0,0,0,0,0,0,0,0,0,0,0,0,0,0,0,0,0,0,0,0,0,0,0,0,0,0,0,0,0,0,0,0,0,0,0,0,0,0,0,0,0,0,0,0,0,0,0,0,0,0,0,0,0,0,0,0,0,0,0,0,0,0,0,0,0,0,0,0,0,0,0,0,0,0,0,0,0,0,0,0,0,0,0,0,0,0,0,0,0,0,0,0,0,0,0,0,0,0,0,0,0,0,0,0,0,0,0,0,0,0,0,0,0,0,0,0,0,0,0,0,0,0,0,0,0,0,0,0,0,0,0,0,0,0,0,0,0,0,0,0,0,0,0,0,0,0,0,0,0,0,0,0,0,0,0,0,0,0,0,0,0,0,0,0,0,0,0,0,0,0,0,0,0,0,0,0,0,0,0,0,0,0,0,0,0,0,0,0,0,0,0,0,0,0,0,0,0,0,0,0,0,0,0,0,0,0,0,0,0,0,0,0,0,0,0,0,0,0,0,0,0,0,0,0,0,0,0,0,0,0,0,0,0,0,0,0,0,0,0,0,0,0,0,0,0,0,0,0,0,0,0,0,0,0,0,0,0,0,0,0,0,0,0,0,0,0,0,0,0,0,0,0,0,0,0,0,0,0,0,0,0,0,0,0,0,0,0,0,0,0,0,0,0,0,0,0,0,0,0,0,0,0,0,0,0,0,0,0,0,0,0,0,0,0,0,0,0,0,0,0,0,0,0,0,0,0,0,0,0,0,0,0,0,0,0,0,0,0,0,0,0,0,0,0,0,0,0,0,0,0,0,0,0,0,0,0,0,0,0,0,0,0,0,0,0,0,0,0,0,0,0,0,0,0,0,0,0,0,0,0,0,0,0,0,0,0,0,0,0,0,0,0,0,0,0,0,0,0,0,0,0,0,0,0,0,0,0,0,0,0,0,0,0,0,0,0,0,0,0,0,0,0,0,0,0,0,0,0,0,0,0,0,0,0,0,0,0,0,0,0,0,0,0,0,0,0,0,0,0,0,0,0,0,0,0,0,0,0,0,0,0,0,0,0,0,0,0,0,0,0,0,0,0,0,0,0,0,0,0,0,0,0,0,0,0,0,0,0,0,0,0,0,0,0,0,0,0,0,0,0,0,0,0,0,0,0,0,0,0,0,0,0,0,0,0,0,0,0,0,0,0,0,0,0,0,0,0,0,0,0,0,0,0,0,0,0,0,0,0,0,0,0,0,0,0,0,0,0,0,0,0,0,0,0,0,0,0,0,0,0,0,0,0,0,0,0,0,0,0,0,0,0,0,0,0,0,0,0,0,0,0,0,0,0,0,0,0,0,0,0,0,0,0,0,0,0,0,0,0,0,0,0,0,0,0,0,0,0,0,0,0,0,0,0,0,0,0,0,0,0,0,0,0,0,0,0,0,0,0,0,0,0,0,0,0,0,0,0,0,0,0,0,0,0,0,0,0,0,0,0,0,0,0,0,0,0,0,0,0,0,0,0,0,0,0,0,0,0,0,0,0,0,0,0,0,0,0,0,0,0,0,0,0,0,0,0,0,0,0,0,0,0,0,0,0,0,0,0,0,0,0,0,0,0,0,0,0,0,0,0,0,0,0,0,0,0,0,0,0,0,0,0,0,0,0,0,0,0,0,0,0,0,0,0,0,0,0,0,0,0,0,0,0,0,0,0,0,0,0,0,0,0,0,0,0,0,0,0,0,0,0,0,0,0,0,0,0,0,0,0,0,0,0,0,0,0,0,0,0,0,0,0,0,0,0,0,0,0,0,0,0,0,0,0,0,0,0,0,0,0,0,0,0,0,0,0,0,0,0,0,0,0,0,0,0,0,0,0,0,0,0,0,0,0,0,0,0,0,0,0,0,0,0,0,0,0,0,0,0,0,0,0,0,0,0,0,0,0,0,0,0,0,0,0,0,0,0,0,0,0,0,0,0,0,0,0,0,0,0,0,0,0,0,0,0,0,0,0,0,0,0,0,0,0,0,0,0,0,0,0,0,0,0,0,0,0,0,0,0,0,0,0,0,0,0,1547,1568,1570,1727,2147485279,2147485375,1679,2147485231,1631,1583,2147485279,1581,0,0,0,0,0,0,0,0,0,0,0,0,0,0,0,0,0,0,0,0,0,0,0,0,0,0,0,0,0,0,0,0,0,0,0,0,0,0,0,0,0,0,0,0,0,0,0,0,0,0,0,0,0,0,0,0,0,0,0,0,0,0,0,0,0,0,0,0,0,0,0,0,0,0,0,0,0,0,0,0,0,0,0,0,0,0,0,0,0,0,0,0,0,0,0,0,0,0,0,0,0,0,0,0,0,0,0,0,0,0,0,0,0,0,0,0,0,0,0,0,0,0,0,0,0,0,0,0,0,0,0,0,1541,1573,1578,2147485375,1583,2147485327,1727,1583,1727,1581,1573,1571,0,0,0,0,0,0,0,0,0,0,0,0,0,0,0,0,0,0,0,0,0,0,0,0,0,0,0,0,0,0,0,0,0,0,0,0,0,0,0,0,0,0,0,0,0,0,0,0,0,0,0,0,0,0,0,0,0,0,0,0,0,0,0,0,0,0,0,0,0,0,0,0,0,0,0,0,0,0,0,0,0,0,0,0,0,0,0,0,0,0,0,0,0,0,0,0,0,0,0,0,0,0,0,0,0,0,0,0,0,0,0,0,0,0,0,0,0,0,0,0,0,0,0,0,0,0,0,0,0,0,0,0,0,0,1541,1573,1573,1573,1573,1573,1573,1571,0,0,0,0,0,0,0,0,0,0,0,0,0,0,0,0,0,0,0,0,0,0,0,0,0,0,0,0,0,0,0,0,0,0,0,0,0,0,0,0,0,0,0,0,0,0,0,0,0,0,0,0,0,0,0,0,0,0,0,0,0,0,0,0,0,0,0,0,0,0,0,0,0,0,0,0,0,0,0,0,0,0,0,0,0,0,0,0,0,0,0,0,0,0,0,0,0,0,0,0,0,0,0,0,0,0,0,0,0,0,0,0,0,0,0,0,0,0,0,0,0,0,0,0,0,0,0,0,0,0,0,0,0,0,0,0,0,0,0,0,0,0,0,0,0,0,0,0,0,0,0,0,0,0,0,0,0,0,0,0,0,0,0,0,0,0,0,0,0,0,0,0,0,0,0,0,0,0,0,0,0,0,0,0,0,0,0,0,0,0,0,0,0,0,0,0,0,0,0,0,0,0,0,0,0,0,0,0,0,0,0,0,0,0,0,0,0,0,0,0,0,0,0,0,0,0,0,0,0,0,0,0,0,0,0,0,0,0,0,0,0,0,0,0,0,0,0,0,0,0,0,0,0,0,0,0,0,0,0,0,0,0,0,0,0,0,0,0,0,0,0,0,0,0,0,0,0,0,0,0,0,0,0,0,0,0,0,0,0,0,0,0,0,0,0,0,0,0,0,0,0,0,0,0,0,0,0,0,0,0,0,0,0,0,0,0,0,0,0,0,0,0,0,0,0,0,0,0,0,0,0,0,0,0,0,0,0,0,0,0,0,0,0,0,0,0,0,0,0,0,0,0,0,0,0,0,0,0,0,0,0,0,0,0,0,0,0,0,0,0,0,0,0,0,0,0,0,0,0,0,0,0,0,0,0,0,0,0,0,0,0,0,0,0,0,0,0,0,0,0,0,0,0,0,0,0,0,0,0,0,0,0,0,0,0,0,0,0,0,0,0,0,0,0,0,0,0,0,0,0,0,0,0,0,0,0,0,0,0,0,0,0,0,0,0,0,0,0,0,0,0,0,0,0,0,0,0,0,0,0,0,0,0,0,0,0,0,0,0,0,0,0,0,0,0,0,0,0,0,0,0,0,0,0,0,0,0,0,0,0,0,0,0,0,0,0,0,0,0,0,0,0,0,0,0,0,0,0,0,0,0,0,0,0,0,0,0,0,0,0,0,0,0,0,0,0,0,0,0,0,0,0,0,0,0,0,0,0,0,0,0,0,0,0,0,0,0,0,0,0,0,0,0,0,0,0,0,0,0,0,0,0,0,0,0,0,0,0,0,0,0,0,0,0,0,0,0,0,0,0,0,0,0,0,0,0,0,0,0,0,0,0,0,0,0,0,0,0,0,0,0,0,0,0,0,0,0,0,0,0,0,0,0,0,0,0,0,0,0,0,0,0,0,0,0,0,0,0,0,0,0,0,0,0,0,0,0,0,0,0,0,0,0,0,0,0,0,0,0,0,0,0,0,0,0,0,0,0,0,0,0,0,0,0,0,0,0,0,0,0,0,0,0,0,0,0,0,0,0,0,0,0,0,0,0,0,0,0,0,0,0,0,0,0,0,0,0,0,0,0,0,0,0,0,0,0,0,0,0,0,0,0,0,0,0,0,0,0,0,0,0,0,0,0,0,0,0,0,0,0,0,0,0,0,0,0,0,0,0,0,0,0,0,0,0,0,0,0,0,0,0,0,0,0,0,0,0,0,0,0,0,0,0,0,0,0,0,0,0,0,0,0,0,0,0,0,0,0,0,0,0,0,0,0,0,0,0,0,0,0,0,0,0,0,0,0,0,0,0,0,0,0,0,0,0,0,0,0,0,0,0,0,0,0,0,0,0,0,0,0,0,0,0,0,0,0,0,0,0,0,0,0,0,0,0,0,0,0,0,0,0,0,0,0,0,0,0,0,0,0,0,0,0,0,0,0,0,0,0,0,0,0,0,0,0,0,0,1547,1568,1568,1568,1568,1563,0,0,0,0,0,0,0,0,0,0,0,0,0,0,0,0,0,0,0,0,0,0,0,0,0,0,0,0,0,0,0,0,0,0,0,0,0,0,0,0,0,0,0,0,0,0,0,0,0,0,0,0,0,0,0,0,0,0,0,0,0,0,0,0,0,0,0,0,0,0,0,0,0,0,0,0,0,0,0,0,0,0,0,0,0,0,0,0,0,0,0,0,0,0,0,0,0,0,0,0,0,0,0,0,0,0,0,0,0,0,0,0,0,0,0,0,0,0,0,0,0,0,0,0,0,0,0,0,0,0,0,0,0,0,0,0,0,1568,1570,1631,2147485279,2147485327,1727,1582,1568,1563,0,0,0,0,0,0,0,0,0,0,0,0,0,0,0,0,0,0,0,0,0,0,0,0,0,0,0,0,0,0,0,0,0,0,0,0,0,0,0,0,0,0,0,0,0,0,0,0,0,0,0,0,0,0,0,0,0,0,0,0,0,0,0,0,0,0,0,0,0,0,0,0,0,0,0,0,0,0,0,0,0,0,0,0,0,0,0,0,0,0,0,0,0,0,0,0,0,0,0,0,0,0,0,0,0,0,0,0,0,0,0,0,0,0,0,0,0,0,0,0,0,0,0,0,0,0,0,0,0,0,0,0,0,0,1541,1573,1578,2147485231,1583,2147485375,1679,1581,1573,1571,0,0,0,0,0,0,0,0,0,0,0,0,0,0,0,0,0,0,0,0,0,0,0,0,0,0,0,0,0,0,0,0,0,0,0,0,0,0,0,0,0,0,0,0,0,0,0,0,0,0,0,0,0,0,0,0,0,0,0,0,0,0,0,0,0,0,0,0,0,0,0,0,0,0,0,0,0,0,0,0,0,0,0,0,0,0,0,0,0,0,0,0,0,0,0,0,0,0,0,0,0,0,0,0,0,0,0,0,0,0,0,0,0,0,0,0,0,0,0,0,0,0,0,0,0,0,0,0,0,0,0,0,0,0,0,0,1541,1573,1573,1573,1573,1571,0,0,0,0,0,0,0,0,0,0,0,0,0,0,0,0,0,0,0,0,0,0,0,0,0,0,0,0,0,0,0,0,0,0,0,0,0,0,0,0,0,0,0,0,0,0,0,0,0,0,0,0,0,0,0,0,0,0,0,0,0,0,0,0,0,0,0,0,0,0,0,0,0,0,0,0,0,0,0,0,0,0,0,0,0,0,0,0,0,0,0,0,0,0,0,0,0,0,0,0,0,0,0,0,0,0,0,0,0,0,0,0,0,0,0,0,0,0,0,0,0,0,0,0,0,0,0,0,0,0,0,0,0,0,0,0,0,0,0,0,0,0,0,0,0,0,0,0,0,0,0,0,0,0,0,0,0,0,0,0,0,0,0,0,0,0,0,0,0,0,0,0,0,0,0,0,0,0,0,0,0,0,0,0,0,0,0,0,0,0,0,0,0,0,0,0,0,0,0,0,0,0,0,0,0,0,0,0,0,0,0,0,0,0,0,0,0,0,0,0,0,0,0,0,0,0,0,0,0,0,0,0,0,0,0,0,0,0,0,0,0,0,0,0,0,0,0,0,0,0,0,0,0,0,0,0,0,0,0,0,0,0,0,0,0,0,0,0,0,0,0,0,0,0,0,0,0,0,0,0,0,0,0,0,0,0,0,0,0,0,0,0,0,0,0,0,0,0,0,0,0,0,0,0,0,0,0,0,0,0,0,0,0,0,0,0,0,0,0,0,0,0,0,0,0,0,0,0,0,0,0,0,0,0,0,0,0,0,0,0,0,0,0,0,0,0,0,0,0,0,0,0,0,0,0,0,0,0,0,0,0,0,0,0,0,0,0,0,0,0,0,0,0,0,0,0,0,0,0,0,0,0,0,0,0,0,0,0,0,0,0,0,0,0,0,0,0,0,0,0,0,0,0,0,0,0,0,0,0,0,0,0,0,0,0,0,0,0,0,0,0,0,0,0,0,0,0,0,0,0,0,0,0,0,0,0,0,0,0,0,0,0,0,0,0,0,0,0,0,0,0,0,0,0,0,0,0,0,0,0,0,0,0,0,0,0,0,0,0,0,0,0,0,0,0,0,0,0,0,0,0,0,0,0,0,0,0,0,0,0,0,0,0,0,0,0,0,0,0,0,0,0,0,0,0,0,0,0,0,0,0,0,0,0,0,0,0,0,0,0,0,0,0,0,0,0,0,0,0,0,0,0,0,0,0,0,0,0,0,0,0,0,0,0,0,0,0,0,0,0,0,0,0,0,0,0,0,0,0,0,0,0,0,0,0,0,0,0,0,0,0,0,0,0,0,0,0,0,0,0,0,0,0,0,0,0,0,0,0,0,0,0,0,0,0,0,0,0,0,0,0,0,0,0,0,0,0,0,0,0,0,0,0,0,0,0,0,0,0,0,0,0,0,0,0,0,0,0,0,0,0,0,0,0,0,0,0,0,0,0,0,0,0,0,0,0,0,0,0,0,0,0,0,0,0,0,0,0,0,0,0,0,0,0,0,0,0,0,0,0,0,0,0,0,0,0,0,0,0,0,0,0,0,0,0,0,0,0,0,0,0,0,0,0,0,0,0,0,0,0,0,0,0,0,0,0,0,0,0,0,0,0,0,0,0,0,0,0,0,0,0,0,0,0,0,0,0,0,0,0,0,0,0,0,0,0,0,0,0,0,0,0,0,0,0,0,0,0,0,0,0,0,0,0,0,0,0,0,0,0,0,0,0,0,0,0,0,0,0,0,0,0,0,0,0,0,0,0,0,0,0,0,0,0,0,0,0,0,0,0,0,0,0,0,0,0,0,0,0,0,0,0,0,0,0,0,0,0,0,0,0,0,0,0,0,0,0,0,0,0,0,0,0,0,0,0,0,0,0,0,0,0,0,0,0,0,0,0,0,0,0,0,0,0,0,0,0,0,0,0,0,0,0,0,0,0,0,0,0,0,0,0,0,0,0,0,0,0,0,0,0,0,0,0,0,0,0,0,0,0,0,0,0,0,0,0,0,0,0,0,0,0,0,0,0,0,0,0,0,0,0,0,0,0,0,0,0,0,0,0,0,0,0,0,0,0,0,0,0,0,0,0,0,0,0,0,0,0,0,0,0,0,0,0,0,0,0,0,0,0,0,0,0,0,0,0,0,0,0,0,0,0,0,0,0,0,0,0,0,0,0,0,0,0,0,0,0,0,0,0,0,0,0,0,0,0,0,0,0,0,0,0,0,0,0,0,0,0,0,0,0,0,0,0,0,0,0,0,0,0,0,0,0,0,0,0,0,0,0,0,0,0,0,0,0,0,0,0,0,0,0,0,0,0,0,0,0,0,0,0,0,0,0,0,0,0,0,0,0,0,0,0,0,0,0,0,0,0,0,0,0,0,0,0,0,0,0,0,0,0,0,0,0,0,0,0,0,0,0,0,0,0,0,0,0,0,0,0,0,0,0,0,0,0,0,0,0,0,0,0,0,0,0,0,0,0,0,0,0,0,0,0,0,0,0,0,0,0,0,0,0,0,0,0,0,0,0,0,0,0,0,0,0,0,0,0,0,0,0,0,0,0,0,0,0,0,0,0,0,0,0,0,0,0,0,0,0,0,0,0,0,0,0,0,0,0,0,0,0,0,0,0,0,0,0,0,0,0,0,0,0,0,0,0,0,0,0,0,0,0,0,0,0,0,0,0,0,0,0,0,0,0,0,0,0,0,0,0,0,0,0,0,0,0,0,0,0,0,0,0,0,0,0,0,0,0,0,0,0,0,0,0,0,0,0,0,0,0,0,0,0,0,0,0,0,0,0,0,0,0,0,0,0,0,0,0,0,0,0,0,0,0,0,0,0,0,0,0,0,0,0,0,0,0,0,0,0,0,0,0,0,0,0,0,0,0,0,0,0,0,0,0,0,0,0,0,0,0,0,0,0,0,0,0,0,0,0,0,0,0,0,0,0,0,0,0,0,0,0,0,0,0,0,0,0,0,0,0,0,0,0,0,0,0,0,0,0,0,0,0,0,0,0,0,0,0,0,0,0,0,0,0,0,0,0,0,0,4091,4112,4112,4112,0,0,0,0,0,0,0,0,0,0,0,0,0,0,0,0,0,0,0,0,0,0,0,0,0,0,0,0,0,0,0,0,0,0,0,0,0,0,0,0,0,0,0,0,0,0,0,0,0,0,0,0,0,0,0,0,0,0,0,0,0,0,0,0,0,0,0,0,0,0,0,0,0,0,0,0,0,0,0,0,0,0,0,0,0,0,0,0,0,0,0,0,0,0,0,0,0,0,0,0,0,0,0,0,0,0,0,0,0,0,0,0,0,0,0,0,0,0,0,0,0,0,0,0,0,0,0,0,0,0,0,0,0,0,0,0,0,0,4091,4112,4114,2147485327,2147485375,1679,1727,0,0,0,0,0,0,0,0,0,0,0,0,0,0,0,0,0,0,0,0,0,0,0,0,0,0,0,0,0,0,0,0,0,0,0,0,0,0,0,0,0,0,0,0,0,0,0,0,0,0,0,0,0,0,0,0,0,0,0,0,0,0,0,0,0,0,0,0,0,0,0,0,0,0,0,0,0,0,0,0,0,0,0,0,0,0,0,0,0,0,0,0,0,0,0,0,0,0,0,0,0,0,0,0,0,0,0,0,0,0,0,0,0,0,0,0,0,0,0,0,0,0,0,0,0,0,0,0,0,0,0,0,0,0,0,0,4091,4114,1679,2147485279,2147485279,1727,1679,2147485231,1727,1631,0,0,0,0,0,0,0,0,0,0,0,0,0,0,0,0,0,0,0,0,0,0,0,0,0,0,0,0,0,0,0,0,0,0,0,0,0,0,0,0,0,0,0,0,0,0,0,0,0,0,0,0,0,0,0,0,0,0,0,0,0,0,0,0,0,0,0,0,0,0,0,0,0,0,0,0,0,0,0,0,0,0,0,0,0,0,0,0,0,0,0,0,0,0,0,0,0,0,0,0,0,0,0,0,0,0,0,0,0,0,0,0,0,0,0,0,0,0,0,0,0,0,0,0,0,0,0,0,0,0,0,0,0,1547,1570,2147485327,2147485327,1727,2147485327,1679,2147485327,2147485375,2147485231,1631,2147485231,2147485279,2147485231,1583,1579,0,0,0,0,0,0,0,0,0,0,0,0,0,0,0,0,0,0,0,0,0,0,0,0,0,0,0,0,0,0,0,0,0,0,0,0,0,0,0,0,0,0,0,0,0,0,0,0,0,0,0,0,0,0,0,0,0,0,0,0,0,0,0,0,0,0,0,0,0,0,0,0,0,0,0,0,0,0,0,0,0,0,0,0,0,0,0,0,0,0,0,0,0,0,0,0,0,0,0,0,0,0,0,0,0,0,1547,1568,4059,0,0,0,0,0,0,0,0,0,0,0,0,0,0,0,0,0,0,0,1541,1578,1679,1583,2147485375,2147485327,2147485231,1631,2147485279,2147485231,2147485231,2147485231,2147485231,1583,1581,1571,0,0,0,0,0,0,0,0,0,0,0,0,0,0,0,0,0,0,0,0,0,0,0,0,0,0,0,0,0,0,0,0,0,0,0,0,0,0,0,0,0,0,0,0,0,0,0,0,0,0,0,0,0,0,0,0,0,0,0,0,0,0,0,0,0,0,0,0,0,0,0,0,0,0,0,0,0,0,0,0,0,0,0,0,0,0,0,0,0,0,0,0,0,0,0,0,0,0,0,0,0,0,0,0,0,1547,1570,1727,4078,4064,4064,4059,0,0,0,0,0,0,0,0,0,0,0,0,0,0,0,0,0,1541,1578,2147485327,1679,1583,1631,1583,2147485279,1727,2147485231,2147485279,1631,1581,1571,0,0,0,0,0,0,0,0,0,0,0,0,0,0,0,0,0,0,0,0,0,0,0,0,0,0,0,0,0,0,0,0,0,0,0,0,0,0,0,0,0,0,0,0,0,0,0,0,0,0,0,0,0,0,0,0,0,0,0,0,0,0,0,0,0,0,0,0,0,0,0,0,0,0,0,0,0,0,0,0,0,0,0,0,0,1547,1568,1568,1568,1568,1568,1568,1563,0,0,0,0,0,0,0,0,0,0,0,0,1547,1570,1679,1631,2147485327,2147485279,1727,4078,4064,4064,4064,4064,4064,4064,4064,1563,0,0,0,0,0,0,0,0,0,0,1541,1573,1578,1679,2147485231,2147485279,2147485279,1631,1631,1581,1573,1571,0,0,0,0,0,0,0,0,0,0,0,0,0,0,0,0,0,0,0,0,0,0,0,0,0,0,0,0,0,0,0,0,0,0,0,0,0,0,0,0,0,0,0,0,0,0,0,0,0,0,0,0,0,0,0,0,0,0,0,0,0,0,0,0,0,0,0,0,0,0,0,0,0,0,0,0,0,0,0,0,0,0,0,1547,1568,1568,1570,1727,1727,2147485327,2147485231,2147485279,1727,1582,1568,1568,1563,0,0,0,0,0,0,0,0,0,1541,1578,2147485279,1631,2147485279,1631,2147485327,2147485231,1727,1631,1727,2147485327,1727,2147485327,1581,1571,0,0,0,0,0,0,0,0,0,0,0,0,1541,1573,1573,1573,1573,1573,1573,1571,0,0,0,0,0,0,0,0,0,0,0,0,0,0,0,0,0,0,0,0,0,0,0,0,0,0,0,0,0,0,0,0,0,0,0,0,0,0,0,0,0,0,0,0,0,0,0,0,0,0,0,0,0,0,0,0,0,0,0,0,0,0,0,0,0,0,0,0,0,0,0,0,0,0,0,0,0,0,0,0,0,0,0,0,1547,1570,2147485375,1679,1727,1583,2147485375,2147485327,2147485327,2147485231,2147485279,2147485231,2147485231,1679,1582,1563,0,0,0,0,0,0,0,0,0,1541,1578,1679,1679,2147485231,1727,1583,1583,2147485231,2147485375,2147485375,1679,1581,1571,0,0,0,0,0,0,0,0,0,0,0,0,0,0,0,0,0,0,0,0,0,0,0,0,0,0,0,0,0,0,0,0,0,0,0,0,0,0,0,0,0,0,0,0,0,0,0,0,0,0,0,0,0,0,0,0,0,0,0,0,0,0,0,0,0,0,0,0,0,0,0,0,0,0,0,0,0,0,0,0,0,0,0,0,0,0,0,0,0,0,0,0,0,0,0,0,0,0,0,0,0,0,0,0,1547,1570,2147485231,1679,1679,2147485231,1727,2147485327,1679,2147485231,1727,1727,2147485231,1679,1631,1631,1582,1563,0,0,0,0,0,0,0,0,0,1541,1573,1578,1679,1631,2147485231,2147485327,1727,2147485327,1581,1573,1571,0,0,0,0,0,0,0,0,0,0,0,0,0,0,0,0,0,0,0,0,0,0,0,0,0,0,0,0,0,0,0,0,0,0,0,0,0,0,0,0,0,0,0,0,0,0,0,0,0,0,0,0,0,0,0,0,0,0,0,0,0,0,0,0,0,0,0,0,0,0,0,0,0,0,0,0,0,0,0,0,0,0,0,0,0,0,0,0,0,0,0,0,0,0,0,0,0,0,0,0,0,0,0,0,0,1549,1727,1631,2147485327,2147485327,2147485231,1727,1631,1679,2147485327,1631,1679,2147485327,1583,1727,2147485231,1679,1579,0,0,0,0,0,0,0,0,0,0,0,1549,2147485231,1631,1581,1573,1573,1573,1571,0,0,0,0,0,0,0,0,0,0,0,0,0,0,0,0,0,0,0,0,0,0,0,0,0,0,0,0,0,0,0,0,0,0,0,0,0,0,0,0,0,0,0,0,0,0,0,0,0,0,0,0,0,0,0,0,0,0,0,0,0,0,0,0,0,0,0,0,0,0,0,0,0,0,0,0,0,0,0,0,0,0,0,0,0,0,0,0,0,0,0,0,0,0,0,0,0,0,0,0,0,0,0,0,0,0,0,0,1573,1578,1679,2147485375,2147485231,1679,2147485279,1727,2147485279,2147485327,1631,1727,2147485375,2147485279,2147485327,0,0,0,0,0,0,0,0,0,0,0,0,0,0,0,0,0,0,0,0,0,0,0,0,0,0,0,0,0,0,0,0,0,0,0,0,0,0,0,0,0,0,0,0,0,0,0,0,0,0,0,0,0,0,0,0,0,0,0,0,0,0,0,0,0,0,0,0,0,0,0,0,0,0,0,0,0,0,0,0,0,0,0,0,0,0,0,0,0,0,0,0,0,0,0,0,0,0,0,0,0,0,0,0,0,0,0,0,0,0,0,0,0,0,0,0,0,0,0,0,0,0,0,0,0,0,0,0,0,0,1541,1573,1573,1578,2147485327,2147485279,1631,1583,1727,2147485375,1583,0,0,0,0,0,0,0,0,0,0,0,0,0,0,0,0,0,0,0,0,0,0,0,0,0,0,0,0,0,0,0,0,0,0,0,0,0,0,0,0,0,0,0,0,0,0,0,0,0,0,0,0,0,0,0,0,0,0,0,0,0,0,0,0,0,0,0,0,0,0,0,0,0,0,0,0,0,0,0,0,0,0,0,0,0,0,0,0,0,0,0,0,0,0,0,0,0,0,0,0,0,0,0,0,0,0,0,0,0,0,0,0,0,0,0,0,0,0,0,0,0,0,0,0,0,0,0,0,0,0,0,0,0,0,0,0,1541,1573,1573,1573,1573,1573,1578,0,0,0,0,0,0,0,0,0,0,0,0,0,0,0,0,0,0,0,0,0,0,0,0,0,0,0,0,0,0,0,0,0,0,0,0,0,0,0,0,0,0,0,0,0,0,0,0,0,0,0,0,0,0,0,0,0,0,0,0,0,0,0,0,0,0,0,0,0,0,0,0,0,0,0,0,0,0,0,0,0,0,0,0,0,0,0,0,0,0,0,0,0,0,0,0,0,0,0,0,0,0,0,0,0,0,0,0,0,0,0,0,0,0,0,0,0,0,0,0,0,0,0,0,0,0,0,0,0,0,0,0,0,0,0,0,0,0,0,0,0,0,0,0,0,0,0,0,0,0,0,0,0,0,0,0,0,0,0,0,0,0,0,0,0,0,0,0,0,0,0,0,0,0,0,0,0,0,0,0,0,0,0,0,0,0,0,0,0,0,0,0,0,0,0,0,0,0,0,0,0,0,0,0,0,0,0,0,0,0,0,0,0,0,0,0,0,0,0,0,0,0,0,0,0,0,0,0,0,0,0,0,0,0,0,0,0,0,0,0,0,0,0,0,0,0,0,0,0,0,0,0,0,0,0,0,0,0,0,0,0,0,0,0,0,0,0,0,0,0,0,0,0,0,0,0,0,0,0,0,0,0,0,0,0,0,0,0,0,0,0,0,0,0,0,0,0,0,0,0,0,0,0,0,0,0,0,0,0,0,0,0,0,0,0,0,0,0,0,0,0,0,0,0,0,0,0,0,0,0,0,0,0,0,0,0,0,0,0,0,0,0,0,0,0,0,0,0,0,0,0,0,0,0,0,0,0,0,0,0,0,0,0,0,0,0,0,0,0,0,0,0,0,0,0,0,0,0,0,0,0,0,0,0,0,0,0,0,0,0,0,0,0,0,0,0,0,0,0,0,0,0,0,0,0,0,0,0,0,0,0,0,0,0,0,0,0,0,0,0,0,0,0,0,0,0,0,0,0,0,0,0,0,0,0,0,0,0,0,0,0,0,0,0,0,0,0,0,0,0,0,0,0,0,0,0,0,0,0,0,0,0,0,0,0,0,0,0,0,0,0,0,0,0,0,0,0,0,0,0,0,0,0,0,0,0,0,0,0,0,0,0,0,0,0,0,0,0,0,0,0,0,0,0,0,0,0,0,0,0,0,0,0,0,0,0,0,0,0,0,0,0,0,0,0,0,0,0,0,0,0,0,0,0,0,0,0,0,0,0,0,0,0,0,0,0,0,0,0,0,0,0,0,0,0,0,0,0,0,0,0,0,0,0,0,0,0,0,0,0,0,0,0,0,0,0,0,0,0,0,0,0,0,0,0,0,0,0,0,0,0,0,0,0,0,0,0,0,0,0,0,0,0,0,0,0,0,0,0,0,0,0,0,0,0,0,0,0,0,0,0,0,0,0,0,0,0,0,0,0,0,0,0,0,0,0,0,0,0,0,0,0,0,0,0,0,0,0,0,0,0,0,0,0,0,0,0,0,0,0,0,0,0,0,0,0,0,0,0,0,0,0,0,0,0,0,0,0,0,0,0,0,0,0,0,0,0,0,0,0,0,0,0,0,0,0,0,0,0,0,0,0,0,0,0,0,0,0,0,0,0,0,0,0,0,0,0,0,0,0,0,0,0,0,0,0,0,0,0,0,0,0,0,0,0,0,0,0,0,0,0,0,0,0,0,0,0,0,0,0,0,0,0,0,0,0,0,0,0,0,0,0,0,0,0,0,0,0,0,0,0,0,0,0,0,0,0,0,0,0,0,0,0,0,0,0,0,0,0,0,0,0,0,0,0,0,0,0,0,0,0,0,0,0,0,0,0,0,0,0,0,0,0,0,0,0,0,0,0,0,0,0,0,0,0,0,0,0,0,0,0,0,0,0,0,0,0,0,0,0,0,0,0,0,0,0,0,0,0,0,0,0,0,0,0,0,0,0,0,0,0,0,0,0,0,0,0,0,0,0,0,0,0,0,0,0,0,0,0,0,0,0,0,0,0,0,0,0,0,0,0,0,0,0,0,0,0,0,0,0,0,0,0,0,0,0,0,0,0,0,0,0,0,0,0,0,0,0,0,0,0,0,0,0,0,0,0,0,0,0,0,0,0,0,0,0,0,0,0,0,0,0,0,0,0,0,0,0,0,0,0,0,0,0,0,0,0,0,0,0,0,0,0,0,0,0,0,0,0,0,0,0,0,0,0,0,0,0,0,0,0,0,0,0,0,0,0,0,0,0,0,0,0,0,0,0,0,0,0,0,0,0,0,0,0,0,0,0,0,0,0,0,0,0,0,0,0,0,0,0,0,0,0,0,0,0,0,0,0,0,0,0,0,0,0,0,0,0,0,0,0,0,0,0,0,0,0,0,0,0,0,0,0,0,0,0,0,0,0,0,0,0,0,0,0,0,0,0,0,0,0,0,0,0,0,0,0,0,0,0,0,0,0,0,0,0,0,0,0,0,0,0,0,0,0,0,0,0,0,0,0,0,0,0,0,0,0,0,0,0,0,0,0,0,0,0,0,0,0,0,0,0,0,0,0,0,0,0,0,0,0,0,0,0,0,0,0,0,0,0,0,0,0,0,0,0,0,0,0,0,0,0,0,0,0,0,0,0,0,0,0,0,0,0,0,0,0,0,0,0,0,0,0,0,0,0,0,0,0,0,0,0,0,0,0,0,0,0,0,0,0,0,0,0,0,0,0,0,0,0,0,0,0,0,0,0,0,0,0,0,0,0,0,0,0,0,0,0,0,0,0,0,0,0,0,0,0,0,0,0,0,0,0,0,0,0,0,0,0,0,0,0,0,0,0,0,0,0,0,0,0,0,0]},{"id":9,"name":"bamboo","type":"tilelayer","x":0,"y":0,"opacity":1,"visible":true,"width":144,"height":96,"data":[0,0,0,0,0,0,0,0,0,0,0,0,0,0,0,0,0,0,0,0,0,0,0,0,0,0,0,0,0,0,0,0,0,0,0,0,0,0,0,0,0,0,0,0,0,0,0,0,0,0,0,0,0,0,0,0,0,0,0,0,0,0,0,0,0,0,0,0,0,0,0,0,0,0,0,0,0,0,0,0,0,0,0,0,0,0,0,0,0,0,0,0,0,0,0,0,0,0,0,0,0,0,0,0,0,0,0,0,0,0,0,0,0,0,0,0,0,0,0,0,0,0,0,0,0,0,0,0,0,0,0,0,0,0,0,0,0,0,0,0,0,0,0,0,0,0,0,0,0,0,0,0,0,0,0,0,0,0,0,0,0,0,0,0,0,0,0,0,0,0,0,0,0,0,0,0,0,0,0,0,0,0,0,0,0,0,0,0,0,0,0,0,0,0,0,0,0,0,0,0,0,0,0,0,0,0,0,0,0,0,0,0,0,0,0,0,0,0,0,0,0,0,0,0,0,0,0,0,0,0,0,0,0,0,0,0,0,0,0,0,0,0,0,0,0,0,0,0,0,0,0,0,0,0,0,0,0,0,0,0,0,0,0,0,0,0,0,0,0,0,0,0,0,0,0,0,0,0,0,0,0,0,0,0,0,0,0,0,0,0,0,0,0,0,0,0,0,0,0,0,0,0,0,0,0,0,0,0,0,0,0,0,0,0,0,0,0,0,0,0,0,0,0,0,0,0,0,0,0,0,0,0,0,0,0,0,0,0,0,0,0,0,0,0,0,0,0,0,0,0,0,0,0,0,0,0,0,0,0,0,0,0,0,0,0,0,0,0,0,0,0,0,0,0,0,0,0,0,0,0,0,0,0,0,0,0,0,0,0,0,0,0,0,0,0,0,0,0,0,0,0,0,0,0,0,0,0,0,0,0,0,0,0,0,0,0,0,0,0,0,0,0,0,0,0,0,0,0,0,0,0,0,0,0,0,0,0,0,0,0,0,0,0,0,0,0,0,0,0,0,0,0,0,0,0,0,0,0,0,0,0,0,0,0,0,0,0,0,0,0,0,0,0,0,0,0,0,0,0,0,0,0,0,0,0,0,0,0,0,0,0,0,0,0,0,0,0,0,0,0,0,0,0,0,0,0,0,0,0,0,0,0,0,0,0,0,0,0,0,0,0,0,0,0,0,0,0,0,0,0,0,0,0,0,0,0,0,0,0,0,0,0,0,0,0,0,0,0,0,0,0,0,0,0,0,0,0,0,0,0,0,0,0,0,0,0,0,0,0,0,0,0,0,0,0,0,0,0,0,0,0,0,0,0,0,0,0,0,0,0,0,0,0,0,0,0,0,0,0,0,0,0,0,0,0,0,0,0,0,0,0,0,0,0,0,0,0,0,0,0,0,0,0,0,0,0,0,0,0,0,0,0,0,0,0,0,0,0,0,0,0,0,0,0,0,0,0,0,0,0,0,0,0,0,0,0,0,0,0,0,0,0,0,0,0,0,0,0,0,0,0,0,0,0,0,0,0,0,0,0,0,0,0,0,0,0,0,0,0,0,0,0,0,0,0,0,0,0,0,0,0,0,0,0,0,0,0,0,0,0,0,0,0,0,0,0,0,0,0,0,0,0,0,0,0,0,0,0,0,0,0,0,0,0,0,0,0,0,0,0,0,0,0,0,0,0,0,0,0,0,0,0,0,0,0,0,0,0,0,0,0,0,0,0,0,0,0,0,0,0,0,0,0,0,0,0,0,0,0,0,0,0,0,0,0,0,0,0,0,0,0,0,0,0,0,0,0,0,0,0,0,0,0,0,0,0,0,0,0,0,0,0,0,0,0,0,0,0,0,0,0,0,0,0,0,0,0,0,0,0,0,0,0,0,0,0,0,0,0,0,0,0,0,0,0,0,0,0,0,0,0,0,0,0,0,0,0,0,0,0,0,0,0,0,0,0,0,0,0,0,0,0,0,0,0,0,0,0,0,0,0,0,0,0,0,0,0,0,0,0,0,0,0,0,0,0,0,0,0,0,0,0,0,0,0,0,0,0,0,0,0,0,0,0,0,0,0,0,0,0,0,0,0,0,0,0,0,0,0,0,0,0,0,0,0,0,0,0,0,0,0,0,0,0,0,0,0,0,0,0,0,0,0,0,0,0,0,0,0,0,0,0,0,0,0,0,0,0,0,0,0,0,0,0,0,0,0,0,0,0,0,0,0,0,0,0,0,0,0,0,0,0,0,0,0,0,0,0,0,0,0,0,0,0,0,0,0,0,0,0,0,0,0,0,0,0,0,0,0,0,0,0,0,0,0,0,0,0,0,0,0,0,0,0,0,0,0,0,0,0,0,0,0,0,0,0,0,0,0,0,0,0,0,0,0,0,0,0,0,0,0,0,0,0,0,0,0,0,0,0,0,0,0,0,0,0,0,0,0,0,0,0,0,0,0,0,0,0,0,0,0,0,0,0,0,0,0,0,0,0,0,0,0,0,0,0,0,0,0,0,0,0,0,0,0,0,0,0,0,0,0,0,0,0,0,0,0,0,0,0,0,0,0,0,0,0,0,0,0,0,0,0,0,0,0,0,0,0,0,0,0,0,0,0,0,0,0,0,0,0,0,0,0,0,0,0,0,0,0,0,0,0,0,0,0,0,0,0,0,0,0,0,0,0,0,0,0,0,0,0,0,0,0,0,0,0,0,0,0,0,0,0,0,0,0,0,0,0,0,0,0,0,0,0,0,0,0,0,0,0,0,0,0,0,0,0,0,0,0,0,0,0,0,0,0,0,0,0,0,0,0,0,0,0,0,0,0,0,0,0,0,0,0,0,0,0,0,0,0,0,0,0,0,0,0,0,0,0,0,0,0,0,0,0,0,0,0,0,0,0,0,0,0,0,0,0,0,0,0,0,0,0,0,0,0,0,0,0,0,0,0,0,0,0,0,0,0,0,0,0,0,0,0,0,0,0,0,0,0,0,0,0,0,0,0,0,0,0,0,0,0,0,0,0,0,0,0,0,0,0,0,0,0,0,0,0,0,0,0,0,0,0,0,0,0,0,0,0,0,0,0,0,0,0,0,0,0,0,0,0,0,0,0,0,0,0,0,0,0,0,0,0,0,0,0,0,0,0,0,0,0,0,0,0,0,0,0,0,0,0,0,0,0,0,0,0,0,0,0,0,0,0,0,0,0,0,0,0,0,0,0,0,0,0,0,0,0,0,0,0,0,0,0,0,0,0,0,0,0,0,0,0,0,0,0,0,0,0,0,0,0,0,0,0,0,0,0,0,0,0,0,0,0,0,0,0,0,0,0,0,0,0,0,0,0,0,0,0,0,0,0,0,0,0,0,0,0,0,0,0,0,0,0,0,0,0,0,0,0,0,0,0,0,0,0,0,0,0,0,0,0,0,0,0,0,0,0,0,0,0,0,0,0,0,0,0,0,0,0,0,0,0,0,0,0,0,0,0,0,0,0,0,0,0,0,0,0,0,0,0,0,0,0,0,0,0,0,0,0,0,0,0,0,0,0,0,0,0,0,0,0,0,0,0,0,0,0,0,0,0,0,0,0,0,0,0,0,0,0,0,0,0,0,0,0,0,0,0,0,0,0,0,0,0,0,0,0,0,0,0,0,0,0,0,0,0,0,0,0,0,0,0,0,0,0,0,0,0,0,0,0,0,0,0,0,0,0,0,0,0,0,0,0,0,0,0,0,0,0,0,0,0,0,0,0,0,0,0,0,0,0,0,0,0,0,0,0,0,0,0,0,0,0,0,0,0,0,0,0,0,0,0,0,0,0,0,0,0,0,0,0,0,0,0,0,0,0,0,0,0,0,0,0,0,0,0,0,0,0,0,0,0,0,0,0,0,0,0,0,0,0,0,0,0,0,0,0,0,0,0,0,0,0,0,0,0,0,0,0,0,0,0,0,0,0,0,0,0,0,0,0,0,0,0,0,0,0,0,0,0,0,0,0,0,0,0,0,0,0,0,0,0,0,0,0,0,0,0,0,0,0,0,0,0,0,0,0,0,0,0,0,0,0,0,0,0,0,0,0,0,0,0,0,0,0,0,0,0,0,0,0,0,0,0,0,0,0,0,0,0,0,0,0,0,0,0,0,0,0,0,0,0,0,0,0,0,0,0,0,0,0,0,0,0,0,0,0,0,0,0,0,0,0,0,0,0,0,0,0,0,0,0,0,0,0,0,0,0,0,0,0,0,0,0,0,0,0,0,0,0,0,0,0,0,0,0,0,0,0,0,0,0,0,0,0,0,0,0,0,0,0,0,0,0,0,0,0,0,0,0,0,0,0,0,0,0,0,0,0,0,0,0,0,0,0,0,0,0,0,0,0,0,0,0,0,0,0,0,0,0,0,0,0,0,0,0,0,0,0,0,0,0,0,0,0,0,0,0,0,0,0,0,0,0,0,0,0,0,0,0,0,0,0,0,0,0,0,0,0,0,0,0,0,0,0,0,0,0,0,0,0,0,0,0,0,0,0,0,0,0,0,0,0,0,0,0,0,0,0,0,0,0,0,0,0,0,0,0,0,0,0,0,0,0,0,0,0,0,0,0,0,0,0,0,0,0,0,0,0,0,0,0,0,0,0,0,0,0,0,0,0,0,0,0,0,0,0,0,0,0,0,0,0,0,0,0,0,0,0,0,0,0,0,0,0,0,0,0,0,0,0,0,0,0,0,0,0,0,0,0,0,0,0,0,0,0,0,0,0,0,0,0,0,0,0,0,0,0,0,0,0,0,0,0,0,0,0,0,0,0,0,0,0,0,0,0,0,0,0,0,0,0,0,0,0,0,0,0,0,0,0,0,0,0,0,0,0,0,0,0,0,0,0,0,0,0,0,0,0,0,0,0,0,0,0,0,0,0,0,0,0,0,0,0,0,0,0,0,0,0,0,0,0,0,0,0,0,0,0,0,0,0,0,0,0,0,0,0,0,0,0,0,0,0,0,0,0,0,0,0,0,0,0,0,0,0,0,0,0,0,0,0,0,0,0,0,0,0,0,0,0,0,0,0,0,0,0,0,0,0,0,0,0,0,0,0,0,0,0,0,0,0,0,0,0,0,0,0,0,0,0,0,0,0,0,0,0,0,0,0,0,0,0,0,0,0,0,0,0,0,0,0,0,0,0,0,0,0,0,0,0,0,0,0,0,0,0,0,0,0,0,0,0,0,0,0,0,0,0,0,0,0,0,0,0,0,0,0,0,0,0,0,0,0,0,0,0,0,0,0,0,0,0,0,0,0,0,0,0,0,0,0,0,0,0,0,0,0,0,0,0,0,0,0,0,0,0,0,0,0,0,0,0,0,0,0,0,0,0,0,0,0,0,0,0,0,0,0,0,0,0,0,0,0,0,0,0,0,0,0,0,0,0,0,0,0,0,0,0,0,0,0,0,0,0,0,0,0,0,0,0,0,0,0,0,0,0,0,0,0,0,0,0,0,0,0,0,0,0,0,0,0,0,0,0,0,0,0,0,0,0,0,0,0,0,0,0,0,0,0,0,0,0,0,0,0,0,0,0,0,0,0,0,0,0,0,0,0,0,0,0,0,0,0,0,0,0,0,0,0,0,0,0,0,0,0,0,0,0,0,0,0,0,0,0,0,0,0,0,0,0,0,0,0,0,0,0,0,0,0,0,0,0,0,0,0,0,0,0,0,0,0,0,0,0,0,0,0,0,0,0,0,0,0,0,0,0,0,0,0,0,0,0,0,0,0,0,0,0,0,0,0,0,0,0,0,0,0,0,0,0,0,0,0,0,0,0,0,0,0,0,0,0,0,0,0,0,0,0,0,0,0,0,0,0,0,0,0,0,0,0,0,0,0,0,0,0,0,0,0,0,0,0,0,0,0,0,0,0,0,0,0,0,0,0,0,0,0,0,0,0,0,0,0,0,0,0,0,0,0,0,0,0,0,0,0,0,0,0,0,0,0,0,0,0,0,0,0,0,0,0,0,0,0,0,0,0,0,0,0,0,0,0,0,0,0,0,0,0,0,0,0,0,0,0,0,0,0,0,0,0,0,0,0,0,0,0,0,0,0,0,0,0,0,0,0,0,0,0,0,0,0,0,0,0,0,0,0,0,0,0,0,0,0,0,0,0,0,0,0,0,0,0,0,0,0,0,0,0,0,0,0,0,0,0,0,0,0,0,0,0,0,0,0,0,0,0,0,0,0,0,0,0,0,0,0,0,0,0,0,0,0,0,0,0,0,0,0,0,0,0,0,0,0,0,0,0,0,0,0,0,0,0,0,0,0,0,0,0,0,0,0,0,0,0,0,0,0,0,0,0,0,0,0,0,0,0,0,0,0,0,0,0,0,0,0,0,0,0,0,0,0,0,0,0,0,0,0,0,0,0,0,0,0,0,0,0,0,0,0,0,0,0,0,0,0,0,0,0,0,0,0,0,0,0,0,0,0,0,0,0,0,0,0,0,0,0,0,0,0,0,0,0,0,0,0,0,0,0,0,0,0,0,0,0,0,0,0,0,0,0,0,0,0,0,0,0,0,0,0,0,0,0,0,0,0,0,0,0,0,0,0,0,0,0,0,0,0,0,0,0,0,0,0,0,0,0,0,0,0,0,0,0,0,0,0,0,0,0,0,0,0,0,0,0,0,0,0,0,0,0,0,0,0,0,0,0,0,0,0,0,0,0,0,0,0,0,0,0,0,0,0,0,0,0,0,0,0,0,0,0,0,0,0,0,0,0,0,0,0,0,0,0,0,0,0,0,0,0,0,0,0,0,0,0,0,0,0,0,0,0,0,0,0,0,0,0,0,0,0,0,0,0,0,0,0,0,0,0,0,0,0,0,0,0,0,0,0,0,0,0,0,0,0,0,0,0,0,0,0,0,0,0,0,0,0,0,0,0,0,0,0,0,0,0,0,0,0,0,0,0,0,0,0,0,0,0,0,0,0,0,0,0,0,0,0,0,0,0,0,0,0,0,0,0,0,0,0,0,0,0,0,0,0,0,0,0,0,0,0,0,0,0,0,0,0,0,0,0,0,0,0,0,0,0,0,0,0,0,0,0,0,0,0,0,0,0,0,0,0,0,0,0,0,0,0,0,0,0,0,0,0,0,0,0,0,0,0,0,0,0,0,0,0,0,0,0,0,0,0,0,0,0,0,0,0,0,0,0,0,0,0,0,0,0,0,0,0,0,0,0,0,0,0,0,0,0,0,0,0,0,0,0,0,0,0,0,0,0,0,0,0,0,0,0,0,0,0,0,0,0,0,0,0,0,0,0,0,0,0,0,0,0,0,0,0,0,0,0,0,0,0,0,0,0,0,0,0,0,0,0,0,0,0,0,0,0,0,0,0,0,0,0,0,0,0,0,0,0,0,0,0,0,0,0,0,0,0,0,0,0,0,0,0,0,0,0,0,0,0,0,0,0,0,0,0,0,0,0,0,0,0,0,0,0,0,0,0,0,0,0,0,0,0,0,0,0,0,0,0,0,0,0,0,0,0,0,0,0,0,0,0,0,0,0,0,0,0,0,0,0,0,0,0,0,0,0,0,0,0,0,0,0,0,0,0,0,0,0,0,0,0,0,0,0,0,0,0,0,0,0,0,0,0,0,0,0,0,0,0,0,0,0,0,0,0,0,0,0,0,0,0,0,0,0,0,0,0,0,0,0,0,0,0,0,0,0,0,0,0,0,0,0,0,0,0,0,0,0,0,0,0,0,0,0,0,0,0,0,0,0,0,0,0,0,0,0,0,0,0,0,0,0,0,0,0,0,0,0,0,0,0,0,0,0,0,0,0,0,0,0,0,0,0,0,0,0,0,0,0,0,0,0,0,0,0,0,0,0,0,0,0,0,0,0,0,0,0,0,0,0,0,0,0,0,0,0,0,0,0,0,0,0,0,0,0,0,0,0,0,0,0,0,0,0,0,0,0,0,0,0,0,0,0,0,0,0,0,0,0,0,0,0,0,0,0,0,0,0,0,0,0,0,0,0,0,0,0,0,0,0,0,0,0,0,0,0,0,0,0,0,0,0,0,0,0,0,0,0,0,0,0,0,0,0,0,0,0,0,0,0,0,0,0,0,0,0,0,0,0,0,0,0,0,0,0,0,0,0,0,0,0,0,0,0,0,0,0,0,0,0,0,0,0,0,0,0,0,0,0,0,0,0,0,0,0,0,0,0,0,0,0,0,0,0,0,0,0,0,0,0,0,0,0,0,0,0,0,0,0,0,0,0,0,0,0,0,0,0,0,0,0,0,0,0,0,0,0,0,0,0,0,0,0,0,0,0,0,0,0,0,0,0,0,0,0,0,0,0,0,0,0,0,0,0,0,0,0,0,0,0,0,0,0,0,0,0,0,0,0,0,0,0,0,0,0,0,0,0,0,0,0,0,0,0,0,0,0,0,0,0,0,0,0,0,0,0,0,0,0,0,0,0,0,0,0,0,0,0,0,0,0,0,0,0,0,0,0,0,0,0,0,0,0,0,0,0,0,0,0,0,0,0,0,0,0,0,0,0,0,0,0,0,0,0,0,0,0,0,0,0,0,0,0,0,0,0,0,0,0,0,0,0,0,0,0,0,0,0,0,0,0,0,0,0,0,0,0,0,0,0,0,0,0,0,0,0,0,0,0,0,0,0,0,0,0,0,0,0,0,0,0,0,0,0,0,0,0,0,0,0,0,0,0,0,0,0,0,0,0,0,0,0,0,0,0,0,0,0,0,0,0,0,0,0,0,0,0,0,0,0,0,0,0,0,0,0,0,0,0,0,0,0,0,0,0,0,0,0,0,0,0,0,0,0,0,0,0,0,0,0,0,0,0,0,0,0,0,0,0,0,0,0,0,0,0,0,0,0,0,0,0,0,0,0,0,0,0,0,0,0,0,0,0,0,0,0,0,0,0,0,0,0,0,0,0,0,0,0,0,0,0,0,0,0,0,0,0,0,0,0,0,0,0,0,0,0,0,0,0,0,0,0,0,0,0,0,0,0,0,0,0,0,0,0,0,0,0,0,0,0,0,0,0,0,0,0,0,0,0,0,0,0,0,0,0,0,0,0,0,0,0,0,0,0,0,0,0,0,0,0,0,0,0,0,0,0,0,0,0,0,0,0,0,0,0,0,0,0,0,0,0,0,0,0,0,0,0,0,0,0,0,0,0,0,0,0,0,0,0,0,0,0,0,0,0,0,0,0,0,0,0,0,0,0,0,0,0,0,0,0,0,0,0,0,0,0,0,0,0,0,0,0,0,0,0,0,0,0,0,0,0,0,0,0,0,0,0,0,0,0,0,0,0,0,0,0,0,0,0,0,0,0,0,0,0,0,0,0,0,0,0,0,0,0,0,0,0,0,0,0,0,0,0,0,0,0,0,0,0,0,0,0,0,0,0,0,0,0,0,0,0,0,0,0,0,0,0,0,0,0,0,0,0,0,0,0,0,0,0,0,0,0,0,0,0,0,0,0,0,0,0,0,0,0,0,0,0,0,0,0,0,0,0,0,0,0,0,0,0,0,0,0,0,0,0,0,0,0,0,0,0,0,0,0,0,0,0,0,0,0,0,0,0,0,0,0,0,0,0,0,0,0,0,0,0,0,0,0,0,0,0,0,0,0,0,0,0,0,0,0,0,0,0,0,0,0,0,0,0,0,0,0,0,0,0,0,0,0,0,0,0,0,0,0,0,0,0,0,0,0,0,0,0,0,0,0,0,0,0,0,0,0,0,0,0,0,0,0,0,0,0,0,0,0,0,0,0,0,0,0,0,0,0,0,0,0,0,0,0,0,0,0,0,0,0,0,0,0,0,0,0,0,0,0,0,0,0,0,0,0,0,0,0,0,0,0,0,0,0,0,0,0,0,0,0,0,0,0,0,0,0,0,0,0,0,0,0,0,0,0,0,0,0,0,0,0,0,0,0,0,0,0,0,0,0,0,0,0,0,0,0,0,0,0,0,0,0,0,0,0,0,0,0,0,0,0,0,0,0,0,0,0,0,0,0,0,0,0,0,0,0,0,0,0,0,0,0,0,0,0,0,0,0,0,0,0,0,0,0,0,0,0,0,0,0,0,0,0,0,0,0,0,0,0,0,0,0,0,0,0,0,0,0,0,0,0,0,0,0,0,0,0,0,0,0,0,0,0,0,0,0,0,0,0,0,0,0,0,0,0,0,0,0,0,0,0,0,0,0,0,0,0,0,0,0,0,0,0,0,0,0,0,0,0,0,0,0,0,0,0,0,0,0,0,0,0,0,0,0,0,0,0,0,0,0,0,0,0,0,0,0,0,0,0,0,0,0,0,0,0,0,0,0,0,0,0,0,0,0,0,0,0,0,0,0,0,0,0,0,0,0,0,0,0,0,0,0,0,0,0,0,0,0,0,0,0,0,0,0,0,0,0,0,0,0,0,0,0,0,0,0,0,0,0,0,0,0,0,0,0,0,0,0,0,0,0,0,0,0,0,0,0,0,0,0,0,0,0,0,0,0,0,0,0,0,0,0,0,0,0,0,0,0,0,0,0,0,0,0,0,0,0,0,0,0,0,0,0,0,0,0,0,0,0,0,0,0,0,0,0,0,0,0,0,0,0,0,0,0,0,0,0,0,0,0,0,0,0,0,0,0,0,0,0,0,0,0,0,0,0,0,0,0,0,0,0,0,0,0,0,0,0,0,0,0,0,0,0,0,0,0,0,0,0,0,0,0,0,0,0,0,0,0,0,0,0,0,0,0,0,0,0,0,0,0,0,0,0,0,0,0,0,0,0,0,0,0,0,0,0,0,0,0,0,0,0,0,0,0,0,0,0,0,0,0,0,0,0,0,0,0,0,0,0,0,0,0,0,0,0,0,0,0,0,0,0,0,0,0,0,0,0,0,0,0,0,0,0,0,0,0,0,0,0,0,0,0,0,0,0,0,0,0,0,0,0,0,0,0,0,0,0,0,0,0,0,0,0,0,0,0,0,0,0,0,0,0,0,0,0,0,0,0,0,0,0,0,0,0,0,0,0,0,0,0,0,0,0,0,0,0,0,0,0,0,0,0,0,0,0,0,0,0,0,0,0,0,0,0,0,0,0,0,0,0,0,0,0,0,0,0,0,0,0,0,0,0,0,0,0,0,0,0,0,0,0,0,0,0,0,0,0,0,0,0,0,0,0,0,0,0,0,0,0,0,0,0,0,0,0,0,0,0,0,0,0,0,0,0,0,0,0,0,0,0,0,0,0,0,0,0,0,0,0,0,0,0,0,0,0,0,0,0,0,0,0,0,0,0,0,0,0,0,0,0,0,0,0,0,0,0,0,0,0,0,0,0,0,0,0,0,0,0,0,0,0,0,0,0,0,0,0,0,0,0,0,0,0,0,0,0,0,0,0,0,0,0,0,0,0,0,0,0,0,0,0,0,0,0,0,0,0,0,0,0,0,0,0,0,0,0,0,0,0,0,0,0,0,0,0,0,0,0,0,0,0,0,0,0,0,0,0,0,0,0,0,0,0,0,0,0,0,0,0,0,0,0,0,0,0,0,0,0,0,0,0,0,0,0,0,0,0,0,0,0,0,0,0,0,0,0,0,0,0,0,0,0,0,0,0,0,0,0,0,0,0,0,0,0,0,0,0,0,0,0,0,0,0,0,0,0,0,0,0,0,0,0,0,0,0,0,0,0,0,0,0,0,0,0,0,0,0,0,0,0,0,0,0,0,0,0,0,0,0,0,0,0,0,0,0,0,0,0,0,0,0,0,0,0,0,0,0,0,0,0,0,0,0,0,0,0,0,0,0,0,0,0,0,0,0,0,0,0,0,0,0,0,0,0,0,0,0,0,0,0,0,0,0,0,0,0,0,0,0,0,0,0,0,0,0,0,0,0,0,0,0,0,0,0,0,0,0,0,0,0,0,0,0,0,0,0,0,0,0,0,0,0,0,0,0,0,0,0,0,0,0,0,0,0,0,0,0,0,0,0,0,0,0,0,0,0,0,0,0,0,0,0,0,0,0,0,0,0,0,0,0,0,0,0,0,0,0,0,0,0,0,0,0,0,0,0,0,0,0,0,0,0,0,0,0,0,0,0,0,0,0,0,0,0,0,0,0,0,0,0,0,0,0,0,0,0,0,0,0,0,0,0,0,0,0,0,0,0,0,0,0,0,0,0,0,0,0,0,0,0,0,0,0,0,0,0,0,0,0,0,0,0,0,0,0,0,0,0,0,0,0,0,0,0,0,0,0,0,0,0,0,0,0,0,0,0,0,0,0,0,0,0,0,0,0,0,0,0,0,0,0,0,0,0,0,0,0,0,0,0,0,0,0,0,0,0,0,0,0,0,0,0,0,0,0,0,0,0,0,0,0,0,0,0,0,0,0,0,0,0,0,0,0,0,0,0,0,0,0,0,0,0,0,0,0,0,0,0,0,0,0,0,0,0,0,0,0,0,0,0,0,0,0,0,0,0,0,0,0,0,0,0,0,0,0,0,0,0,0,0,0,0,0,0,0,0,0,0,0,0,0,0,0,0,0,0,0,0,0,0,0,0,0,0,0,0,0,0,0,0,0,0,0,0,0,0,0,0,0,0,0,0,0,0,0,0,0,0,0,0,0,0,0,0,0,0,0,0,0,0,0,0,0,0,0,0,0,0,0,0,0,0,0,0,0,0,0,0,0,0,0,0,0,0,0,0,0,0,0,0,0,0,0,0,0,0,0,0,0,0,0,0,0,0,0,0,0,0,0,0,0,0,0,0,0,0,0,0,0,0,0,0,0,0,0,0,0,0,0,0,0,0,0,0,0,0,0,0,0,0,0,0,0,0,0,0,0,0,0,0,0,0,0,0,0,0,0,0,0,0,0,0,0,0,0,0,0,0,0,0,0,0,0,0,0,0,0,0,0,0,0,0,0,0,0,0,0,0,0,0,0,0,0,0,0,0,0,0,0,0,0,0,0,0,0,0,0,0,0,0,0,0,0,0,0,0,0,0,0,0,0,0,0,0,0,0,0,0,0,0,0,0,0,0,0,0,0,0,0,0,0,0,0,0,0,0,0,0,0,0,0,0,0,0,0,0,0,0,0,0,0,0,0,0,0,0,0,0,0,0,0,0,0,0,0,0,0,0,0,0,0,0,0,0,0,0,0,0,0,0,0,0,0,0,0,0,0,0,0,0,0,0,0,0,0,0,0,0,0,0,0,0,0,0,0,0,0,0,0,0,0,0,0,0,0,0,0,0,0,0,0,0,0,0,0,0,0,0,0,0,0,0,0,0,0,0,0,0,0,0,0,0,0,0,0,0,0,0,0,0,0,0,0,0,0,0,0,0,0,0,0,0,0,0,0,0,0,0,0,0,0,0,0,0,0,0,0,0,0,0,0,0,0,0,0,0,0,0,0,0,0,0,0,0,0,0,0,0,0,0,0,0,0,0,0,0,0,0,0,0,0,0,0,0,0,0,0,0,0,0,0,0,0,0,0,0,0,0,0,0,0,0,0,0,0,0,0,0,0,0,0,0,0,0,0,0,0,0,0,0,0,0,0,0,0,0,0,0,0,0,0,0,0,0,0,0,0,0,0,0,0,0,0,0,0,0,0,0,0,0,0,0,0,0,0,0,0,0,0,0,0,0,0,0,0,0,0,0,0,0,0,0,0,0,0,0,0,0,0,0,0,0,0,0,0,0,0,0,0,0,0,0,0,0,0,0,0,0,0,0,0,0,0,0,0,0,0,0,0,0,0,0,0,0,0,0,0,0,0,0,0,0,0,0,0,0,0,0,0,0,0,0,0,0,0,0,0,0,0,0,0,0,0,0,0,0,0,0,0,0,0,0,0,0,0,0,0,0,0,0,0,0,0,0,0,0,0,0,0,0,0,0,0,0,0,0,0,0,0,0,0,0,0,0,0,0,0,0,0,0,0,0,0,0,0,0,0,0,0,0,0,0,0,0,0,0,0,0,0,0,0,0,0,0,0,0,0,0,0,0,0,0,0,0,0,0,0,0,0,0,0,0,0,0,0,0,0,0,0,0,0,0,0,0,0,0,0,0,0,0,0,0,0,0,0,0,0,0,0,0,0,0,0,0,0,0,0,0,0,0,0,0,0,0,0,0,0,0,0,0,0,0,0,0,0,0,0,0,0,0,0,0,0,0,0,0,0,0,0,0,0,0,0,0,0,0,0,0,0,0,0,0,0,0,0,0,0,0,0,0,0,0,0,0,0,0,0,0,0,0,0,0,0,0,0,0,0,0,0,0,0,0,0,0,0,0,0,0,0,0,0,0,0,0,0,0,0,0,0,0,0,0,0,0,0,0,0,0,0,0,0,0,0,0,0,0,0,0,0,0,0,0,0,0,0,0,0,0,0,0,0,0,0,0,0,0,0,0,0,0,0,0,0,0,0,0,0,0,0,0,0,0,0,0,0,0,0,0,0,0,0,0,0,0,0,0,0,0,0,0,0,0,0,0,0,0,0,0,0,0,0,0,0,0,0,0,0,0,0,0,0,0,0,0,0,0,0,0,0,0,0,0,0,0,0,0,0,0,0,0,0,0,0,0,0,0,0,0,0,0,0,0,0,0,0,0,0,0,0,0,0,0,0,0,0,0,0,0,0,0,0,0,0,0,0,0,0,0,0,0,0,0,0,0,0,0,0,0,0,0,0,0,0,0,0,0,0,0,0,0,0,0,0,0,0,0,0,0,0,0,0,0,0,0,0,0,0,0,0,0,0,0,0,0,0,0,0,0,0,0,0,0,0,0,0,0,0,0,0,0,0,0,0,0,0,0,0,0,0,0,0,0,0,0,0,0,0,0,0,0,0,0,0,0,0,0,0,0,0,0,0,0,0,0,0,0,0,0,0,0,0,0,0,0,0,0,0,0,0,0,0,0,0,0,0,0,0,0,0,0,0,0,0,0,0,0,0,0,0,0,0,0,0,0,0,0,0,0,0,0,0,0,0,0,0,0,0,0,0,0,0,0,0,0,0,0,0,0,0,0,0,0,0,0,0,0,0,0,0,0,0,0,0,0,0,0,0,0,0,0,0,0,0,0,0,0,0,0,0,0,0,0,0,0,0,0,0,0,0,0,0,0,0,0,0,0,0,0,0,0,0,0,0,0,0,0,0,0,0,0,0,0,0,0,0,0,0,0,0,0,0,0,0,0,0,0,0,0,0,0,0,0,0,0,0,0,0,0,0,0,0,0,0,0,0,0,0,0,0,0,0,0,0,0,0,0,0,0,0,0,0,0,0,0,0,0,0,0,0,0,0,0,0,0,0,0,0,0,0,0,0,0,0,0,0,0,0,0,0,0,0,0,0,0,0,0,0,0,0,0,0,0,0,0,0,0,0,0,0,0,0,0,0,0,0,0,0,0,0,0,0,0,0,0,0,0,0,0,0,0,0,0,0,0,0,0,0,0,0,0,0,0,0,0,0,0,0,0,0,0,0,0,0,0,0,0,0,0,0,0,0,0,0,0,0,0,0,0,0,0,0,0,0,0,0,0,0,0,0,0,0,0,0,0,0,0,0,0,0,0,0,0,0,0,0,0,0,0,0,0,0,0,0,0,0,0,0,0,0,0,0,0,0,0,0,0,0,0,0,0,0,0,0,0,0,0,0,0,0,0,0,0,0,0,0,0,0,0,0,0,0,0,0,0,0,0,0,0,0,0,0,0,0,0,0,0,0,0,0,0,0,0,0,0,0,0,0,0,0,0,0,0,0,0,0,0,0,0,0,0,0,0,0,0,0,0,0,0,0,0,0,0,0,0,0,0,0,0,0,0,0,0,0,0,0,0,0,0,0,0,0,0,0,0,0,0,0,0,0,0,0,0,0,0,0,0,0,0,0,0,0,0,0,0,0,0,0,0,0,0,0,0,0,0,0,0,0,0,0,0,0,0,0,0,0,0,0,0,0,0,0,0,0,0,0,0,0,0,0,0,0,0,0,0,0,0,0,0,0,0,0,0,0,0,0,0,0,0,0,0,0,0,0,0,0,0,0,0,0,0,0,0,0,0,0,0,0,0,0,0,0,0,0,0,0,0,0,0,0,0,0,0,0,0,0,0,0,0,0,0,0,0,0,0,0,0,0,0,0,0,0,0,0,0,0,0,0,0,0,0,0,0,0,0,0,0,0,0,0,0,0,0,0,0,0,0,0,0,0,0,0,0,0,0,0,0,0,0,0,0,0,0,0,0,0,0,0,0,0,0,0,0,0,0,0,0,0,0,0,0,0,0,0,0,0,0,0,0,0,0,0,0,0,0,0,0,0,0,0,0,0,0,0,0,0,0,0,0,0,0,0,0,0,0,0,0,0,0,0,0,0,0,0,0,0,0,0,0,0,0,0,0,0,0,0,0,0,0,0,0,0,0,0,0,0,0,0,0,0,0,0,0,0,0,0,0,0,0,0,0,0,0,0,0,0,0,0,0,0,0,0,0,0,0,0,0,0,0,0,0,0,0,0,0,0,0,0,0,0,0,0,0,0,0,0,0,0,0,0,0,0,0,0,0,0,0,0,0,0,0,0,0,0,0,0,0,0,0,0,0,0,0,0,0,0,0,0,0,0,0,0,0,0,0,0,0,0,0,0,0,0,0,0,0,0,0,0,0,0,0,0,0,0,0,0,0,0,0,0,0,0,0,0,0,0,0,0,0,0,0,0,0,0,0,0,0,0,0,0,0,0,0,0,0,0,0,0,0,0,0,0,0,0,0,0,0,0,0,0,0,0,0,0,0,0,0,0,0,0,0,0,0,0,0,0,0,0,0,0,0,0,0,0,0,0,0,0,0,0,0,0,0,0,0,0,0,0,0,0,0,0,0,0,0,0,0,0,0,0,0,0,0,0,0,0,0,0,0,0,0,0,0,0,0,0,0,0,0,0,0,0,0,0,0,0,0,0,0,0,0,0,0,0,0,0,0,0,0,0,0,0,0,0,0,0,0,0,0,0,0,0,0,0,0,0,0,0,0,0,0,0,0,0,0,0,0,0,0,0,0,0,0,0,0,0,0,0,0,0,0,0,0,0,0,0,0,0,0,0,0,0,0,0,0,0,0,0,0,0,0,0,0,0,0,0,0,0,0,0,0,0,0,0,0,0,0,0,0,0,0,0,0,0,0,0,0,0,0,0,0,0,0,0,0,0,0,0,0,0,0,0,0,0,0,0,0,0,0,0,0,0,0,0,0,0,0,0,0,0,0,0,0,0,0,0,0,0,0,0,0,0,0,0,0,0,0,0,0,0,0,0,0,0,0,0,0,0,0,0,0,0,0,0,0,0,0,0,0,0,0,0,0,0,0,0,0,0,0,0,0,0,0,0,0,0,0,0,0,0,0,0,0,0,0,0,0,0,0,0,0,0,0,0,0,0,0,0,0,0,0,0,0,0,0,0,0,0,0,0,0,0,0,0,0,0,0,0,0,0,0,0,0,0,0,0,0,0,0,0,0,0,0,0,0,0,0,0,0,0,0,0,0,0,0,0,0,0,0,0,0,0,0,0,0,0,0,0,0,0,0,0,0,0,0,0,0,0,0,0,0,0,0,0,0,0,0,0,0,0,0,0,0,0,0,0,0,0,0,0,0,0,0,0,0,0,0,0,0,0,0,0,0,0,0,0,0,0,0,0,0,0,0,0,0,0,0,0,0,0,0,0,0,0,0,0,0,0,0,0,0,0,0,0,0,0,0,0,0,0,0,0,0,0,0,0,0,0,0,0,0,0,0,0,0,0,0,0,0,0,0,0,0,0,0,0,0,0,0,0,0,0,0,0,0,0,0,0,0,0,0,0,0,0,0,0,0,0,0,0,0,0,0,0,0,0,0,0,0,0,0,0,0,0,0,0,0,0,0,0,0,0,0,0,0,0,0,0,0,0,0,0,0,0,0,0,0,0,0,0,0,0,0,0,0,0,0,0,0,0,0,0,0,0,0,0,0,0,0,0,0,0,0,0,0,0,0,0,0,0,0,0,0,0,0,0,0,0,0,0,0,0,0,0,0,0,0,0,0,0,0,0,0,0,0,0,0,0,0,0,0,0,0,0,0,0,0,0,0,0,0,0,0,0,0,0,0,0,0,0,0,0,0,0,0,0,0,0,0,0,0,0,0,0,0,0,0,0,0,0,0,0,0,0,0,0,0,0,0,0,0,0,0,0,0,0,0,0,0,0,0,0,0,0,0,0,0,0,0,0,0,0,0,0,0,0,0,0,0,0,0,0,0,0,0,0,0,0,0,0,0,0,0,0,0,0,0,0,0,0,0,0,0,0,0,0,0,0,0,0,0,0,0,0,0,0,0,0,0,0,0,0,0,0,0,0,0,0,0,0,0,0,0,0,0,0,0,0,0,0,0,0,0,0,0,0,0,0,0,0,0,0,0,0,0,0,0,0,0,0,0,0,0,0,0,0,0,0,0,0,0,0,0,0,0,0,0,0,0,0,0,0,0,0,0,0,0,0,0,0,0,0,0,0,0,0,0,0,0,0,0,0,0,0,0,0,0,0,0,0,0,0,0,0,0,0,0,0,0,0,0,0,0,0,0,0,0,0,0,0,0,0,0,0,0,0,0,0,0,0,0,0,0,0,0,0,0,0,0,0,0,0,0,0,0,0,0,0,0,0,0,0,0,0,0,0,0,0,0,0,0,0,0,0,0,0,0,0,0,0,0,0,0,0,0,0,0,0,0,0,0,0,0,0,0,0,0,0,0,0,0,0,0,0,0,0,0,0,0,0,0,0,0,0,0,0,0,0,0,0,0,0,0,0,0,0,0,0,0,0,0,0,0,0,0,0,0,0,0,0,0,0,0,0,0,0,0,0,0,0,0,0,0,0,0,0,0,0,0,0,0,0,0,0,0,0,0,0,0,0,0,0,0,0,0,0,0,0,0,0,0,0,0,0,0,0,0,0,0,0,0,0,0,0,0,0,0,0,0,0,0,0,0,0,0,0,0,0,0,0,0,0,0,0,0,0,0,0,0,0,0,0,0,0,0,0,0,0,0,0,0,0,0,0,0,0,0,0,0,0,0,0,0,0,0,0,0,0,0,0,0,0,0,0,0,0,0,0,0,0,0,0,0,0,0,0,0,0,0,0,0,0,0,0,0,0,0,0,0,0,0,0,0,0,0,0,0,0,0,0,0,0,0,0,0,0,0,0,0,0,0,0,0,0,0,0,0,0,0,0,0,0,0,0,0,0,0,0,0,0,0,0,0,0,0,0,0,0,0,0,0,0,0,0,0,0,0,0,0,0,0,0,0,0,0,0,0,0,0,0,0,0,0,0,0,0,0,0,0,0,0,0,0,0,0,0,0,0,0,0,0,0,0,0,0,0,0,0,0,0,0,0,0,0,0,0,0,0,0,0,0,0,0,0,0,0,0,0,0,0,0,0,0,0,0,0,0,0,0,0,0,0,0,0,0,0,0,0,0,0,0,0,0,0,0,0,0,0,0,0,0,0,0,0,0,0,0,0,0,0,0,0,0,0,0,0,0,0,0,0,0,0,0,0,0,0,0,0,0,0,0,0,0,0,0,0,0,0,0,0,0,0,0,0,0,0,0,0,0,0,0,0,0,0,0,0,0,0,0,0,0,0,0,0,0,0,0,0,0,0,0,0,0,0,0,0,0,0,0,0,0,0,0,0,0,0,0,0,0,0,0,0,0,0,0,0,0,0,0,0,0,0,0,0,0,0,0,0,0,0,0,0,0,0,0,0,0,0,0,0,0,0,0,0,0,0,0,0,0,0,0,0,0,0,0,0,0,0,0,0,0,0,0,0,0,0,0,0,0,0,0,0,0,0,0,0,0,0,0,0,0,0,0,0,0,0,0,0,0,0,0,0,0,0,0,0,0,0,0,0,0,0,0,0,0,0,0,0,0,0,0,0,0,0,0,0,0,0,0,0,0,0,0,0,0,0,0,0,0,0,0,0,0,0,0,0,0,0,0,0,0,0,0,0,0,0,0,0,0,0,0,0,0,0,0,0,0,0,0,0,0,0,0,0,0,0,0,0,0,0,0,0,0,0,0,0,0,0,0,0,0,0,0,0,0,0,0,0,0,0,0,0,0,0,0,0,0,0,0,0,0,0,0,0,0,0,0,0,0,0,0,0,0,0,0,0,0,0,0,0,0,0,0,0,0,0,0,0,0,0,0,0,0,0,0,0,0,0,0,0,0,0,0,0,0,0,0,0,0,0,0,0,0,0,0,0,0,0,0,0,0,0,0,0,0,0,0,0,0,0,0,0,0,0,0,0,0,0,0,0,0,0,0,0,0,0,0,0,0,0,0,0,0,0,0,0,0,0,0,0,0,0,0,0,0,0,0,0,0,0,0,0,0,0,0,0,0,0,0,0,0,0,0,0,0,0,0,0,0,0,0,0,0,0,0,0,0,0,0,0,0,0,0,0,0,0,0,0,0,0,0,0,0,0,0,0,0,0,0,0,0,0,0,0,0,0,0,0,0,0,0,0,0,0,0,0,0,0,0,0,0,0,0,0,0,0,0,0,0,0,0,0,0,0,0,0,0,0,0,0,0,0,0,0,0,0,0,0,0,0,0,0,0,0,0,0,0,0,0,0,0,0,0,0,0,0,0,0,0,0,0,0,0,0,0,0,0,0,0,0,0,0,0,0,0,0,0,0,0,0,0,0,0,0,0,0,0,0,0,0,0,0,0,0,0,0,0,0,0,0,0,0,0,0,0,0,0,0,0,0,0,0,0,0,0,0,0,0,0,0,0,0,0,0,0,0,0,0,0,0,0,0,0,0,0,0,0,0,0,0,0,0,0,0,0,0,0,0,0,0,0,0,0,0,0,0,0,0,0,0,0,0,0,0,0,0,0,0,0,0,0,0,0,0,0,0,0,0,0,0,0,0,0,0,0,0,0,0,0,0,0,0,0,0,0,0,0,0,0,0,0,0,0,0,0,0,0,0,0,0,0,0,0,0,0,0,0,0,0,0,0,0,0,0,0,0,0,0,0,0,0,0,0,0,0,0,0,0,0,0,0,0,0,0,0,0,0,0,0,0,0,0,0,0,0,0,0,0,0,0,0,0,0,0,0,0,0,0,0,0,0,0,0,0,0,0,0,0,0,0,0,0,0,0,0,0,0,0,0,0,0,0,0,0,0,0,0,0,0,0,0,0,0,0,0,0,0,0,0,0,0,0,0,0,0,0,0,0,0,0,0,0,0,0,0,0,0,0,0,0,0,0,0,0,0,0,0,0,0,0,0,0,0,0,0,0,0,0,0,0,0,0,0,0,0,0,0,0,0,0,0,0,0,0,0,0,0,0,0,0,0,0,0,0,0,0,0,0,0,0,0,0,0,0,0,0,0,0,0,0,0,0,0,0,0,0,0,0,0,0,0,0,0,0,0,0,0,0,0,0,0,0,0,0,0,0,0,0,0,0,0,0,0,0,0,0,0,0,0,0,0,0,0,0,0,0,0,0,0,0,0,0,0,0,0,0,0,0,0,0,0,0,0,0,0,0,0,0,0,0,0,0,0,0,0,0,0,0,0,0,0,0,0,0,0,0,0,0,0,0,0,0,0,0,0,0,0,0,0,0,0,0,0,0,0,0,0,0,0,0,0,0,0,0,0,0,0,0,0,0,0,0,0,0,0,0,0,0,0,0,0,0,0,0,0,0,0,0,0,0,0,0,0,0,0,0,0,0,0,0,0,0,0,0,0,0,0,0,0,0,0,0,0,0,0,0,0,0,0,0,0,0,0,0,0,0,0,0,0,0,0,0,0,0,0,0,0,0,0,0,0,0,0,0,0,0,0,0,0,0,0,0,0,0,0,0,0,0,0,0,0,0,0,0,0,0,0,0,0,0,0,0,0,0,0,0,0,0,0,0,0,0,0,0,0,0,0,0,0,0,0,0,0,0,0,0,0,0,0,0,0,0,0,0,0,0,0,0,0,0,0,0,0,0,0,0,0,0,0,0,0,0,0,0,0,0,0,0,0,0,0,0,0,0,0,0,0,0,0,0,0,0,0,0,0,0,0,0,0,0,0,0,0,0,0,0,0,0,0,0,0,0,0,0,0,0,0,0,0,0,0,0,0,0,0,0,0,0,0,0,0,0,0,0,0,0,0,0,0,0,0,0,0,0,0,0,0,0,0,0,0,0,0,0,0,0,0,0,0,0,0,0,0,0,0,0,0,0,0,0,0,0,0,0,0,0,0,0,0,0,0,0,0,0,0,0,0,0,0,0,0,0,0,0,0,0,0,0,0,0,0,0,0,0,0,0,0,0,0,0,0,0,0,0,0,0,0,0,0,0,0,0,0,0,0,0,0,0,0,0,0,0,0,0,0,0,0,0,0,0,0,0,0,0,0,0,0,0,0,0,0,0,0,0,0,0,0,0,0,0,0,0,0,0,0,0,0,0,0,0,0,0,0,0,0,0,0,0,0,0,0,0,0,0,0,0,0,0,0,0,0,0,0,0,0,0,0,0,0,0,0,0,0,0,0,0,0,0,0,0,0,0,0,0,0,0,0,0,0,0,0,0,0,0,0,0,0,0,0,0,0,0,0,0,0,0,0,0,0,0,0,0,0,0,0,0,0,0,0,0,0,0,0,0,0,0,0,0,0,0,0,0,0,0,0,0,0,0,0,0,0,0,0,0,0,0,0,0,0,0,0,0,0,0,0,0,0,0,0,0,0,0,0,0,0,0,0,0,0,0,0,0,0,0,0,0,0,0,0,0,0,0,0,0,0,0,0,0,0,0,0,0,0,0,0,0,0,0,0,0,0,0,0,0,0,0,0,0,0,0,0,0,0,0,0,0,0,0,0,0,0,0,0,0,0,0,0,0,0,0,0,0,0,0,0,0,0,0,0,0,0,0,0,0,0,0,0,0,0,0,0,0,0,0,0,0,0,0,0,0,0,0,0,0,0,0,0,0,0,0,0,0,0,0,0,0,0,0,0,0,0,0,0,0,0,0,0,0,0,4139,4160,1760,1760,1760,1760,1760,1755,0,0,0,0,0,0,0,0,0,0,0,0,0,0,0,0,0,0,0,0,0,0,0,0,0,0,0,0,0,0,0,0,0,0,0,0,0,0,0,0,0,0,0,0,0,0,0,0,0,0,0,0,0,0,0,0,0,0,0,0,0,0,0,0,0,0,0,0,0,0,0,0,0,0,0,0,0,0,0,0,0,0,0,0,0,0,0,0,0,0,0,0,0,0,0,0,0,0,0,0,0,0,0,0,0,0,0,0,0,0,0,0,0,0,0,0,0,0,0,0,0,0,0,0,0,0,0,0,0,0,0,0,0,0,1739,1760,1762,2147485471,1919,1775,2147485567,2147485423,2147485567,1774,1760,1755,0,0,0,0,0,0,0,0,0,0,0,0,0,0,0,0,0,0,0,0,0,0,0,0,0,0,0,0,0,0,0,0,0,0,0,0,0,0,0,0,0,0,0,0,0,0,0,0,0,0,0,0,0,0,0,0,0,0,0,0,0,0,0,0,0,0,0,0,0,0,0,0,0,0,0,0,0,0,0,0,0,0,0,0,0,0,0,0,0,0,0,0,0,0,0,0,0,0,0,0,0,0,0,0,0,0,0,0,0,0,0,0,0,0,0,0,0,0,0,0,0,0,0,0,0,0,0,0,0,0,0,1739,1762,1775,2147485423,2147485471,1775,1775,1919,2147485471,1823,2147485519,2147485471,1774,1755,0,0,0,0,0,0,0,0,0,0,0,0,0,0,0,0,0,0,0,0,0,0,0,0,0,0,0,0,0,0,0,0,0,0,0,0,0,0,0,0,0,0,0,0,0,0,0,0,0,0,0,0,0,0,0,0,0,0,0,0,0,0,0,0,0,0,0,0,0,0,0,0,0,0,0,0,0,0,0,0,0,0,0,0,0,0,0,0,0,0,0,0,0,0,0,0,0,0,0,0,0,0,0,0,0,0,0,0,0,0,0,0,0,0,0,0,0,0,0,0,0,0,0,0,0,0,0,0,0,1760,1762,2147485567,1871,1775,1823,1775,2147485567,2147485567,2147485423,1775,1871,1871,1871,1774,1755,0,0,0,0,0,0,0,0,0,0,0,0,0,0,0,0,0,0,0,0,0,0,0,0,0,0,0,0,0,0,0,0,0,0,0,0,0,0,0,0,0,0,0,0,0,0,0,0,0,0,0,0,0,0,0,0,0,0,0,0,0,0,0,0,0,0,0,0,0,0,0,0,0,0,0,0,0,0,0,0,0,0,0,0,0,0,0,0,0,0,0,0,0,0,0,0,0,0,0,0,0,0,0,0,0,0,0,0,0,0,0,0,0,0,0,0,0,0,0,0,0,0,0,0,0,0,0,0,1765,1770,2147485471,1919,2147485423,2147485519,2147485471,1871,1823,2147485567,1919,1919,2147485423,2147485471,1773,1763,0,0,0,0,0,0,0,0,0,0,0,0,0,0,0,0,0,0,0,0,0,0,0,0,0,0,0,0,0,0,0,0,0,0,0,0,0,0,0,0,0,0,0,0,0,0,0,0,0,0,0,0,0,0,0,0,0,0,0,0,0,0,0,0,0,0,0,0,0,0,0,0,0,0,0,0,0,0,0,0,0,0,0,0,0,0,0,0,0,0,0,0,0,0,0,0,0,0,0,0,0,0,0,0,0,0,0,0,0,0,0,0,0,0,0,0,0,0,0,0,0,0,0,0,0,0,0,0,0,1733,1770,1823,1775,2147485471,1919,1823,1871,1775,1775,2147485519,1823,1773,1763,0,0,0,0,0,0,0,0,0,0,0,0,0,0,0,0,0,0,0,0,0,0,0,0,0,0,0,0,0,0,0,0,0,0,0,0,0,0,0,0,0,0,0,0,0,0,0,0,0,0,0,0,0,0,0,0,0,0,0,0,0,0,0,0,0,0,0,0,0,0,0,0,0,0,0,0,0,0,0,0,0,0,0,0,0,0,0,0,0,0,0,0,0,0,0,0,0,0,0,0,0,0,0,0,0,0,0,0,0,0,0,0,0,0,0,0,0,0,0,0,0,0,0,0,0,0,0,0,0,0,0,1733,1765,1770,1823,2147485471,1919,2147485519,1919,2147485471,1773,1765,1763,0,0,0,0,0,0,0,0,0,0,0,0,0,0,0,0,0,0,0,0,0,0,0,0,0,0,0,0,0,0,0,0,0,0,0,0,0,0,0,0,0,0,0,0,0,0,0,0,0,0,0,0,0,0,0,0,0,0,0,0,0,0,0,0,0,0,0,0,0,0,0,0,0,0,0,0,0,0,0,0,0,0,0,0,0,0,0,0,0,0,0,0,0,0,0,0,0,0,0,0,0,0,0,0,0,0,0,0,0,0,0,0,0,0,0,0,0,0,0,0,0,0,0,0,0,0,0,0,0,0,0,0,0,0,1733,1765,1765,1765,1765,1765,1765,1763,0,0,0,0,0,0,0,0,0,0,0,0,0,0,0,0,0,0,0,0,0,0,0,0,0,0,0,0,0,0,0,0,0,0,0,0,0,0,0,0,0,0,0,0,0,0,0,0,0,0,0,0,0,0,0,0,0,0,0,0,0,0,0,0,0,0,0,0,0,0,0,0,0,0,0,0,0,0,0,0,0,0,0,0,0,0,0,0,0,0,0,0,0,0,0,0,0,0,0,0,0,0,0,0,0,0,0,0,0,0,0,0,0,0,0,0,0,0,0,0,0,0,0,0,0,0,0,0,0,0,0,0,0,0,0,0,0,0,0,0,0,0,0,0,0,0,0,0,0,0,0,0,0,0,0,0,0,0,0,0,0,0,0,0,0,0,0,0,0,0,0,0,0,0,0,0,0,0,0,0,0,0,0,0,0,0,0,0,0,0,0,0,0,0,0,0,0,1741,1919,2147485567,2147485423,2147485471,0,2147485567,2147485519,2147485519,1771,0,0,0,0,0,0,0,0,0,0,0,0,0,0,0,0,0,0,0,0,0,0,0,0,0,0,0,0,0,0,0,0,0,0,0,0,0,0,0,0,0,0,0,0,0,0,0,0,0,0,0,0,0,0,0,0,0,0,0,0,0,0,0,0,0,0,0,0,0,0,0,0,0,0,0,0,0,0,0,0,0,0,0,0,0,0,0,0,0,0,0,0,0,0,0,0,0,0,0,0,0,0,0,0,0,0,0,0,0,0,0,0,0,0,0,0,0,0,0,0,0,0,0,0,0,0,0,0,0,0,0,0,0,1739,1762,2147485423,2147485471,2147485471,1823,2147485519,2147485423,2147485519,1919,1774,1755,0,0,0,0,0,0,0,0,0,0,0,0,0,0,0,0,0,0,0,0,0,0,0,0,0,0,0,0,0,0,0,0,0,0,0,0,0,0,0,0,0,0,0,0,0,0,0,0,0,0,0,0,0,0,0,0,0,0,0,0,0,0,0,0,0,0,0,0,0,0,0,0,0,0,0,0,0,0,0,0,0,0,0,0,0,0,0,0,0,0,0,0,0,0,0,0,0,0,0,0,0,0,0,0,0,0,0,0,0,0,0,0,0,0,0,0,0,0,0,0,0,0,0,0,0,0,0,0,0,0,0,0,1733,1770,2147485471,2147485567,2147485519,2147485423,2147485471,2147485519,1871,1823,1773,1763,0,0,0,0,0,0,0,0,0,0,0,0,0,0,0,0,0,0,0,0,0,0,0,0,0,0,0,0,0,0,0,0,0,0,0,0,0,0,0,0,0,0,0,0,0,0,0,0,0,0,0,0,0,0,0,0,0,0,0,0,0,0,0,0,0,0,0,0,0,0,0,0,0,0,0,0,0,0,0,0,0,0,0,0,0,0,0,0,0,0,0,0,0,0,0,0,0,0,0,0,0,0,0,0,0,0,0,0,0,0,0,0,0,0,0,0,0,0,0,0,0,0,0,0,0,0,0,0,0,0,0,0,0,1733,1765,1770,2147485471,1775,1823,1871,1773,1765,1763,0,0,0,0,0,0,0,0,0,0,0,0,0,0,0,0,0,0,0,0,0,0,0,0,0,0,0,0,0,0,0,0,0,0,0,0,0,0,0,0,0,0,0,0,0,0,0,0,0,0,0,0,0,0,0,0,0,0,0,0,0,0,0,0,0,0,0,0,0,0,0,0,0,0,0,0,0,0,0,0,0,0,0,0,0,0,0,0,0,0,0,0,0,0,0,0,0,0,0,0,0,0,0,0,0,0,0,0,0,0,0,0,0,0,0,0,0,0,0,0,0,0,0,0,0,0,0,0,0,0,0,0,0,0,0,0,1733,1765,1765,1765,1765,1763,0,0,0,0,0,0,0,0,0,0,0,0,0,0,0,0,0,0,0,0,0,0,0,0,0,0,0,0,0,0,0,0,0,0,0,0,0,0,0,0,0,0,0,0,0,0,0,0,0,0,0,0,0,0,0,0,0,0,0,0,0,0,0,0,0,0,0,0,0,0,0,0,0,0,0,0,0,0,0,0,0,0,0,0,0,0,0,0,0,0,0,0,0,0,0,0,0,0,0,0,0,0,0,0,0,0,0,0,0,0,0,0,0,0,0,0,0,0,0,0,0,0,0,0,0,0,0,0,0,0,0,0,0,0,0,0,0,0,0,0,0,0,0,0,0,0,0,0,0,0,0,0,0,0,0,0,0,0,0,0,0,0,0,0,0,0,0,0,0,0,0,0,0,0,0,0,0,0,0,0,0,0,0,0,0,0,0,0,0,0,0,0,0,0,0,0,0,0,0,0,0,0,0,0,0,0,0,0,0,0,0,0,0,0,0,0,0,0,0,0,0,0,0,0,0,0,0,0,0,0,0,0,0,0,0,0,0,0,0,0,0,0,0,0,0,0,0,0,0,0,0,0,0,0,0,0,0,0,0,0,0,0,0,0,0,0,0,0,0,0,0,0,0,0,0,0,0,0,0,0,0,0,0,0,0,0,0,0,0,0,0,0,0,0,0,0,0,0,0,0,0,0,0,0,0,0,0,0,0,0,0,0,0,0,0,0,1739,1760,1760,4208,4208,4208,4203,0,0,0,0,0,0,0,0,0,0,0,0,0,0,0,0,0,0,0,0,0,0,0,0,0,0,0,0,0,0,0,0,0,0,0,0,0,0,0,0,0,0,0,0,0,0,0,0,0,0,0,0,0,0,0,0,0,0,0,0,0,0,0,0,0,0,0,0,0,0,0,0,0,0,0,0,0,0,0,0,0,0,0,0,0,0,0,0,0,0,0,0,0,0,0,0,0,0,0,0,0,0,0,0,0,0,0,0,0,0,0,0,0,0,0,0,0,0,0,0,0,0,0,0,0,0,0,0,0,0,0,0,0,0,0,0,0,0,0,0,2147485567,2147485519,1775,1774,1760,1755,0,0,0,0,0,0,0,0,0,0,0,0,0,0,0,0,0,0,0,0,0,0,0,0,0,0,0,0,0,0,0,0,0,0,0,0,0,0,0,0,0,0,0,0,0,0,0,0,0,0,0,0,0,0,0,0,0,0,0,0,0,0,0,0,0,0,0,0,0,0,0,0,0,0,0,0,0,0,0,0,0,0,0,0,0,0,0,0,0,0,0,0,0,0,0,0,0,0,0,0,0,0,0,0,0,0,0,0,0,0,0,0,0,0,0,0,0,0,0,0,0,0,0,0,0,0,0,0,0,0,0,0,0,0,0,0,0,0,0,2147485519,1871,2147485471,2147485471,1774,1755,0,0,0,0,0,0,0,0,0,0,0,0,0,0,0,0,0,0,0,0,0,0,0,0,0,0,0,0,0,0,0,0,0,0,0,0,0,0,0,0,0,0,0,0,0,0,0,0,0,0,0,0,0,0,0,0,0,0,0,0,0,0,0,0,0,0,0,0,0,0,0,0,0,0,0,0,0,0,0,0,0,0,0,0,0,0,0,0,0,0,0,0,0,0,0,0,0,0,0,0,0,0,0,0,0,0,0,0,0,0,0,0,0,0,0,0,0,0,0,0,0,0,0,0,0,0,0,0,0,0,0,0,0,0,0,0,0,0,0,2147485471,1775,1919,1773,1763,0,0,0,0,0,0,0,0,0,0,0,0,0,0,0,0,0,0,0,0,0,0,0,0,0,0,0,0,0,0,0,0,0,0,0,0,0,0,0,0,0,0,0,0,0,0,0,0,0,0,0,0,0,0,0,0,0,0,0,0,0,0,0,0,0,0,0,0,0,0,0,0,0,0,0,0,0,0,0,0,0,0,0,0,0,0,0,0,0,0,0,0,0,0,0,0,0,0,0,0,0,0,0,0,0,0,0,0,0,0,0,0,0,0,0,0,0,0,0,0,0,0,0,0,0,0,0,0,0,0,0,0,0,0,0,0,0,0,0,1919,1773,1765,1763,0,0,0,0,0,0,0,0,0,0,0,0,0,0,0,0,0,0,0,0,0,0,0,0,0,0,0,0,0,0,0,0,0,0,0,0,0,0,0,0,0,0,0,0,0,0,0,0,0,0,0,0,0,0,0,0,0,0,0,0,0,0,0,0,0,0,0,0,0,0,0,0,0,0,0,0,0,0,0,0,0,0,0,0,0,0,0,0,0,0,0,0,0,0,0,0,0,0,0,0,0,0,0,0,0,0,0,0,0,0,0,0,0,0,0,0,0,0,0,0,0,0,0,0,0,0,0,0,0,0,0,0,0,0,0,0,0,0,0,1733,1765,1763,0,0,0,0,0,0,0,0,0,0,0,0,0,0,0,0,0,0,0,0,0,0,0,0,0,0,0,0,0,0,0,0,0,0,0,0,0,0,0,0,0,0,0,0,0,0,0,0,0,0,0,0,0,0,0,0,0,0,0,0,0,0,0,0,0,0,0,0,0,0,0,0,0,0,0,0,0,0,0,0,0,0,0,0,0,0,0,0,0,0,0,0,0,0,0,0,0,0,0,0,0,0,0,0,0,0,0,0,0,0,0,0,0,0,0,0,0,0,0,0,0,0,0,0,0,0,0,0,0,0,0,0,0,0,0,0,0,0,0,0,0,0,0,0,0,0,0,0,0,0,0,0,0,0,0,0,0,0,0,0,0,0,0,0,0,0,0,0,0,0,0,0,0,0,0,0,0,0,0,0,0,0,0,0,0,0,0,0,0,0,0,0,0,0,0,0,0,0,0,0,0,0,0,0,0,0,0,0,0,0,0,0,0,0,0,0,0,0,0,0,0,0,0,0,0,0,0,0,0,0,0,0,0,0,0,0,0,0,0,0,0,0,0,0,0,0,0,0,0,0,0,0,0,0,0,0,0,0,0,0,0,0,0,0,0,0,0,0,0,0,0,0,0,0,0,0,0,0,0,0,0,0,0,0,0,0,0,0,0,0,0,0,0,0,0,0,0,0,0,0,0,0,0,0,0,0,0,0,0,0,0,0,0,0,0,0,0,0,0,0,0,0,0,0,0,0,0,0,0,0,0,0,0,0,0,0,0,0,0,0,0,0,0,0,0,0,0,0,0,0,0,0,0,0,0,0,0,0,0,0,0,0,0,0,0,0,0,0,0,0,0,0,0,0,0,0,0,0,0,0,0,0,0,0,0,0,0,0,0,0,0,0,0,0,0,0,0,0,0,0,0,0,0,0,0,0,0,0,0,0,0,0,0,0,0,0,0,0,0,0,0,0,0,0,0,0,0,0,0,0,0,0,0,0,0,0,0,0,0,0,0,0,0,0,0,0,0,0,0,0,0,0,0,0,0,0,0,0,0,0,0,0,0,0,0,0,0,0,0,0,0,0,0,0,0,0,0,0,0,0,0,0,0,0,0,0,0,0,0,0,0,0,0,0,0,0,0,0,0,0,0,0,0,0,0,0,0,0,0,0,0,0,0,0,0,0,0,0,0,0,0,0,0,0,0,0,0,0,0,0,0,0,0,0,0,0,0,0,0,0,0,0,0,0,0,0,0,0,0,0,0,0,0,0,0,0,0,0,0,0,0,0,0,0,0,0,0,0,0,0,0,0,0,0,0,0,0,0,0,0,0,0,0,0,0,0,0,0,0,0,0,0,0,0,0,0,0,0,0,0,0,0,0,0,0,0,0,0,0,0,0,0,0,0,0,0,0,0,0,0,0,0,0,0,0,0,0,0,0,0,0,0,0,0,0,0,0,0,0,0,0,0,0,0,0,0,0,0,0,0,0,0,0,0,0,0,0,0,0,0,0,0,0,0,0,0,0,0,0,0,0,0,0,0,0,0,0,0,0,0,0,0,0,0,0,0,0,0,0,0,0,0,0,0,0,0,0,0,0,0,0,0,0,0,0,0,0,0,0,0,0,0,0,0,0,0,0,0,0,0,0,0,0,0,0,0,0,0,0,0,0,0,0,0,0,0,0,0,0,0,0,0,0,0,0,0,0,0,0,0,0,0,0,0,0,0,0,0,0,0,0,0,0,0,0,0,0,0,0,0,0,0,0,0,0,0,0,0,0,0,0,0,0,0,0,0,0,0,0,0,0,0,0,0,0,0,0,0,0,0]},{"id":10,"name":"hills","type":"tilelayer","x":0,"y":0,"opacity":1,"visible":true,"width":144,"height":96,"data":[0,0,0,0,0,0,0,0,0,0,0,0,0,0,0,0,0,0,0,0,0,0,0,0,0,0,0,0,0,0,0,0,0,0,0,0,0,0,0,0,0,0,0,0,0,0,0,0,0,0,0,0,0,0,0,0,0,0,0,0,0,0,0,0,0,0,0,0,0,0,0,0,0,0,0,0,0,0,0,0,0,0,0,0,0,0,0,0,0,0,0,0,0,0,0,0,0,0,0,0,0,0,0,0,0,0,0,0,0,0,0,0,0,0,0,0,0,0,0,0,0,0,0,0,0,0,0,0,0,0,0,0,0,0,0,0,0,0,0,0,0,0,0,0,0,0,0,0,0,0,0,0,0,0,0,0,0,0,0,0,0,0,0,0,0,0,0,0,0,0,0,0,0,0,0,0,0,0,0,0,0,0,0,0,0,0,0,0,0,0,0,0,0,0,0,0,0,0,0,0,0,0,0,0,0,0,0,0,0,0,0,0,0,0,0,0,0,0,0,0,0,0,0,0,0,0,0,0,0,0,0,0,0,0,0,0,0,0,0,0,0,0,0,0,0,0,0,0,0,0,0,0,0,0,0,0,0,0,0,0,0,0,0,0,0,0,0,0,0,0,0,0,0,0,0,0,0,0,0,0,0,0,0,0,0,0,0,0,0,0,0,0,0,0,0,0,0,0,0,0,0,0,0,0,0,0,0,0,0,0,0,0,0,0,0,0,0,0,0,0,0,0,0,0,0,0,0,0,0,0,0,0,0,0,0,0,0,0,0,0,0,0,0,0,0,0,0,0,0,0,0,0,0,0,0,0,0,0,0,0,0,0,0,0,0,0,0,0,0,0,0,0,0,0,0,0,0,0,0,0,0,0,0,0,0,0,0,0,0,0,0,0,0,0,0,0,0,0,0,0,0,0,0,0,0,0,0,0,0,0,0,0,0,0,0,0,0,0,0,0,0,0,0,0,0,0,0,0,0,0,0,0,0,0,0,0,0,0,0,0,0,0,0,0,0,0,0,0,0,0,0,0,0,0,0,0,0,0,0,0,0,0,0,0,0,0,0,0,0,0,0,0,0,0,0,0,0,0,0,0,0,0,0,0,0,0,0,0,0,0,0,0,0,0,0,0,0,0,0,0,0,0,0,0,0,0,0,0,0,0,0,0,0,0,0,0,0,0,0,0,0,0,0,0,0,0,0,0,0,0,0,0,0,0,0,0,0,0,0,0,0,0,0,0,0,0,0,0,0,0,0,0,0,0,0,0,0,0,0,0,0,0,0,0,0,0,0,0,0,0,0,0,0,0,0,0,0,0,0,0,0,0,0,0,0,0,0,0,0,0,0,0,0,0,0,0,0,0,0,0,0,0,0,0,0,0,0,0,0,0,0,0,0,0,0,0,0,0,0,0,0,0,0,0,0,0,0,0,0,0,0,0,0,0,0,0,0,0,0,0,0,0,0,0,0,0,0,0,0,0,0,0,0,0,0,0,0,0,0,0,0,0,0,0,0,0,0,0,0,0,0,0,0,0,0,0,0,0,0,0,0,0,0,0,0,0,0,0,0,0,0,0,0,0,0,0,0,0,0,0,0,0,0,0,0,0,0,0,0,0,0,0,0,0,0,0,0,0,0,0,0,0,0,0,0,0,0,0,0,0,0,0,0,0,0,0,0,0,0,0,0,0,0,0,0,0,0,0,0,0,0,0,0,0,0,0,0,0,0,0,0,0,0,0,0,0,0,0,0,0,0,0,0,0,0,0,0,0,0,0,0,0,0,0,0,0,0,0,0,0,0,0,0,0,0,0,0,0,0,0,0,0,0,0,0,0,0,0,0,0,0,0,0,0,0,0,0,0,0,0,0,0,0,0,0,0,0,0,0,0,0,0,0,0,0,0,0,0,0,0,0,0,0,0,0,0,0,0,0,0,0,0,0,0,0,0,0,0,0,0,0,0,0,0,0,0,0,0,0,0,0,0,0,0,0,0,0,0,0,0,0,0,0,0,0,0,0,0,0,0,0,0,0,0,0,0,0,0,0,0,0,0,0,0,0,0,0,0,0,0,0,0,0,0,0,0,0,0,0,0,0,0,0,0,0,0,0,0,0,0,0,0,0,0,0,0,0,0,0,0,0,0,0,0,0,0,0,0,0,0,0,0,0,0,0,0,0,0,0,0,0,0,0,0,0,0,0,0,0,0,0,0,0,0,0,0,0,0,0,0,0,0,0,0,0,0,0,0,0,0,0,0,0,0,0,0,0,0,0,0,0,0,0,0,0,0,0,0,0,0,0,0,0,0,0,0,0,0,0,0,0,0,0,0,0,0,0,0,0,0,0,0,0,0,0,0,0,0,0,0,0,0,0,0,0,0,0,0,0,0,0,0,0,0,0,0,0,0,0,0,0,0,0,0,0,0,0,0,0,0,0,0,0,0,0,0,0,0,0,0,0,0,0,0,0,0,0,0,0,0,0,0,0,0,0,0,0,0,0,0,0,0,0,0,0,0,0,0,0,0,0,0,0,0,0,0,0,0,0,0,0,0,0,0,0,0,0,0,0,0,0,0,0,0,0,0,0,0,0,0,0,0,0,0,0,0,0,0,0,0,0,0,0,0,0,0,0,0,0,0,0,0,0,0,0,0,0,0,0,0,0,0,0,0,0,0,0,0,0,0,0,0,0,0,0,0,0,0,0,0,0,0,0,0,0,0,0,0,0,0,0,0,0,0,0,0,0,0,0,0,0,0,0,0,0,0,0,0,0,0,0,0,0,0,0,0,0,0,0,0,0,0,0,0,0,0,0,0,0,0,0,0,0,0,0,0,0,0,0,0,0,0,0,0,0,0,0,0,0,0,0,0,0,0,0,0,0,0,0,0,0,0,0,0,0,0,0,0,0,0,0,0,0,0,0,0,0,0,0,0,0,0,0,0,0,0,0,0,0,0,0,0,0,0,0,0,0,0,0,0,0,0,0,0,0,0,0,0,0,0,0,0,0,0,0,0,0,0,0,0,0,0,0,0,0,0,0,0,0,0,0,0,0,0,0,0,0,0,0,0,0,0,0,0,0,0,0,0,0,0,0,0,0,0,0,0,0,0,0,0,0,0,0,0,0,0,0,0,0,0,0,0,0,0,0,0,0,0,0,0,0,0,0,0,0,0,0,0,0,0,0,0,0,0,0,0,0,0,0,0,0,0,0,0,0,0,0,0,0,0,0,0,0,0,0,0,0,0,0,0,0,0,0,0,0,0,0,0,0,0,0,0,0,0,0,0,0,0,0,0,0,0,0,0,0,0,0,0,0,0,0,0,0,0,0,0,0,0,0,0,0,0,0,0,0,0,0,0,0,0,0,0,0,0,0,0,0,0,0,0,0,0,0,0,0,0,0,0,0,0,0,0,0,0,0,0,0,0,0,0,0,0,0,0,0,0,0,0,0,0,0,0,0,0,0,0,0,0,0,0,0,0,0,0,0,0,0,0,0,0,0,0,0,0,0,0,0,0,0,0,0,0,0,0,0,0,0,0,0,0,0,0,0,0,0,0,0,0,0,0,0,0,0,0,0,0,0,0,0,0,0,0,0,0,0,0,0,0,0,0,0,0,0,0,0,0,0,0,0,0,0,0,0,0,0,0,0,0,0,0,0,0,0,0,0,0,0,0,0,0,0,0,0,0,0,0,0,0,0,0,0,0,0,0,0,0,0,0,0,0,0,0,0,0,0,0,0,0,0,0,0,0,0,0,0,0,0,0,0,0,0,0,0,0,0,0,0,0,0,0,0,0,0,0,0,0,0,0,0,0,0,0,0,0,0,0,0,0,0,0,0,0,0,0,0,0,0,0,0,0,0,0,0,0,0,0,0,0,0,0,0,0,0,0,0,0,0,0,0,0,0,0,0,0,0,0,0,0,0,0,0,0,0,0,0,0,0,0,0,0,0,0,0,0,0,0,0,0,0,0,0,0,0,0,0,0,0,0,0,0,0,0,0,0,0,0,0,0,0,0,0,0,0,0,0,0,0,0,0,0,0,0,0,0,0,0,0,0,0,0,0,0,0,0,0,0,0,0,0,0,0,0,0,0,0,0,0,0,0,0,0,0,0,0,0,0,0,0,0,0,0,0,0,0,0,0,0,0,0,0,0,0,0,0,0,0,0,0,0,0,0,0,0,0,0,0,0,0,0,0,0,0,0,0,0,0,0,0,0,0,0,0,0,0,0,0,0,0,0,0,0,0,0,0,0,0,0,0,0,0,0,0,0,0,0,0,0,0,0,0,0,0,0,0,0,0,0,0,0,0,0,0,0,0,0,0,0,0,0,0,0,0,0,0,0,0,0,0,0,0,0,0,0,0,0,0,0,0,0,0,0,0,0,0,0,0,0,0,0,0,0,0,0,0,0,0,0,0,0,0,0,0,0,0,0,0,0,0,0,0,0,0,0,0,0,0,0,0,0,0,0,0,0,0,0,0,0,0,0,0,0,0,0,0,0,0,0,0,0,0,0,0,0,0,0,0,0,0,0,0,0,0,0,0,0,0,0,0,0,0,0,0,0,0,0,0,0,0,0,0,0,0,0,0,0,0,0,0,0,0,0,0,0,0,0,0,0,0,0,0,0,0,0,0,0,0,0,0,0,0,0,0,0,0,0,0,0,0,0,0,0,0,0,0,0,0,0,0,0,0,0,0,0,0,0,0,0,0,0,0,0,0,0,0,0,0,0,0,0,0,0,0,0,0,0,0,0,0,0,0,0,0,0,0,0,0,0,0,0,0,0,0,0,0,0,0,0,0,0,0,0,0,0,0,0,0,0,0,0,0,0,0,0,0,0,0,0,0,0,0,0,0,0,0,0,0,0,0,0,0,0,0,0,0,0,0,0,0,0,0,0,0,0,0,0,0,0,0,0,0,0,0,0,0,0,0,0,0,0,0,0,0,0,0,0,0,0,0,0,0,0,0,0,0,0,0,0,0,0,0,0,0,0,0,0,0,0,0,0,0,0,0,0,0,0,0,0,0,0,0,0,0,0,0,0,0,0,0,0,0,0,0,0,0,0,0,0,0,0,0,0,0,0,0,0,0,0,0,0,0,0,0,0,0,0,0,0,0,0,0,0,0,0,0,0,0,0,0,0,0,0,0,0,0,0,0,0,0,0,0,0,0,0,0,0,0,0,0,0,0,0,0,0,0,0,0,0,0,0,0,0,0,0,0,0,0,0,0,0,0,0,0,0,0,0,0,0,0,0,0,0,0,0,0,0,0,0,0,0,0,0,0,0,0,0,0,0,0,0,0,0,0,0,0,0,0,0,0,0,0,0,0,0,0,0,0,0,0,0,0,0,0,0,0,0,0,0,0,0,0,0,0,0,0,0,0,0,0,0,0,0,0,0,0,0,0,0,0,0,0,0,0,0,0,0,0,0,0,0,0,0,0,0,0,0,0,0,0,0,0,0,0,0,0,0,0,0,0,0,0,0,0,0,0,0,0,0,0,0,0,0,0,0,0,0,0,0,0,0,0,0,0,0,0,0,0,0,0,0,0,0,0,0,0,0,0,0,0,0,0,0,0,0,0,0,0,0,0,0,0,0,0,0,0,0,0,0,0,0,0,0,0,0,0,0,0,0,0,0,0,0,0,0,0,0,0,0,0,0,0,0,0,0,0,0,0,0,0,0,0,0,0,0,0,0,0,0,0,0,0,0,0,0,0,0,0,0,0,0,0,0,0,0,0,0,0,0,0,0,0,0,0,0,0,0,0,0,0,0,0,0,0,0,0,0,0,0,0,0,0,0,0,0,0,0,0,0,0,0,0,0,0,0,0,0,0,0,0,0,0,0,0,0,0,0,0,0,0,0,0,0,0,0,0,0,0,0,0,0,0,0,0,0,0,0,0,0,0,0,0,0,0,0,0,0,0,0,0,0,0,0,0,0,0,0,0,0,0,0,0,0,0,0,0,0,0,0,0,0,0,0,0,0,0,0,0,0,0,0,0,0,0,0,0,0,0,0,0,0,0,0,0,0,0,0,0,0,0,0,0,0,0,0,0,0,0,0,0,0,0,0,0,0,0,0,0,0,0,0,0,0,0,0,0,0,0,0,0,0,0,0,0,0,0,0,0,0,0,0,0,0,0,0,0,0,0,0,0,0,0,0,0,0,0,0,0,0,0,0,0,0,0,0,0,0,0,0,0,0,0,0,0,0,0,0,0,0,0,0,0,0,0,0,0,0,0,0,0,0,0,0,0,0,0,0,0,0,0,0,0,0,0,0,0,0,0,0,0,0,0,0,0,0,0,0,0,0,0,0,0,0,0,0,0,0,0,0,0,0,0,0,0,0,0,0,0,0,0,0,0,0,0,0,0,0,0,0,0,0,0,0,0,0,0,0,0,0,0,0,0,0,0,0,0,0,0,0,0,0,0,0,0,0,0,0,0,0,0,0,0,0,0,0,0,0,0,0,0,0,0,0,0,0,0,0,0,0,0,0,0,0,0,0,0,0,0,0,0,0,0,0,0,0,0,0,0,0,0,0,0,0,0,0,0,0,0,0,0,0,0,0,0,0,0,0,0,0,0,0,0,0,0,0,0,0,0,0,0,0,0,0,0,0,0,0,0,0,0,0,0,0,0,0,0,0,0,0,0,0,0,0,0,0,0,0,0,0,0,0,0,0,0,0,0,0,0,0,0,0,0,0,0,0,0,0,0,0,0,0,0,0,0,0,0,0,0,0,0,0,0,0,0,0,0,0,0,0,0,0,0,0,0,0,0,0,0,0,0,0,0,0,0,0,0,0,0,0,0,0,0,0,0,0,0,0,0,0,0,0,0,0,0,0,0,0,0,0,0,0,0,0,0,0,0,0,0,0,0,0,0,0,0,0,0,0,0,0,0,0,0,0,0,0,0,0,0,0,0,0,0,0,0,0,0,0,0,0,0,0,0,0,0,0,0,0,0,0,0,0,0,0,0,0,0,0,0,0,0,0,0,0,0,0,0,0,0,0,0,0,0,0,0,0,0,0,0,0,0,0,0,0,0,0,0,0,0,0,0,0,0,0,0,0,0,0,0,0,0,0,0,0,0,0,0,0,0,0,0,0,0,0,0,0,0,0,0,0,0,0,0,0,0,0,0,0,0,0,0,0,0,0,0,0,0,0,0,0,0,0,0,0,0,0,0,0,0,0,0,0,0,0,0,0,0,0,0,0,0,0,0,0,0,0,0,0,0,0,0,0,0,0,0,0,0,0,0,0,0,0,0,0,0,0,0,0,0,0,0,0,0,0,0,0,0,0,0,0,0,0,0,0,0,0,0,0,0,0,0,0,0,0,0,0,0,0,0,0,0,0,0,0,0,0,0,0,0,0,0,0,0,0,0,0,0,0,0,0,0,0,0,0,0,0,0,0,0,0,0,0,0,0,0,0,0,0,0,0,0,0,0,0,0,0,0,0,0,0,0,0,0,0,0,0,0,0,0,0,0,0,0,0,0,0,0,0,0,0,0,0,0,0,0,0,0,0,0,0,0,0,0,0,0,0,0,0,0,0,0,0,0,0,0,0,0,0,0,0,0,0,0,0,0,0,0,0,0,0,0,0,0,0,0,0,0,0,0,0,0,0,0,0,0,0,0,0,0,0,0,0,0,0,0,0,0,0,0,0,0,0,0,0,0,0,0,0,0,0,0,0,0,0,0,0,0,0,0,0,0,0,0,0,0,0,0,0,0,0,0,0,0,0,0,0,0,0,0,0,0,0,0,0,0,0,0,0,0,0,0,0,0,0,0,0,0,0,0,0,0,0,0,0,0,0,0,0,0,0,0,0,0,0,0,0,0,0,0,0,0,0,0,0,0,0,0,0,0,0,0,0,0,0,0,0,0,0,0,0,0,0,0,0,0,0,0,0,0,0,0,0,0,0,0,0,0,0,0,0,0,0,0,0,0,0,0,0,0,0,0,0,0,0,0,0,0,0,0,0,0,0,0,0,0,0,0,0,0,0,0,0,0,0,0,0,0,0,0,0,0,0,0,0,0,0,0,0,0,0,0,0,0,0,0,0,0,0,0,0,0,0,0,0,0,0,0,0,0,0,0,0,0,0,0,0,0,0,0,0,0,0,0,0,0,0,0,0,0,0,0,0,0,0,0,0,0,0,0,0,0,0,0,0,0,0,0,0,0,0,0,0,0,0,0,0,0,0,0,0,0,0,0,0,0,0,0,0,0,0,0,0,0,0,0,0,0,0,0,0,0,0,0,0,0,0,0,0,0,0,0,0,0,0,0,0,0,0,0,0,0,0,0,0,0,0,0,0,0,0,0,0,0,0,0,0,0,0,0,0,0,0,0,0,0,0,0,0,0,0,0,0,0,0,0,0,0,0,0,0,0,0,0,0,0,0,0,0,0,0,0,0,0,0,0,0,0,0,0,0,0,0,0,0,0,0,0,0,0,0,0,0,0,0,0,0,0,0,0,0,0,0,0,0,0,0,0,0,0,0,0,0,0,0,0,0,0,0,0,0,0,0,0,0,0,0,0,0,0,0,0,0,0,0,0,0,0,0,0,0,0,0,0,0,0,0,0,0,0,0,0,0,0,0,0,0,0,0,0,0,0,0,0,0,0,0,0,0,0,0,0,0,0,0,0,0,0,0,0,0,0,0,0,0,0,0,0,0,0,0,0,0,0,0,0,0,0,0,0,0,0,0,0,0,0,0,0,0,0,0,0,0,0,0,0,0,0,0,0,0,0,0,0,0,0,0,0,0,0,0,0,0,0,0,0,0,0,0,0,0,0,0,0,0,0,0,0,0,0,0,0,0,0,0,0,0,0,0,0,0,0,0,0,0,0,0,0,0,0,0,0,0,0,0,0,0,0,0,0,0,0,0,0,0,0,0,0,0,0,0,0,0,0,0,0,0,0,0,0,0,0,0,0,0,0,0,0,0,0,0,0,0,0,0,0,0,0,0,0,0,0,0,0,0,0,0,0,0,0,0,0,0,0,0,0,0,0,0,0,0,0,0,0,0,0,0,0,0,0,0,0,0,0,0,0,0,0,0,0,0,0,0,0,0,0,0,0,0,0,0,0,0,0,0,0,0,0,0,0,0,0,0,0,0,0,0,0,0,0,0,0,0,0,0,0,0,0,0,0,0,0,0,0,0,0,0,0,0,0,0,0,0,0,0,0,0,0,0,0,0,0,0,0,0,0,0,0,0,0,0,0,0,0,0,0,0,0,0,0,0,0,0,0,0,0,0,0,0,0,0,0,0,0,0,0,0,0,0,0,0,0,0,0,0,0,0,0,0,0,0,0,0,0,0,0,0,0,0,0,0,0,0,0,0,0,0,0,0,0,0,0,0,0,0,0,0,0,0,0,0,0,0,0,0,0,0,0,0,0,0,0,0,0,0,0,0,0,0,0,0,0,0,0,0,0,0,0,0,0,0,0,0,0,0,0,0,0,0,0,0,0,0,0,0,0,0,0,0,0,0,0,0,0,0,0,0,0,0,0,0,0,0,0,0,0,0,0,0,0,0,0,0,0,0,0,0,0,0,0,0,0,0,0,0,0,0,0,0,0,0,0,0,0,0,0,0,0,0,0,0,0,0,0,0,0,0,0,0,0,0,0,0,0,0,0,0,0,0,0,0,0,0,0,0,0,0,0,0,0,0,0,0,0,0,0,0,0,0,0,0,0,0,0,0,0,0,0,0,0,0,0,0,0,0,0,0,0,0,0,0,0,0,0,0,0,0,0,0,0,0,0,0,0,0,0,0,0,0,0,0,0,0,0,0,0,0,0,0,0,0,0,0,0,0,0,0,0,0,0,0,0,0,0,0,0,0,0,0,0,0,0,0,0,0,0,0,0,0,0,0,0,0,0,0,0,0,0,0,0,0,0,0,0,0,0,0,0,0,0,0,0,0,0,0,0,0,0,0,0,0,0,0,0,0,0,0,0,0,0,0,0,0,0,0,0,0,0,0,0,0,0,0,0,0,0,0,0,0,0,0,0,0,0,0,0,0,0,0,0,0,0,0,0,0,0,0,0,0,0,0,0,0,0,0,0,0,0,0,0,0,0,0,0,0,0,0,0,0,0,0,0,0,0,0,0,0,0,0,0,0,0,0,0,0,0,0,0,0,0,0,0,0,0,0,0,0,0,0,0,0,0,0,0,0,0,0,0,0,0,0,0,0,0,0,0,0,0,0,0,0,0,0,0,0,0,0,0,0,0,0,0,0,0,0,0,0,0,0,0,0,0,0,0,0,0,0,0,0,0,0,0,0,0,0,0,0,0,0,0,0,0,0,0,0,0,0,0,0,0,0,0,0,0,0,0,0,0,0,0,0,0,0,0,0,0,0,0,0,0,0,0,0,0,0,0,0,0,0,0,0,0,0,0,0,0,0,0,0,0,0,0,0,0,0,0,0,0,0,0,0,0,0,0,0,0,0,0,0,0,0,0,0,0,0,0,0,0,0,0,0,0,0,0,0,0,0,0,0,0,0,0,0,0,0,0,0,0,0,0,0,0,0,0,0,0,0,0,0,0,0,0,0,0,0,0,0,0,0,0,0,0,0,0,0,0,0,0,0,0,0,0,0,0,0,0,0,0,0,0,0,0,0,0,0,0,0,0,0,0,0,0,0,0,0,0,1931,1952,1952,1952,1952,1952,1952,1947,0,0,0,0,0,1931,1952,1952,1952,1952,1947,0,0,0,0,0,0,0,0,0,0,0,0,0,0,0,0,0,0,0,0,0,0,0,0,0,0,0,0,0,0,0,0,0,0,0,0,0,0,0,0,0,0,0,0,0,0,0,0,0,0,0,0,0,0,0,0,0,0,0,0,0,0,0,0,0,0,0,0,0,0,0,0,0,0,0,0,0,0,0,0,0,0,0,0,0,0,0,0,0,0,0,0,0,0,0,0,0,0,0,0,0,0,0,0,0,0,0,0,0,0,0,0,0,0,0,0,0,0,0,0,0,0,0,0,1952,1954,2111,2063,2147485615,2147485663,2147485663,2015,1966,1952,1947,0,0,1931,1954,2015,2111,2147485711,2147485615,1966,1947,0,0,0,0,0,0,0,0,0,0,0,0,0,0,0,0,0,0,0,0,0,0,0,0,0,0,0,0,0,0,0,0,0,0,0,0,0,0,0,0,0,0,0,0,0,0,0,0,0,0,0,0,0,0,0,0,0,0,0,0,0,0,0,0,0,0,0,0,0,0,0,0,0,0,0,0,0,0,0,0,0,0,0,0,0,0,0,0,0,0,0,0,0,0,0,0,0,0,0,0,0,0,0,0,0,0,0,0,0,0,0,0,0,0,0,0,0,0,0,0,0,0,1954,2015,2111,2147485711,2147485711,2015,2147485711,2147485759,2147485663,2147485663,2063,1966,1947,0,1933,1965,1957,0,0,0,0,0,0,0,0,0,0,0,0,0,0,0,0,0,0,0,0,0,0,0,0,0,0,0,0,0,0,0,0,0,0,0,0,0,0,0,0,0,0,0,0,0,0,0,0,0,0,0,0,0,0,0,0,0,0,0,0,0,0,0,0,0,0,0,0,0,0,0,0,0,0,0,0,0,0,0,0,0,0,0,0,0,0,0,0,0,0,0,0,0,0,0,0,0,0,0,0,0,0,0,0,0,0,0,0,0,0,0,0,0,0,0,0,0,0,0,0,0,0,0,0,0,1923,0,2015,2111,2147485711,2147485759,2147485615,1967,2063,2147485759,2147485711,2147485615,0,0,0,0,0,0,0,0,1925,1957,1955,0,0,0,0,0,0,0,0,0,0,0,0,0,0,0,0,0,0,0,0,0,0,0,0,0,0,0,0,0,0,0,0,0,0,0,0,0,0,0,0,0,0,0,0,0,0,0,0,0,0,0,0,0,0,0,0,0,0,0,0,0,0,0,0,0,0,0,0,0,0,0,0,0,0,0,0,0,0,0,0,0,0,0,0,0,0,0,0,0,0,0,0,0,0,0,0,0,0,0,0,0,0,0,0,0,0,0,0,0,0,0,0,0,0,0,0,0,0,0,0,0,0,1933,2147485711,2015,2147485615,0,0,0,0,0,0,0,0,2063,1965,1955,0,0,0,0,0,0,0,0,0,0,0,0,0,0,0,0,0,0,0,0,0,0,0,0,0,0,0,0,0,0,0,0,0,0,0,0,0,0,0,0,0,0,0,0,0,0,0,0,0,0,0,0,0,0,0,0,0,0,0,0,0,0,0,0,0,0,0,0,0,0,0,0,0,0,0,0,0,0,0,0,0,0,0,0,0,0,0,0,0,0,0,0,0,0,0,0,0,0,0,0,0,0,0,0,0,0,0,0,0,0,0,0,0,0,0,0,0,0,0,0,0,0,0,0,0,0,0,0,0,0,0,0,0,0,1967,2015,2147485711,1967,2147485615,2111,2147485711,1965,1955,0,0,0,0,0,0,0,0,0,0,0,0,0,0,0,0,0,0,0,0,0,0,0,0,0,0,0,0,0,0,0,0,0,0,0,0,0,0,0,0,0,0,0,0,0,0,0,0,0,0,0,0,0,0,0,0,0,0,0,0,0,0,0,0,0,0,0,0,0,0,0,0,0,0,0,0,0,0,0,0,0,0,0,0,0,0,0,0,0,0,0,0,0,0,0,0,0,0,0,0,0,0,0,0,0,0,0,0,0,0,0,0,0,0,0,0,0,0,0,0,0,0,0,0,0,0,0,0,0,0,0,1925,1957,1962,2147485711,2147485663,1967,2147485711,2147485663,2111,1965,1957,1955,0,0,0,0,0,0,0,0,0,0,0,0,0,0,0,0,0,0,0,0,0,0,0,0,0,0,0,0,0,0,0,0,0,0,0,0,0,0,0,0,0,0,0,0,0,0,0,0,0,0,0,0,0,0,0,0,0,0,0,0,0,0,0,0,0,0,0,0,0,0,0,0,0,0,0,0,0,0,0,0,0,0,0,0,0,0,0,0,0,0,0,0,0,0,0,0,0,0,0,0,0,0,0,0,0,0,0,0,0,0,0,0,0,0,0,0,0,0,0,0,0,0,0,0,0,0,0,0,0,0,0,0,0,0,1925,1957,1957,1957,1957,1957,1957,1955,0,0,0,0,0,0,0,0,0,0,0,0,0,0,0,0,0,0,0,0,0,0,0,0,0,0,0,0,0,0,0,0,0,0,0,0,0,0,0,0,0,0,0,0,0,0,0,0,0,0,0,0,0,0,0,0,0,0,0,0,0,0,0,0,0,0,0,0,0,0,0,0,0,0,0,0,0,0,0,0,0,0,0,0,0,0,0,0,0,0,0,0,0,0,0,0,0,0,0,0,0,0,0,0,0,0,0,0,0,0,0,0,0,0,0,0,0,0,0,0,0,0,0,0,0,0,0,0,0,0,0,0,0,0,0,0,0,0,0,0,0,0,0,0,0,0,0,0,0,0,0,0,0,0,0,0,0,0,0,0,0,0,0,0,0,0,0,0,0,0,0,0,0,0,0,0,0,0,0,0,0,0,0,0,0,0,0,0,0,0,0,0,0,0,0,0,0,0,0,0,0,0,0,0,0,0,0,0,0,0,0,0,0,0,0,0,0,0,0,0,0,0,0,0,0,0,0,0,0,0,0,0,0,0,0,0,0,0,0,0,0,0,0,0,0,0,0,0,0,0,0,0,0,0,0,0,0,0,0,0,0,0,0,0,0,0,0,0,0,0,0,0,0,0,0,0,0,0,0,0,0,0,0,0,0,0,0,0,0,0,0,0,0,0,0,0,0,0,0,0,0,0,0,0,0,0,0,0,0,0,0,0,0,0,0,0,0,0,0,0,0,0,0,0,0,0,0,0,0,0,0,0,0,0,0,0,0,0,0,0,0,0,0,0,0,0,0,0,0,0,0,0,0,0,0,0,0,0,0,0,0,0,0,0,0,0,0,0,0,0,0,0,0,0,0,0,0,0,0,0,0,0,0,0,0,0,0,0,0,0,0,0,0,0,0,0,0,0,0,0,0,0,0,0,0,0,0,0,0,0,0,0,0,0,0,0,0,0,0,0,0,0,0,0,0,0,0,0,0,0,0,0,0,0,0,0,0,0,0,0,0,0,0,0,0,0,0,0,0,0,0,0,0,0,0,0,0,0,0,0,0,0,0,0,0,0,0,0,0,0,0,0,0,0,0,0,0,0,0,0,0,0,0,0,0,0,0,0,0,0,0,0,0,0,0,0,0,0,0,0,0,0,0,0,0,0,0,0,0,0,0,0,0,0,0,0,0,0,0,0,0,0,0,0,0,0,0,0,0,0,0,0,0,0,0,0,0,0,0,0,0,0,0,0,0,0,0,0,0,0,0,0,0,0,0,0,0,0,0,0,0,0,0,0,0,0,0,0,0,0,0,0,0,0,0,0,0,0,0,0,0,0,0,0,0,0,0,0,0,0,0,0,0,0,0,0,0,0,0,0,0,0,0,0,0,0,0,0,0,0,0,0,0,0,0,0,0,0,0,0,0,0,0,0,0,0,0,0,0,0,0,0,0,0,0,0,0,0,0,0,0,0,0,0,0,0,0,0,0,0,0,0,0,0,0,0,0,0,0,0,0,0,0,0,0,0,0,0,0,0,0,0,0,0,0,0,0,0,0,0,0,0,0,0,0,0,0,0,0,0,0,0,0,0,0,0,0,0,0,0,0,0,0,0,0,0,0,0,0,0,0,0,0,0,0,0,0,0,0,0,0,0,0,0,0,0,0,0,0,0,0,0,0,0,0,0,0,0,0,0,0,0,0,0,0,0,0,0,0,0,0,0,0,0,0,0,0,0,0,0,0,0,0,0,0,0,0,0,0,0,0,0,0,0,0,0,0,0,0,0,0,0,0,0,0,0,0,0,0,0,0,0,0,0,0,0,0,0,0,0,0,0,0,0,0,0,0,0,0,0,0,0,0,0,0,0,0,0,0,0,0,0,0,0,0,0,0,0,0,0,0,0,0,0,0,0,0,0,0,0,0,0,0,0,0,0,0,0,0,0,0,0,0,0,0,0,0,0,0,0,0,0,0,0,0,0,0,0,0,0,0,0,0,0,0,0,0,0,0,0,0,0,0,0,0,0,0,0,0,0,0,0,0,0,0,0,0,0,0,0,0,0,0,0,0,0,0,0,0,0,0,0,0,0,0,0,0,0,0,0,0,0,0,0,0,0,0,0,0,0,0,0,0,0,0,0,0,0,0,0,0,0,0,0,0,0,0,0,0,0,0,0,0,0,0,0,0,0,0,0,0,0,0,0,0,0,0,0,0,0,0,0,0,0,0,0,0,0,0,0,0,0,0,0,0,0,0,0,0,0,0,0,0,0,0,0,0,0,0,0,0,0,0,0,0,0,0,0,0,0,0,0,0,0,0,0,0,0,0,0,0,0,0,0,0,0,0,0,0,0,0,0,0,0,0,0,0,0,0,0,0,0,0,0,0,0,0,0,0,0,0,0,0,0,0,0,0,0,0,0,0,0,0,0,0,0,0,0,0,0,0,0,0,0,0,0,0,0,0,0,0,0,0,0,0,0,0,0,0,0,0,0,0,0,0,0,0,0,0,0,0,0,0,0,0,0,0,0,0,0,0,0,0,0,0,0,0,0,0,0,0,0,0,0,0,0,0,0,0,0,0,0,0,0,0,0,0,0,0,0,0,0,0,0,0,0,0,0,0,0,0,0,0,0,0,0,0,0,0,0,0,0,0,0,0,0,0,0,0,0,0,0,0,0,0,0,0,0,0,0,0,0,0,0,0,0,0,0,0,0,0,0,0,0,0,0,0,0,0,0,0,0,0,0,0,0,0,0,0,0,0,0,0,0,0,0,0,0,0,0,0,0,0,0,0,0,0,0,0,0,0,0,0,0,0,0,0,0,0,0,0,0,0,0,0,0,0,0,0,0,0,0,0,0,0,0,0,0,0,0,0,0,0,0,0,0,0,0,0,0,0,0,0,0,0,0,0,0,0,0,0,0,0,0,0,0,0,0,0,0,0,0,0,0,0,0,0,0,0,0,0,0,0,0,0,0,0,0,0,0,0,0,0,0,0,0,0,0,0,0,0,0,0,0,0,0,0,0,0,0,0,0,0,0,0,0,0,0,0,0,0,0,0,0,0,0,0,0,0,0,0,0,0,0,0,0,0,0,0,0,0,0,0,0,0,0,0,0,0,0,0,0,0,0,0,0,0,0,0,0,0,0,0,0,0,0,0,0,0,0,0,0,0,0,0,0,0,0,0,0,0,0,0,0,0,0,0,0,0,0,0,0,0,0,0,0,0,0,0,0,0,0,0,0,0,0,0,0,0,0,0,0,0,0,0,0,0,0,0,0,0,0,0,0,0,0,0,0,0,0,0,0,0,0,0,0,0,0,0,0,0,0,0,0,0,0,0,0,0,0,0,0,0,0,0,0,0,0,0,0,0,0,0,0,0,0,0,0,0,0,0,0,0,0,0,0,0,0,0,0,0,0,0,0,0,0,0,0,0,0,0,0,0,0,0,0,0,0,0,0,0,0,0,0,0,0,0,0,0,0,0,0,0,0,0,0,0,0,0,0,0,0,0,0,0,0,0,0,0,0,0,0,0,0,0,0,0,0,0,0,0,0,0,0,0,0,0,0,0,0,0,0,0,0,0,0,0,0,0,0,0,0,0,0,0,0,0,0,0,0,0,0,0,0,0,0,0,0,0,0,0,0,0,0,0,0,0,0,0,0,0,0,0,0,0,0,0,0,0,0,0,0,0,0,0,0,0,0,0,0,0,0,0,0,0,0,0,0,0,0,0,0,0,0,0,0,0,0,0,0,0,0,0,0,0,0,0,0,0,0,0,0,0,0,0,0,0,0,0,0,0,0,0,0,0,0,0,0,0,0,0,0,0,0,0,0,0,0,0,0,0,0,0,0,0,0,0,0,0,0,0,0,0,0,0,0,0,0,0,0,0,0,0,0,0,0,0,0,0,0,0,0,0,0,0,0,0,0,0,0,0,0,0,0,0,0,0,0,0,0,0,0,0,0,0,0,0,0,0,0,0,0,0,0,0,0,0,0,0,0,0,0,0,0,0,0,0,0,0,0,0,0,0,0,0,0,0,0,0,0,0,0,0,0,0,0,0,0,0,0,0,0,0,0,0,0,0,0,0,0,0,0,0,0,0,0,0,0,0,0,0,0,0,0,0,0,0,0,0,0,0,0,0,0,0,0,0,0,0,0,0,0,0,0,0,0,0,0,0,0,0,0,0,0,0,0,0,0,0,0,0,0,0,0,0,0,0,0,0,0,0,0,0,0,0,0,0,0,0,0,0,0,0,0,0,0,0,0,0,0,0,0,0,0,0,0,0,0,0,0,0,0,0,0,0,0,0,0,0,0,0,0,0,0,0,0,0,0,0,0,0,0,0,0,0,0,0,0,0,0,0,0,0,0,0,0,0,0,0,0,0,0,0,0,0,0,0,0,0,0,0,0,0,0,0,0,0,0,0,0,0,0,0,0,0,0,0,0,0,0,0,0,0,0,0,0,0,0,0,0,0,0,0,0,0,0,0,0,0,0,0,0,0,0,0,0,0,0,0,0,0,0,0,0,0,0,0,0,0,0,0,0,0,0,0,0,0,0,0,0,0,0,0,0,0,0,0,0,0,0,0,0,0,0,0,0,0,0,0,0,0,0,0,0,0,0,0,0,0,0,0,0,0,0,0,0,0,0,0,0,0,0,0,0,0,0,0,0,0,0,0,0,0,0,0,0,0,0,0,0,0,0,0,0,0,0,0,0,0,0,0,0,0,0,0,0,0,0,0,0,0,0,0,0,0,0,0,0,0,0,0,0,0,0,0,0,0,0,0,0,0,0,0,0,0,0,0,0,0,0,0,0,0,0,0,0,0,0,0,0,0,0,0,0,0,0,0,0,0,0,0,0,0,0,0,0,0,0,0,0,0,0,0,0,0,0,0,0,0,0,0,0,0,0,0,0,0,0,0,0,0,0,0,0,0,0,0,0,0,0,0,0,0,0,0,0,0,0,0,0,0,0,0,0,0,0,0,0,0,0,0,0,0,0,0,0,0,0,0,0,0,0,0,0,0,0,0,0,0,0,0,0,0,0,0,0,0,0,0,0,0,0,0,0,0,0,0,0,0,0,0,0,0,0,0,0,0,0,0,0,0,0,0,0,0,0,0,0,0,0,0,0,0,0,0,0,0,0,0,0,0,0,0,0,0,0,0,0,0,0,0,0,0,0,0,0,0,0,0,0,0,0,0,0,0,0,0,0,0,0,0,0,0,0,0,0,0,0,0,0,0,0,0,0,0,0,0,0,0,0,0,0,0,0,0,0,0,0,0,0,0,0,0,0,0,0,0,0,0,0,0,0,0,0,0,0,0,0,0,0,0,0,0,0,0,0,0,0,0,0,0,0,0,0,0,0,0,0,0,0,0,0,0,0,0,0,0,0,0,0,0,0,0,0,0,0,0,0,0,0,0,0,0,0,0,0,0,0,0,0,0,0,0,0,0,0,0,0,0,0,0,0,0,0,0,0,0,0,0,0,0,0,0,0,0,0,0,0,0,0,0,0,0,0,0,0,0,0,0,0,0,0,0,0,0,0,0,0,0,0,0,0,0,0,0,0,0,0,0,0,0,0,0,0,0,0,0,0,0,0,0,0,0,0,0,0,0,0,0,0,0,0,0,0,0,0,0,0,0,0,0,0,0,0,0,0,0,0,0,0,0,0,0,0,0,0,0,0,0,0,0,0,0,0,0,0,0,0,0,0,0,0,0,0,0,0,0,0,0,0,0,0,0,0,0,0,0,0,0,0,0,0,0,0,0,0,0,0,0,0,0,0,0,0,0,0,0,0,0,0,0,0,0,0,0,0,0,0,0,0,0,0,0,0,0,0,0,0,0,0,0,0,0,0,0,0,0,0,0,0,0,0,0,0,0,0,0,0,0,0,0,0,0,0,0,0,0,0,0,0,0,0,0,0,0,0,0,0,0,0,0,0,0,0,0,0,0,0,0,0,0,0,0,0,0,0,0,0,0,0,0,0,0,0,0,0,0,0,0,0,0,0,0,0,0,0,0,0,0,0,0,0,0,0,0,0,0,0,0,0,0,0,0,0,0,0,0,0,0,0,0,0,0,0,0,0,0,0,0,0,0,0,0,0,0,0,0,0,0,0,0,0,0,0,0,0,0,0,0,0,0,0,0,0,0,0,0,0,0,0,0,0,0,0,0,0,0,0,0,0,0,0,0,0,0,0,0,0,0,0,0,0,0,0,0,0,0,0,0,0,0,0,0,0,0,0,0,0,0,0,0,0,0,0,0,0,0,0,0,0,0,0,0,0,0,0,0,0,0,0,0,0,0,0,0,0,0,0,0,0,0,0,0,0,0,0,0,0,0,0,0,0,0,0,0,0,0,0,0,0,0,0,0,0,0,0,0,0,0,0,0,0,0,0,0,0,0,0,0,0,0,0,0,0,0,0,0,0,0,0,0,0,0,0,0,1931,1952,1952,1952,1952,1947,0,0,0,0,0,0,0,0,0,0,0,0,0,0,0,0,0,0,0,0,0,0,0,0,0,0,0,0,0,0,0,0,0,0,0,0,0,0,0,0,0,0,0,0,0,0,0,0,0,0,0,0,0,0,0,0,0,0,0,0,0,0,0,0,0,0,0,0,0,0,0,0,0,0,0,0,0,0,0,0,0,0,0,0,0,0,0,0,0,0,0,0,0,0,0,0,0,0,0,0,0,0,0,0,0,0,0,0,0,0,0,0,0,0,0,0,0,0,0,0,0,0,0,0,0,0,0,0,0,0,0,0,0,0,0,0,4235,4256,1954,2147485711,2147485759,2147485711,2015,1966,1952,1947,0,0,0,0,0,0,0,0,0,0,0,0,0,0,0,0,0,0,0,0,0,0,0,0,0,0,0,0,0,0,0,0,0,0,0,0,0,0,0,0,0,0,0,0,0,0,0,0,0,0,0,0,0,0,0,0,0,0,0,0,0,0,0,0,0,0,0,0,0,0,0,0,0,0,0,0,0,0,0,0,0,0,0,0,0,0,0,0,0,0,0,0,0,0,0,0,0,0,0,0,0,0,0,0,0,0,0,0,0,0,0,0,0,0,0,0,0,0,0,0,0,0,0,0,0,0,0,0,0,0,0,0,0,4235,4258,2147485711,2147485663,2063,2147485663,2147485663,1967,2147485615,2147485759,1966,4251,0,0,0,0,0,0,0,0,0,0,0,0,0,0,0,0,0,0,0,0,0,0,0,0,0,0,0,0,0,0,0,0,0,0,0,0,0,0,0,0,0,0,0,0,0,0,0,0,0,0,0,0,0,0,0,0,0,0,0,0,0,0,0,0,0,0,0,0,0,0,0,0,0,0,0,0,0,0,0,0,0,0,0,0,0,0,0,0,0,0,0,0,0,0,0,0,0,0,0,0,0,0,0,0,0,0,0,0,0,0,0,0,0,0,0,0,0,0,0,0,0,0,0,0,0,0,0,0,0,0,0,0,4229,4266,2063,2015,1967,1967,2147485615,2147485711,2147485663,2147485663,4269,4259,0,0,0,0,0,0,0,0,0,0,0,0,0,0,0,0,0,0,0,0,0,0,0,0,0,0,0,0,0,0,0,0,0,0,0,0,0,0,0,0,0,0,0,0,0,0,0,0,0,0,0,0,0,0,0,0,0,0,0,0,0,0,0,0,0,0,0,0,0,0,0,0,0,0,0,0,0,0,0,0,0,0,0,0,0,0,0,0,0,0,0,0,0,0,0,0,0,0,0,0,0,0,0,0,0,0,0,0,0,0,0,0,0,0,0,0,0,0,0,0,0,0,0,0,0,0,0,0,0,0,0,0,0,4229,4261,4266,2111,2147485615,2111,2147485711,4269,4261,4259,0,0,0,0,0,0,0,0,0,0,0,0,0,0,0,0,0,0,0,0,0,0,0,0,0,0,0,0,0,0,0,0,0,0,0,0,0,0,0,0,0,0,0,0,0,0,0,0,0,0,0,0,0,0,0,0,0,0,0,0,0,0,0,0,0,0,0,0,0,0,0,0,0,0,0,0,0,0,0,0,0,0,0,0,0,0,0,0,0,0,0,0,0,0,0,0,0,0,0,0,0,0,0,0,0,0,0,0,0,0,0,0,0,0,0,0,0,0,0,0,0,0,0,0,0,0,0,0,0,0,0,0,0,0,0,0,4229,4261,4261,4261,4261,4259,0,0,0,0,0,0,0,0,0,0,0,0,0,0,0,0,0,0,0,0,0,0,0,0,0,0,0,0,0,0,0,0,0,0,0,0,0,0,0,0,0,0,0,0,0,0,0,0,0,0,0,0,0,0,0,0,0,0,0,0,0,0,0,0,0,0,0,0,0,0,0,0,0,0,0,0,0,0,0,0,0,0,0,0,0,0,0,0,0,0,0,0,0,0,0,0,0,0,0,0,0,0,0,0,0,0,0,0,0,0,0,0,0,0,0,0,0,0,0,0,0,0,0,0,0,0,0,0,0,0,0,0,0,0,0,0,0,0,0,0,0,0,0,0,0,0,0,0,0,0,0,0,0,0,0,0,0,0,0,0,0,0,0,0,0,0,0,0,0,0,0,0,0,0,0,0,0,0,0,0,0,0,0,0,0,0,0,0,0,0,0,0,0,0,0,0,0,0,0,0,0,0,0,0,0,0,0,0,0,0,0,0,0,0,0,0,0,0,0,0,0,0,0,0,0,0,0,0,0,0,0,0,0,0,0,0,0,0,0,0,0,0,0,0,0,0,0,0,0,0,0,0,0,0,0,0,0,0,0,0,0,0,0,0,0,0,0,0,0,0,0,0,0,0,0,0,0,0,0,0,0,0,0,0,0,0,0,0,0,0,0,0,0,0,0,0,0,0,0,0,0,0,0,0,0,0,0,0,0,0,0,0,0,0,0,0,0,0,0,0,0,0,0,0,0,0,0,0,0,0,0,0,0,0,0,0,0,0,0,0,0,0,0,0,0,0,0,0,0,0,0,0,0,0,0,0,0,0,0,0,0,0,0,0,0,0,0,0,0,0,0,0,0,0,0,0,0,0,0,0,0,0,0,0,0,0,0,0,0,0,0,0,0,0,0,0,0,0,0,0,0,0,0,0,0,0,0,0,0,0,0,0,0,0,0,0,0,0,0,0,0,0,0,0,0,0,0,0,0,0,0,0,0,0,0,0,0,0,0,0,0,0,0,0,0,0,0,0,0,0,0,0,0,0,0,0,0,0,0,0,0,0,0,0,0,0,0,0,0,0,0,0,0,0,0,0,0,0,0,0,0,0,0,0,0,0,0,0,0,0,0,0,0,0,0,0,0,0,0,0,0,0,0,0,0,0,0,0,0,0,0,0,0,0,0,0,0,0,0,0,0,0,0,0,0,0,0,0,0,0,0,0,0,0,0,0,0,0,0,0,0,0,0,0,0,0,0,0,0,0,0,0,0,0,0,0,0,0,0,0,0,0,0,0,0,0,0,0,0,0,0,0,0,0,0,0,0,0,0,0,0,0,0,0,0,0,0,0,0,0,0,0,0,0,0,0,0,0,0,0,0,0,0,0,0,0,0,0,0,0,0,0,0,0,0,0,0,0,0,0,0,0,0,0,0,0,0,0,0,0,0,0,0,0,0,0,0,0,0,0,0,0,0,0,0,0,0,0,0,0,0,0,0,0,0,0,0,0,0,0,0,0,0,0,0,0,0,0,0,0,0,0,0,0,0,0,0,0,0,0,0,0,0,0,0,0,0,0,0,0,0,0,0,0,0,0,0,0,0,0,0,0,0,0,0,0,0,0,0,0,0,0,0,0,0,0,0,0,0,0,0,0,0,0,0,0,0,0,0,0,0,0,0,0,0,0,0,0,0,0,0,0,0,0,0,0,0,0,0,0,0,0,0,0,0,0,0,0,0,0,0,0,0,0,0,0,0,0,0,0,0,0,0,0,0,0,0,0,0,0,0,0,0,0,0,0,0,0,0,0,0,0,0,0,0,0,0,0,0,0,0,0,0,0,0,0,0,0,0,0,0,0,0,0,0,0,0,0,0,0,0,0,0,0,0,0,0,0,0,0,0,0,0,0,0,0,0,0,0,0,0,0,0,0,0,0,0,0,0,0,0,0,0,0,0,0,0,0,0,0,0,0,0,0,0,0,0,0,0,0,0,0,0,0,0,0,0,0,0,0,0,0,0,0,0,0,0,0,0,0,0,0,0,0,0,0,0,0,0,0,0,0,0,0,0,0,0,0,0,0,0,0,0,0,0,0,0,0,0,0,0,0,0,0,0,0,0,0,0,0,0,0,0,0,0,0,0,0,0,0,0,0,0,0,0,0,0,0,0,0,0,0,0,0,0,0,0,0,0,0,0,0,0,0,0,0,0,0,0,0,0,0,0,0,0,0,0,0,0,0,0,0,0,0,0,0,0,0,0,0,0,0,0,0,0,0,0,0,0,0,0,0,0,0,0,0,0,0,0,0,0,0,0,0,0,0,4235,1952,1952,1952,1952,1947,0,0,0,0,0,0,0,0,0,0,0,0,0,0,0,0,0,0,0,0,0,0,0,0,0,0,0,0,0,0,0,0,0,0,0,0,0,0,0,0,0,0,0,0,0,0,0,0,0,0,0,0,0,0,0,0,0,0,0,0,0,0,0,0,0,0,0,0,0,0,0,0,0,0,0,0,0,0,0,0,0,0,0,0,0,0,0,0,0,0,0,0,0,0,0,0,0,0,0,0,0,0,0,0,0,0,0,0,0,0,0,0,0,0,0,0,0,0,0,0,0,0,0,0,0,0,0,0,0,0,0,0,0,0,0,0,4235,4256,4258,2111,2063,2111,2063,1966,1952,1947,0,0,0,0,0,0,0,0,0,0,0,0,0,0,0,0,0,0,0,0,0,0,0,0,0,0,0,0,0,0,0,0,0,0,0,0,0,0,0,0,0,0,0,0,0,0,0,0,0,0,0,0,0,0,0,0,0,0,0,0,0,0,0,0,0,0,0,0,0,0,0,0,0,0,0,0,0,0,0,0,0,0,0,0,0,0,0,0,0,0,0,0,0,0,0,0,0,0,0,0,0,0,0,0,0,0,0,0,0,0,0,0,0,0,0,0,0,0,0,0,0,0,0,0,0,0,0,0,0,0,0,0,0,4235,4258,1967,2147485759,2147485759,2063,2147485663,2015,2147485711,1967,1966,4347,0,0,0,0,0,0,0,0,0,0,0,0,0,0,0,0,0,0,0,0,0,0,0,0,0,0,0,0,0,0,0,0,0,0,0,0,0,0,0,0,0,0,0,0,0,0,0,0,0,0,0,0,0,0,0,0,0,0,0,0,0,0,0,0,0,0,0,0,0,0,0,0,0,0,0,0,0,0,0,0,0,0,0,0,0,0,0,0,0,0,0,0,0,0,0,0,0,0,0,0,0,0,0,0,0,0,0,0,0,0,0,0,0,0,0,0,0,0,0,0,0,0,0,0,0,0,0,0,0,0,0,0,4277,4314,2015,2015,2147485615,2111,2147485615,1967,2015,2147485711,1965,4355,0,0,0,0,0,0,0,0,0,0,0,0,0,0,0,0,0,0,0,0,0,0,0,0,0,0,0,0,0,0,0,0,0,0,0,0,0,0,0,0,0,0,0,0,0,0,0,0,0,0,0,0,0,0,0,0,0,0,0,0,0,0,0,0,0,0,0,0,0,0,0,0,0,0,0,0,0,0,0,0,0,0,0,0,0,0,0,0,0,0,0,0,0,0,0,0,0,0,0,0,0,0,0,0,0,0,0,0,0,0,0,0,0,0,0,0,0,0,0,0,0,0,0,0,0,0,0,0,0,0,0,0,0,4277,4309,4314,1967,2015,2063,2147485663,1965,1957,1955,0,0,0,0,0,0,0,0,0,0,0,0,0,0,0,0,0,0,0,0,0,0,0,0,0,0,0,0,0,0,0,0,0,0,0,0,0,0,0,0,0,0,0,0,0,0,0,0,0,0,0,0,0,0,0,0,0,0,0,0,0,0,0,0,0,0,0,0,0,0,0,0,0,0,0,0,0,0,0,0,0,0,0,0,0,0,0,0,0,0,0,0,0,0,0,0,0,0,0,0,0,0,0,0,0,0,0,0,0,0,0,0,0,0,0,0,0,0,0,0,0,0,0,0,0,0,0,0,0,0,0,0,0,0,0,0,4277,4309,4309,4309,4309,1955,0,0,0,0,0,0,0,0,0,0,0,0,0,0,0,0,0,0,0,0,0,0,0,0,0,0,0,0,0,0,0,0,0,0,0,0,0,0,0,0,0,0,0,0,0,0,0,0,0,0,0,0,0,0,0,0,0,0,0,0,0,0,0,0,0,0,0,0,0,0,0,0,0,0,0,0,0,0,0,0,0,0,0,0,0,0,0,0,0,0,0,0,0,0,0,0,0,0,0,0,0,0,0,0,0,0,0,0,0,0,0,0,0,0,0,0,0,0,0,0,0,0,0,0,0,0,0,0,0,0,0,0,0,0,0,0,0,0,0,0,0,0,0,0,0,0,0,0,0,0,0,0,0,0,0,0,0,0,0,0,0,0,0,0,0,0,0,0,0,0,0,0,0,0,0,0,0,0,0,0,0,0,0,0,0,0,0,0,0,0,0,0,0,0,0,0,0,0,0,0,0,0,0,0,0,0,0,0,0,0,0,0,0,0,0,0,0,0,0,0,0,0,0,0,0,0,0,0,0,0,0,0,0,0,0,0,0,0,0,0,0,0,0,0,0,0,0,0,0,0,0,0,0,0,0,0,0,0,0,0,0,0,0,0,0,0,0,0,0,0,0,0,0,0,0,0,0,0,0,0,0,0,0,0,0,0,0,0,0,0,0,0,0,0,0,0,0,0,0,0,0,0,0,0,0,0,0,0,0,0,0,0,0,0,0,0,0,0,0,0,0,0,0,0,0,0,0,0,0,0,0,0,0,0,0,0,0,0,0,0,0,0,0,0,0,0,0,0,0,0,0,0,0,0,0,0,0,0,0,0,0,0,0,0,0,0,0,0,0,0,0,0,0,0,0,0,0,0,0,0,0,0,0,0,0,0,0,0,0,0,0,0,0,0,0,0,0,0,0,0,0,0,0,0,0,0,0,0,0,0,0,0,0,0,0,0,0,0,0,0,0,0,0,0,0,0,0,0,0,0,0,0,0,0,0,0,0,0,0,0,0,0,0,0,0,0,0,0,0,0,0,0,0,0,0,0,0,0,0,0,0,0,0,0,0,0,0,0,0,0,0,0,0,0,0,0,0,0,0,0,0,0,0,0,0,0,0,0,0,0,0,0,0,0,0,0,0,0,0,0,0,0,0,0,0,0,0,0,0,0,0,0,0,0,0,0,0,0,0,0,0,0,0,0,0,0,0,0,0,0,0,0,0,0,0,0,0,0,0,0,0,0,0,0,0,0,0,0,0,0,0,0,0,0,0,0,0,0,0,0,0,0,0,0,0,0,0,0,0,0,0,0,0,0,0,0,0,0,0,0,0,0,0,0,0,0,0,0,0,0,0,0,0,0,0,0,0,0,0,0,0,0,0,0,0,0,0,0,0,0,0,0,0,0,0,0,0,0,0,0,0,0,0,0,0,0,0,0,0,0,0,0,0,0,0,0,0,0,0,0,0,0,0,0,0,0,0,0,0,0,0,0,0,0,0,0,0,0,0,0,0,0,0,0,0,0,0,0,0,0,0,0,0,0,0,0,0,0,0,0,0,0,0,0,0,0,0,0,0,0,0,0,0,0,0,0,0,0,0,0,0,0,0,0,0,0,0,0,0,0,0,0,0,0,0,0,0,0,0,0,0,0,0,0,0,0,0,0,0,0,0,0,0,0,0,0,0,0,0,0,0,0,0,0,0,0,0,0,0,0,0,0,0,0,0,0,0,0,0,0,0,0,0,0,0,0,0,0,0,0,0,0,0,0,0,0,0,0,0,0,0,0,0,0,0,0,0,0,0,0,0,0,0,0,0,0,0,0,0,0,0,0,0,0,0,0,0,0,0,0,0,0,0,0,0,0,0,0,0,0,0,0,0,0,0,0,0,0,0,0,0,0,0,0,0,0,0,0,0,0,0,0,0,0,0,0,0,0,0,0,0,0,0,0,0,0,0,0,0,0,0,0,0,0,0,0,0,0,0,0,0,0,0,0,0,0,0,0,0,0,0,0,0,0,0,0,0,0,0,0,0,0,0,0,0,0,0,0,0,0,0,0,0,0,0,0,0,0,0,0,0,0,0,0,0,0,0,0,0,0,0,0,0,0,0,0,0,0,0,0,0,0,0,0,0,0,0,0,0,0,0,0,0,0,0,0,0,0,0,0,0,0,0,0,0,0,0,0,0,0,0,0,0,0,0,0,0,0,0,0,0,0,0,0,0,0,0,0,0,0,0,0,0,0,0,0,0,0,0,0,0,0,0,0,0,0,0,0,0,0,0,0,0,0,0,0,0,0,0,0,0,0,0,0,0,0,0,0,0,0,0,0,0,0,0,0,0,0,0,0,0,0,0,0,0,0,0,0,0,0,0,0,0,0,0,0,0,0,0,0,0,0,0,0,0,0,0,0,0,0,0,0,0,0,0,0,0,0,0,0,0,0,0,0,0,0,0,0,0,0,0,0,0,0,0,0,0,0,0,0,0,0,0,0,0,0,0,0,0,0,0,0,0,0,0,0,0,0,0,0,0,0,0,0,0,0,0,0,0,0,0,0,0,0,0,0,0,0,0,0,0,0,0,0,0,0,0,0,0,0,0,0,0,0,0,0,0,0,0,0,0,0,0,0,0,0,0,0,0,0,0,0,0,0,0,0,0,0,0,0,0,0,0,0,0,0,0,0,0,0,0,0,0,0,0,0,0,0,0,0,0,0,0,0,0,0,0,0,0,0,0,0,0,0,0,0,0,0,0,0,0,0,0,0,0,0,0,0,0,0,0,0,0,0,0,0,0,0,0,0,0,0,0,0,0,0,0,0,0,0,0,0,0,0,0,0,0,0,0,0,0,0,0,0,0,0,0,0,0,0,0,0,0,0,0,0,0,0,0,0,0,0,0,0,0,0,0,0,0,0,0,0,0,0,0,0,0,0,0,0,0,0,0,0,0,0,0,0,0,0,0,0,0,0,0,0,0,0,0,0,0,0,0,0,0,0,0,0,0,0,0,0,0,0,0,0,0,0,0,0,0,0,0,0,0,0,0,0,0,0,0,0,0,0,0,0,0,0,0,0,0,0,0,0,0,0,0,0,0,0,0,0,0,0,0,0,0,0,0,0,0,0,0,0,0,0,0,0,0,0,0,0,0,0,0,0,0,0,0,0,0,0,0,0,0,0,0,0,0,0,0,0,0,0,0,0,0,0,0,0,0,0,0,0,0,0,0,0,0,0,0,0,0,0,0,0,0,0,0,0,0,0,0,0,0,0,0,0,0,0,0,0,0,0,0,0,0,0,0,0,0,0,0,0,0,0,0,0,0,0,0,0,0,0,0,0,0,0,0,0,0,0,0,0,0,0,0,0,0,0,0,0,0,0,0,0,0,0,0,0,0,0,0,0,0,0,0,0,0,0,0,0,0,0,0,0,0,0,0,0,0,0,0,0,0,0,0,0,0,0,0,0,0,0,0,0,0,0,0,0,0,0,0,0,0,0,0,0,0,0,0,0,0,0,0,0,0,0,0,0,0,0,0,0,0,0,0,0,0,0,0,0,0,0,0,0,0,0,0,0,0,0,0,0,0,0,0,0,0,0,0,0,0,0,0,0,0,0,0,0,0,0,0,0,0,0,0,0,0,0,0,0,0,0,0,0,0,0,0,0,0,0,0,0,0,0,0,0,0,0,0,0,0,0,0,0,0,0,0,0,0,0,0,0,0,0,0,0,0,0,0,0,0,0,0,0,0,0,0,0,0,0,0,0,0,0,0,0,0,0,0,0,0,0,0,0,0,0,0,0,0,0,0,0,0,0,0,0,0,0,0,0,0,0,0,0,0,0,0,0,0,0,0,0,0,0,0,0,0,0,0,0,0,0,0,0,0,0,0,0,0,0,0,0,0,0,0,0,0,0,0,0,0,0,0,0,0,0,0,0,0,0,0,0,0,0,0,0,0,0,0,0,0,0,0,0,0,0,0,0,0,0,0,0,0,0,0,0,0,0,0,0,0,0,0,0,0,0,0,0,0,0,0,0,0,0,0,0,0,0,0,0,0,0,0,0,0,0,0,0,0,0,0,0,0,0,0,0,0,0,0,0,0,0,0,0,0,0,0,0,0,0,0,0,0,0,0,0,0,0,0,0,0,0,0,0,0,0,0,0,0,0,0,0,0,0,0,0,0,0,0,0,0,0,0,0,0,0,0,0,0,0,0,0,0,0,0,0,0,0,0,0,0,0,0,0,0,0,0,0,0,0,0,0,0,0,0,0,0,0,0,0,0,0,0,0,0,0,0,0,0,0,0,0,0,0,0,0,0,0,0,0,0,0,0,0,0,0,0,0,0,0,0,0,0,0,0,0,0,0,0,0,0,0,0,0,0,0,0,0,0,0,0,0,0,0,0,0,0,0,0,0,0,0,0,0,0,0,0,0,0,0,0,0,0,0,0,0,0,0,0,0,0,0,0,0,0,0,0,0,0,0,0,0,0,0,0,0,0,0,0,0,0,0,0,0,0,0,0,0,0,0,0,0,0,0,0,0,0,0,0,0,0,0,0,0,0,0,0,0,0,0,0,0,0,0,0,0,0,0,0,0,0,0,0,0,0,0,0,0,0,0,0,0,0,0,0,0,0,0,0,0,0,0,0,0,0,0,0,0,0,0,0,0,0,0,0,0,0,0,0,0,0,0,0,0,0,0,0,0,0,0,0,0,0,0,0,0,0,0,0,0,0,0,0,0,0,0,0,0,0,0,0,0,0,0,0,0,0,0,0,0,0,0,0,0,0,0,0,0,0,0,0,0,0,0,0,0,0,0,0,0,0,0,0,0,0,0,0,0,0,0,0,0,0,0,0,0,0,0,0,0,0,0,0,0,0,0,0,0,0,0,0,0,0,0,0,0,0,0,0,0,0,0,0,0,0,0,0,0,0,0,0,0,0,0,0,0,0,0,0,0,0,0,0,0,0,0,0,0,0,0,0,0,0,0,0,0,0,0,0,0,0,0,0,0,0,0,0,0,0,0,0,0,0,0,0,0,0,0,0,0,0,0,0,0,0,0,0,0,0,0,0,0,0,0,0,0,0,0,0,0,0,0,0,0,0,0,0,0,0,0,0,0,0,0,0,0,0,0,0,0,0,0,0,0,0,0,0,0,0,0,0,0,0,0,0,0,0,0,0,0,0,0,0,0,0,0,0,0,0,0,0,0,0,0,0,0,0,0,0,0,0,0,0,0,0,0,0,0,0,0,0,0,0,0,0,0,0,0,0,0,0,0,0,0,0,0,0,0,0,0,0,0,0,0,0,0,0,0,0,0,0,0,0,0,0,0,0,0,0,0,0,0,0,0,0,0,0,0,0,0,0,0,0,0,0,0,0,0,0,0,0,0,0,0,0,0,0,0,0,0,0,0,0,0,0,0,0,0,0,0,0,0,0,0,0,0,0,0,0,0,0,0,0,0,0,0,0,0,0,0,0,0,0,0,0,0,0,0,0,0,0,0,0,0,0,0,0,0,0,0,0,0,0,0,0,0,0,0,0,0,0,0,0,0,0,0,0,0,0,0,0,0,0,0,0,0,0,0,0,0,0,0,0,0,0,0,0,0,0,0,0,0,0,0,0,0,0,0,0,0,0,0,0,0,0,0,0,0,0,0,0,0,0,0,0,0,0,0,0,0,0,0,0,0,0,0,0,0,0,0,0,0,0,0,0,0,0,0,0,0,0,0,0,0,0,0,0,0,0,0,0,0,0,0,0,0,0,0,0,0,0,0,0,0,0,0,0,0,0,0,0,0,0,0,0,0,0,0,0,0,0,0,0,0,0,0,0,0,0,0,0,0,0,0,0,0,0,0,0,0,0,0,0,0,0,0,0,0,0,0,0,0,0,0,0,0,0,0,0,0,0,0,0,0,0,0,0,0,0,0,0,0,0,0,0,0,0,0,0,0,0,0,0,0,0,0,0,0,0,0,0,0,0,0,0,0,0,0,0,0,0,0,0,0,0,0,0,0,0,0,0,0,0,0,0,0,0,0,0,0,0,0,0,0,0,0,0,0,0,0,0,0,0,0,0,0,0,0,0,0,0,0,0,0,0,0,0,0,0,0,0,0,0,0,0,0,0,0,0,0,0,0,0,0,0,0,0,0,0,0,0,0,0,0,0,0,0,0,0,0,0,0,0,0,0,0,0,0,0,0,0,0,0,0,0,0,0,0,0,0,0,0,0,0,0,0,0,0,0,0,0,0,0,0,0,0,0,0,0,0,0,0,0,0,0,0,0,0,0,0,0,0,0,0,0,0,0,0,0,0,0]},{"id":11,"name":"mountain","type":"tilelayer","x":0,"y":0,"opacity":1,"visible":true,"width":144,"height":96,"data":[0,0,0,0,0,0,0,0,0,0,0,0,0,0,0,0,0,0,0,0,0,0,0,0,0,0,0,0,0,0,0,0,0,0,0,0,0,0,0,0,0,0,0,0,0,0,0,0,0,0,0,0,0,0,0,0,0,0,0,0,0,0,0,0,0,0,0,0,0,0,0,0,0,0,0,0,0,0,0,0,0,0,0,0,0,0,0,0,0,0,0,0,0,0,0,0,0,0,0,0,0,0,0,0,0,0,0,0,0,0,0,0,0,0,0,0,0,0,0,0,0,0,0,0,0,0,0,0,0,0,0,0,0,0,0,0,0,0,0,0,0,0,0,0,0,0,0,0,0,0,0,0,0,0,0,0,0,0,0,0,0,0,0,0,0,0,0,0,0,0,0,0,0,0,0,0,0,0,0,0,0,0,0,0,0,0,0,0,0,0,0,0,0,0,0,0,0,0,0,0,0,0,0,0,0,0,0,0,0,0,0,0,0,0,0,0,0,0,0,0,0,0,0,0,0,0,0,0,0,0,0,0,0,0,0,0,0,0,0,0,0,0,0,0,0,0,0,0,0,0,0,0,0,0,0,0,0,0,0,0,0,0,0,0,0,0,0,0,0,0,0,0,0,0,0,0,0,0,0,0,0,0,0,0,0,0,0,0,0,0,0,0,0,0,0,0,0,0,0,0,0,0,0,0,0,0,0,0,0,0,0,0,0,0,0,0,0,0,0,0,0,0,0,0,0,0,0,0,0,0,0,0,0,0,0,0,0,0,0,0,0,0,0,0,0,0,0,0,0,0,0,0,0,0,0,0,0,0,0,0,0,0,0,0,0,0,0,0,0,0,0,0,0,0,0,0,0,0,0,0,0,0,0,0,0,0,0,0,0,0,0,0,0,0,0,0,0,0,0,0,0,0,0,0,0,0,0,0,0,0,0,0,0,0,0,0,0,0,0,0,0,0,0,0,0,0,0,0,0,0,0,0,0,0,0,0,0,0,0,0,0,0,0,0,0,0,0,0,0,0,0,0,0,0,0,0,0,0,0,0,0,0,0,0,0,0,0,0,0,0,0,0,0,0,0,0,0,0,0,0,0,0,0,0,0,0,0,0,0,0,0,0,0,0,0,0,0,0,0,0,0,0,0,0,0,0,0,0,0,0,0,0,0,0,0,0,0,0,0,0,0,0,0,0,0,0,0,0,0,0,0,0,0,0,0,0,0,0,0,0,0,0,0,0,0,0,0,0,0,0,0,0,0,0,0,0,0,0,0,0,0,0,0,0,0,0,0,0,0,0,0,0,0,0,0,0,0,0,0,0,0,0,0,0,0,0,0,0,0,0,0,0,0,0,0,0,0,0,0,0,0,0,0,0,0,0,0,0,0,0,0,0,0,0,0,0,0,0,0,0,0,0,0,0,0,0,0,0,0,0,0,0,0,0,0,0,0,0,0,0,0,0,0,0,0,0,0,0,0,0,0,0,0,0,0,0,0,0,0,2123,2144,2144,2144,2144,2144,2144,2144,2144,2144,2139,0,0,0,0,0,0,0,0,0,0,0,0,0,0,0,0,0,0,0,0,0,0,0,0,0,0,0,0,0,0,0,0,0,0,0,0,0,0,0,0,0,0,0,0,0,0,0,0,0,0,0,0,0,0,0,0,0,0,0,0,0,0,0,0,0,0,0,0,0,0,0,0,0,0,0,0,0,0,0,0,0,0,0,0,0,0,0,0,0,0,0,0,0,0,0,0,0,0,0,0,0,0,0,0,0,0,0,0,0,0,0,0,0,0,0,0,0,0,0,0,0,0,0,0,0,0,0,2123,2144,2144,2144,2144,2144,2146,2303,2255,2147485855,2207,2147485855,2255,2147485951,2255,2147485903,2158,2144,2144,2144,2144,2144,2144,2139,0,0,0,0,0,0,0,0,0,0,0,0,0,0,0,0,0,0,0,0,0,0,0,0,0,0,0,0,0,0,0,0,0,0,0,0,0,0,0,0,0,0,0,0,0,0,0,0,0,0,0,0,0,0,0,0,0,0,0,0,0,0,0,0,0,0,0,0,0,0,0,0,0,0,0,0,0,0,0,0,0,0,0,0,0,0,0,0,0,0,0,0,0,0,0,0,0,0,0,0,0,0,0,0,0,0,0,0,0,0,0,0,0,0,0,0,0,0,0,0,2125,2147485807,2147485855,2147485951,2147485807,2147485903,2157,2149,2149,2149,2149,2149,2149,2149,2149,2149,2154,2147485807,2147485855,2147485903,2159,2159,2147485855,2158,2144,2144,2144,2139,0,0,0,0,0,0,0,0,0,0,0,0,0,0,0,0,0,0,0,0,0,0,0,0,0,0,0,0,0,0,0,0,0,0,0,0,0,0,0,0,0,0,0,0,0,0,0,0,0,0,0,0,0,0,0,0,0,0,0,0,0,0,0,0,0,0,0,0,0,0,0,0,0,0,0,0,0,0,0,0,0,0,0,0,0,0,0,0,0,0,0,0,0,0,0,0,0,0,0,0,0,0,0,0,0,0,0,0,0,0,0,0,0,0,0,0,2117,2149,2149,2149,2149,2149,2147,0,0,0,0,0,0,0,0,0,2117,4405,4405,4405,4405,4405,4405,4410,2147485807,2147485855,2147485807,2158,2144,2144,2139,0,0,0,0,0,0,0,0,0,0,0,0,0,0,0,0,0,0,0,0,0,0,0,0,0,0,0,0,0,0,0,0,0,0,0,0,0,0,0,0,0,0,0,0,0,0,0,0,0,0,0,0,0,0,0,0,0,0,0,0,0,0,0,0,0,0,0,0,0,0,0,0,0,0,0,0,0,0,0,0,0,0,0,0,0,0,0,0,0,0,0,0,0,0,0,0,0,0,0,0,0,0,0,0,0,0,0,0,0,0,0,0,0,0,0,0,0,0,0,0,0,0,0,0,0,0,0,0,0,0,0,0,0,0,0,0,4373,4405,4405,4405,4410,2147485855,2303,2155,0,0,0,0,0,0,0,0,0,0,0,0,0,0,0,0,0,0,0,0,0,0,0,0,0,0,0,0,0,0,0,0,0,0,0,0,0,0,0,0,0,0,0,0,0,0,0,0,0,0,0,0,0,0,0,0,0,0,0,0,0,0,0,0,0,0,0,0,0,0,0,0,0,0,0,0,0,0,0,0,0,0,0,0,0,0,0,0,0,0,0,0,0,0,0,0,0,0,0,0,0,0,0,0,0,0,0,0,0,0,0,0,0,0,0,0,0,0,0,0,0,0,0,0,0,0,0,0,0,0,0,0,0,0,0,0,0,0,0,0,4373,4405,4405,2147,0,0,0,0,0,0,0,0,0,0,0,0,0,0,0,0,0,0,0,0,0,0,0,0,0,0,0,0,0,0,0,0,0,0,0,0,0,0,0,0,0,0,0,0,0,0,0,0,0,0,0,0,0,0,0,0,0,0,0,0,0,0,0,0,0,0,0,0,0,0,0,0,0,0,0,0,0,0,0,0,0,0,0,0,0,0,0,0,0,0,0,0,0,0,0,0,0,0,0,0,0,0,0,0,0,0,0,0,0,0,0,0,0,0,0,0,0,0,0,0,0,0,0,0,0,0,0,0,0,0,0,0,0,0,0,0,0,0,0,0,0,0,0,0,0,0,0,0,0,0,0,0,0,0,0,0,0,0,0,0,0,0,0,0,0,0,0,0,0,0,0,0,0,0,0,0,0,0,0,0,0,0,0,0,0,0,0,0,0,0,0,0,0,0,0,0,0,0,0,0,0,0,0,0,0,0,0,0,0,0,0,0,0,0,0,0,0,0,0,0,0,0,0,0,0,0,0,0,0,0,0,0,0,0,0,0,0,0,0,0,0,0,0,0,0,0,0,0,0,0,0,0,0,0,0,0,0,0,0,0,0,0,0,0,0,0,0,0,0,0,0,0,0,0,0,0,0,0,0,0,0,0,0,0,0,0,0,0,0,0,0,0,0,0,0,0,0,0,0,0,0,0,0,0,0,0,0,0,0,0,0,0,0,0,0,0,0,0,0,0,0,0,0,0,0,0,0,0,0,0,0,0,0,0,0,0,0,0,0,0,0,0,0,0,0,0,0,0,0,0,0,0,0,0,0,0,0,0,0,0,0,0,0,0,0,0,0,0,0,0,0,0,0,0,0,0,0,0,0,0,0,0,0,0,0,0,0,0,0,0,0,0,0,0,0,0,0,0,0,0,0,0,0,0,0,0,0,0,0,0,0,0,0,0,0,0,0,0,0,0,0,0,0,0,0,0,0,0,0,0,0,0,0,0,0,0,0,0,0,0,0,0,0,0,0,0,0,0,0,0,0,0,0,0,0,0,0,0,0,0,0,0,0,0,0,0,0,0,0,0,0,0,0,0,0,0,0,0,0,0,0,0,0,0,0,0,0,0,0,0,0,0,0,0,0,0,0,0,0,0,0,0,0,0,0,0,0,0,0,0,0,0,0,0,0,0,0,0,0,0,0,0,0,0,0,0,0,0,0,0,0,0,0,0,0,0,0,0,0,0,0,0,0,0,0,0,0,0,0,0,0,0,0,0,0,0,0,0,0,0,0,0,0,0,0,0,0,0,0,0,0,0,0,0,0,0,0,0,0,0,0,0,0,0,0,0,0,0,0,0,0,0,0,0,0,0,0,0,0,0,0,0,0,0,0,0,0,0,0,0,0,0,0,0,0,0,0,0,0,0,0,0,0,0,0,0,0,0,0,0,0,0,0,0,0,0,0,0,0,0,0,0,0,0,0,0,0,0,0,0,0,0,0,0,0,0,0,0,0,0,0,0,0,0,0,0,0,0,0,0,0,0,0,0,0,0,0,0,0,0,0,0,0,0,0,0,0,0,0,0,0,0,0,0,0,0,0,0,0,0,0,0,0,0,0,0,0,0,0,0,0,0,0,0,0,0,0,0,0,0,0,0,0,0,0,0,0,0,0,0,0,0,0,0,0,0,0,0,0,0,0,0,0,0,0,0,0,0,0,0,0,0,0,0,0,0,0,0,0,0,0,0,0,0,0,0,0,0,0,0,0,0,0,0,0,0,0,0,0,0,0,0,0,0,0,0,0,0,0,0,0,0,0,0,0,0,0,0,0,0,0,0,0,0,0,0,0,0,0,0,0,0,0,0,0,0,0,0,0,0,0,0,0,0,0,0,0,0,0,0,0,0,0,0,0,0,0,0,0,0,0,0,0,0,0,0,0,0,0,0,0,0,0,0,0,0,0,0,0,0,0,0,0,0,0,0,0,0,0,0,0,0,0,0,0,0,0,0,0,0,0,0,0,0,0,0,0,0,0,0,0,0,0,0,0,0,0,0,0,0,0,0,0,0,0,0,0,0,0,0,0,0,0,0,0,0,0,0,0,0,0,0,0,0,0,0,0,0,0,0,0,0,0,0,0,0,0,0,0,0,0,0,0,0,0,0,0,0,0,0,0,0,0,0,0,0,0,0,0,0,0,0,0,0,0,0,0,0,0,0,0,0,0,0,0,0,0,0,0,0,0,0,0,0,0,0,0,0,0,0,0,0,0,0,0,0,0,0,0,0,0,0,0,0,0,0,0,0,0,0,0,0,0,0,0,0,0,0,0,0,0,0,0,0,0,0,0,0,0,0,0,0,0,0,0,0,0,0,0,0,0,0,0,0,0,0,0,0,0,0,0,0,0,0,0,0,0,0,0,0,0,0,0,0,0,0,0,0,0,0,0,0,0,0,0,0,0,0,0,0,0,0,0,0,0,0,0,0,0,0,0,0,0,0,0,0,0,0,0,0,0,0,0,0,0,0,0,0,0,0,0,0,0,0,0,0,0,0,0,0,0,0,0,0,0,0,0,0,0,0,0,0,0,0,0,0,0,0,0,0,0,0,0,0,0,0,0,0,0,0,0,0,0,0,0,0,0,0,0,0,0,0,0,0,0,0,0,0,0,0,0,0,0,0,0,0,0,0,0,0,0,0,0,0,0,0,0,0,0,0,0,0,0,0,0,0,0,0,0,0,0,0,0,0,0,0,0,0,0,0,0,0,0,0,0,0,0,0,0,0,0,0,0,0,0,0,0,0,0,0,0,0,0,0,0,0,0,0,0,0,0,0,0,0,0,0,0,0,0,0,0,0,0,0,0,0,0,0,0,0,0,0,0,0,0,0,0,0,0,0,0,0,0,0,0,0,0,0,0,0,0,0,0,0,0,0,0,0,0,0,0,0,0,0,0,0,0,0,0,0,0,0,0,0,0,0,0,0,0,0,0,0,0,0,0,0,0,0,0,0,0,0,0,0,0,0,0,0,0,0,0,0,0,0,0,0,0,0,0,0,0,0,0,0,0,0,0,0,0,0,0,0,0,0,0,0,0,0,0,0,0,0,0,0,0,0,0,0,0,0,0,0,0,0,0,0,0,0,0,0,0,0,0,0,0,0,0,0,0,0,0,0,0,0,0,0,0,0,0,0,0,0,0,0,0,0,0,0,0,0,0,0,0,0,0,0,0,0,0,0,0,0,0,0,0,0,0,0,0,0,0,0,0,0,0,0,0,0,0,0,0,0,0,0,0,0,0,0,0,0,0,0,0,0,0,0,0,0,0,0,0,0,0,0,0,0,0,0,0,0,0,0,0,0,0,0,0,0,0,0,0,0,0,0,0,0,0,0,0,0,0,0,0,0,0,0,0,0,0,0,0,0,0,0,0,0,0,0,0,0,0,0,0,0,0,0,0,0,0,0,0,0,0,0,0,0,0,0,0,0,0,0,0,0,0,0,0,0,0,0,0,0,0,0,0,0,0,0,0,0,0,0,0,0,0,0,0,0,0,0,0,0,0,0,0,0,0,0,0,0,0,0,0,0,0,0,0,0,0,0,0,0,0,0,0,0,0,0,0,0,0,0,0,0,0,0,0,0,0,0,0,0,0,0,0,0,0,0,0,0,0,0,0,0,0,0,0,0,0,0,0,0,0,0,0,0,0,0,0,0,0,0,0,0,0,0,0,0,0,0,0,0,0,0,0,0,0,0,0,0,0,0,0,0,0,0,0,0,0,0,0,0,0,0,0,0,0,0,0,0,0,0,0,0,0,0,0,0,0,0,0,0,0,0,0,0,0,0,0,0,0,0,0,0,0,0,0,0,0,0,0,0,0,0,0,0,0,0,0,0,0,0,0,0,0,0,0,0,0,0,0,0,0,0,0,0,0,0,0,0,0,0,0,0,0,0,0,0,0,0,0,0,0,0,0,0,0,0,0,0,0,0,0,0,0,0,0,0,0,0,0,0,0,0,0,0,0,0,0,0,0,0,0,0,0,0,0,0,0,0,0,0,0,0,0,0,0,0,0,0,0,0,0,0,0,0,0,0,0,0,0,0,0,0,0,0,0,0,0,0,0,0,0,0,0,0,0,0,0,0,0,0,0,0,0,0,0,0,0,0,0,0,0,0,0,0,0,0,0,0,0,0,0,0,0,0,0,0,0,0,0,0,0,0,0,0,0,0,0,0,0,0,0,0,0,0,0,0,0,0,0,0,0,0,0,0,0,0,0,0,0,0,0,0,0,0,0,0,0,0,0,0,0,0,0,0,0,0,0,0,0,0,0,0,0,0,0,0,0,0,0,0,0,0,0,0,0,0,0,0,0,0,0,0,0,0,0,0,0,0,0,0,0,0,0,0,0,0,0,0,0,0,0,0,0,0,0,0,0,0,0,0,0,0,0,0,0,0,0,0,0,0,0,0,0,0,0,0,0,0,0,0,0,0,0,0,0,0,0,0,0,0,0,0,0,0,0,0,0,0,0,0,0,0,0,0,0,0,0,0,0,0,0,0,0,0,0,0,0,0,0,0,0,0,0,0,0,0,0,0,0,0,0,0,0,0,0,0,0,0,0,0,0,0,0,0,0,0,0,0,0,0,0,0,0,0,0,0,0,0,0,0,0,0,0,0,0,0,0,0,0,0,0,0,0,0,0,0,0,0,0,0,0,0,0,0,0,0,0,0,0,0,0,0,0,0,0,0,0,0,0,0,0,0,0,0,0,0,0,0,0,0,0,0,0,0,0,0,0,0,0,0,0,0,0,0,0,0,0,0,0,0,0,0,0,0,0,0,0,0,0,0,0,0,0,0,0,0,0,0,0,0,0,0,0,0,0,0,0,0,0,0,0,0,0,0,0,0,0,0,0,0,0,0,0,0,0,0,0,0,0,0,0,0,0,0,0,0,0,0,0,0,0,0,0,0,0,0,0,0,0,0,0,0,0,0,0,0,0,0,0,0,0,0,0,0,0,0,0,0,0,0,0,0,0,0,0,0,0,0,0,0,0,0,0,0,0,0,0,0,0,0,0,0,0,0,0,0,0,0,0,0,0,0,0,0,0,0,0,0,0,0,0,0,0,0,0,0,0,0,0,0,0,0,0,0,0,0,0,0,0,0,0,0,0,0,0,0,0,0,0,0,0,0,0,0,0,0,0,0,0,0,0,0,0,0,0,0,0,0,0,0,0,0,0,0,0,0,0,0,0,0,0,0,0,0,0,0,0,0,0,0,0,0,0,0,0,0,0,0,0,0,0,0,0,0,0,0,0,0,0,0,0,0,0,0,0,0,0,0,0,0,0,0,0,0,0,0,0,0,0,0,0,0,0,0,0,0,0,0,0,0,0,0,0,0,0,0,0,0,0,0,0,0,0,0,0,0,0,0,0,0,0,0,0,0,0,0,0,0,0,0,0,0,0,0,0,0,0,0,0,0,0,0,0,0,0,0,0,0,0,0,0,0,0,0,0,0,0,0,0,0,0,0,0,0,0,0,0,0,0,0,0,0,0,0,0,0,0,0,0,0,0,0,0,0,0,0,0,0,0,0,0,0,0,0,0,0,0,0,0,0,0,0,0,0,0,0,0,0,0,0,0,0,0,0,0,0,0,0,0,0,0,0,0,0,0,0,0,0,0,0,0,0,0,0,0,0,0,0,0,0,0,0,0,0,0,0,0,0,0,0,0,0,0,0,0,0,0,0,0,0,0,0,0,0,0,0,0,0,0,0,0,0,0,0,0,0,0,0,0,0,0,0,0,0,0,0,0,0,0,0,0,0,0,0,0,0,0,0,0,0,0,0,0,0,0,0,0,0,0,0,0,0,0,0,0,0,0,0,0,0,0,0,0,0,0,0,0,0,0,0,0,0,0,0,0,0,0,0,0,0,0,0,0,0,0,0,0,0,0,0,0,0,0,0,0,0,0,0,0,0,0,0,0,0,0,0,0,0,0,0,0,0,0,0,0,0,0,0,0,0,0,0,0,0,0,0,0,0,0,0,0,0,0,0,0,0,0,0,0,0,0,0,0,0,0,0,0,0,0,0,0,0,0,0,0,0,0,0,0,0,0,0,0,0,0,0,0,0,0,0,0,0,0,0,0,0,0,0,0,0,0,0,0,0,0,0,0,0,0,0,0,0,0,0,0,0,0,0,0,0,0,0,0,0,0,0,0,0,0,0,0,0,0,0,0,0,0,0,0,0,0,0,0,0,0,0,0,0,0,0,0,0,0,0,0,0,0,0,0,0,0,0,0,0,0,0,0,0,0,0,0,0,0,0,0,0,0,0,0,0,0,0,0,0,0,0,0,0,0,0,0,0,0,0,0,0,0,0,0,0,0,0,0,0,0,0,0,0,0,0,0,0,0,0,0,0,0,0,0,0,0,0,0,0,0,0,0,0,0,0,0,0,0,0,0,0,0,0,0,0,0,0,0,0,0,0,0,0,0,0,0,0,0,0,0,0,0,0,0,0,0,0,0,0,0,0,0,0,0,0,0,0,0,0,0,0,0,0,0,0,0,0,0,0,0,0,0,0,0,0,0,0,0,0,0,0,0,0,0,0,0,0,0,0,0,0,0,0,0,0,0,0,0,0,0,0,0,0,0,0,0,0,0,0,0,0,0,0,0,0,0,0,0,0,0,0,0,0,0,0,0,0,0,0,0,0,0,0,0,0,0,0,0,0,0,0,0,0,0,0,0,0,0,0,0,0,0,0,0,0,0,0,0,0,0,0,0,0,0,0,0,0,0,0,0,0,0,0,0,0,0,0,0,0,0,0,0,0,0,0,0,0,0,0,0,0,0,0,0,0,0,0,0,0,0,0,0,0,0,0,0,0,0,0,0,0,0,0,0,0,0,0,0,0,0,0,0,0,0,0,0,0,0,0,0,0,0,0,0,0,0,0,0,0,0,0,0,0,0,0,0,0,0,0,0,0,0,0,0,0,0,0,0,0,0,0,0,0,0,0,0,0,0,0,0,0,0,0,0,0,0,0,0,0,0,0,0,0,0,0,0,0,0,0,0,0,0,0,0,0,0,0,0,0,0,0,0,0,0,0,0,0,0,0,0,0,0,0,0,0,0,0,0,0,0,0,0,0,0,0,0,0,0,0,0,0,0,0,0,0,0,0,0,0,0,0,0,0,0,0,0,0,0,0,0,0,0,0,0,0,0,0,0,0,0,0,0,0,0,0,0,0,0,0,0,0,0,0,0,0,0,0,0,0,0,0,0,0,0,0,0,0,0,0,0,0,0,0,0,0,0,0,0,0,0,0,0,0,0,0,0,0,0,0,0,0,0,0,0,0,0,0,0,0,0,0,0,0,0,0,0,0,0,0,0,0,0,0,0,0,0,0,0,0,0,0,0,0,0,0,0,0,0,0,0,0,0,0,0,0,0,0,0,0,0,0,0,0,0,0,0,0,0,0,0,0,0,0,0,0,0,0,0,0,0,0,0,0,0,0,0,0,0,0,0,0,0,0,0,0,0,0,0,0,0,0,0,0,0,0,0,0,0,0,0,0,0,0,0,0,0,0,0,0,0,0,0,0,0,0,0,0,0,0,0,0,0,0,0,0,0,0,0,0,0,0,0,0,0,0,0,0,0,0,0,0,0,0,0,0,0,0,0,0,0,0,0,0,0,0,0,0,0,0,0,0,0,0,0,0,0,0,0,0,0,0,0,0,0,0,0,0,0,0,0,0,0,0,0,0,0,0,0,0,0,0,0,0,0,0,0,0,0,0,0,0,0,0,0,0,0,0,0,0,0,0,0,0,0,0,0,0,0,0,0,0,0,0,0,0,0,0,0,0,0,0,0,0,0,0,0,0,0,0,0,0,0,0,0,0,0,0,0,0,0,0,0,0,0,0,0,0,0,0,0,0,0,0,0,0,0,0,0,0,0,0,0,0,0,0,0,0,0,0,0,0,0,0,0,0,0,0,0,0,0,0,0,0,0,0,0,0,0,0,0,0,0,0,0,0,0,0,0,0,0,0,0,0,0,0,0,0,0,0,0,0,0,0,0,0,0,0,0,0,0,0,0,0,0,0,0,0,0,0,0,0,0,0,0,0,0,0,0,0,0,0,0,0,0,0,0,0,0,0,0,0,0,0,0,0,0,0,0,0,0,0,0,0,0,0,0,0,0,0,0,0,0,0,0,0,0,0,0,0,0,0,0,0,0,0,0,0,0,0,0,0,0,0,0,0,0,0,0,0,0,0,0,0,0,0,0,0,0,0,0,0,0,0,0,0,0,0,0,0,0,0,0,0,0,0,0,0,0,0,0,0,0,0,0,0,0,0,0,0,0,0,0,0,0,0,0,0,0,0,0,0,0,0,0,0,0,0,0,0,0,0,0,0,0,0,0,0,0,0,0,0,0,0,0,0,0,0,0,0,0,0,0,0,0,0,0,0,0,0,0,0,0,0,0,0,0,0,0,0,0,0,0,0,0,0,0,0,0,0,0,0,0,0,0,0,0,0,0,0,0,0,0,0,0,0,0,0,0,0,0,0,0,0,0,0,0,0,0,0,0,0,0,0,0,0,0,0,0,0,0,0,0,0,0,0,0,0,0,0,0,0,0,0,0,0,0,0,0,0,0,0,0,0,0,0,0,0,0,0,0,0,0,0,0,0,0,0,0,0,0,0,0,0,0,0,0,0,0,0,0,0,0,0,0,0,0,0,0,0,0,0,0,0,0,0,0,0,0,0,0,0,0,0,0,0,0,0,0,0,0,0,0,0,0,0,0,0,0,0,0,0,0,0,0,0,0,0,0,0,0,0,0,0,0,0,0,0,0,0,0,0,0,0,0,0,0,0,0,0,0,0,0,0,0,0,0,0,0,0,0,0,0,0,0,0,0,0,0,0,0,0,0,0,0,0,0,0,0,0,0,0,0,0,0,0,0,0,0,0,0,0,0,0,0,0,0,0,0,0,0,0,0,0,0,0,0,0,0,0,0,0,0,0,0,0,0,0,0,0,0,0,0,0,0,0,0,0,0,0,0,0,0,0,0,0,0,0,0,0,0,0,0,0,0,0,0,0,0,0,0,0,0,0,0,0,0,0,0,0,0,0,0,0,0,0,0,0,0,0,0,0,0,0,0,0,0,0,0,0,0,0,0,0,0,0,0,0,0,0,0,0,0,0,0,0,0,0,0,0,0,0,0,0,0,0,0,0,0,0,0,0,0,0,0,0,0,0,0,0,0,0,0,0,0,0,0,0,0,0,0,0,0,0,0,0,0,0,0,0,0,0,0,0,0,0,0,0,0,0,0,0,0,0,0,0,0,0,0,0,0,0,0,0,0,0,0,0,0,0,0,0,0,0,0,0,0,0,0,0,0,0,0,0,0,0,0,0,0,0,0,0,0,0,0,0,0,0,0,0,0,0,0,0,0,0,0,0,0,0,0,0,0,0,0,0,0,0,0,0,0,0,0,0,0,0,0,0,0,0,0,0,0,0,0,0,0,0,0,0,0,0,0,0,0,0,0,0,0,0,0,0,0,0,0,0,0,0,0,0,0,0,0,0,0,0,0,0,0,0,0,0,0,0,0,0,0,0,0,0,0,0,0,0,0,0,0,0,0,0,0,0,0,0,0,0,0,0,0,0,0,0,0,0,0,0,0,0,0,0,0,0,0,0,0,0,0,0,0,0,0,0,0,0,0,0,0,0,0,0,0,0,0,0,0,0,0,0,0,0,0,0,0,0,0,0,0,0,0,0,0,0,0,0,0,0,0,0,0,0,0,0,0,0,0,0,0,0,0,0,0,0,0,0,0,0,0,0,0,0,0,0,0,0,0,0,0,0,0,0,0,0,0,0,0,0,0,0,0,0,0,0,0,0,0,0,0,0,0,0,0,0,0,0,0,0,0,0,0,0,0,0,0,0,0,0,0,0,0,0,0,0,0,0,0,0,0,0,0,0,0,0,0,0,0,0,0,0,0,0,0,0,0,0,0,0,0,0,0,0,0,0,0,0,0,0,0,0,0,0,0,0,0,0,0,0,0,0,0,0,0,0,0,0,0,0,0,0,0,0,0,0,0,0,0,0,0,0,0,0,0,0,0,0,0,0,0,0,0,0,0,0,0,0,0,0,0,0,0,0,0,0,0,0,0,0,0,0,0,0,0,0,0,0,0,0,0,0,0,0,0,0,0,0,0,0,0,0,0,0,0,0,0,0,0,0,0,0,0,0,0,0,0,0,0,0,0,0,0,0,0,0,0,0,0,0,0,0,0,0,0,0,0,0,0,0,0,0,0,0,0,0,0,0,0,0,0,0,0,0,0,0,0,0,0,0,0,0,0,0,0,0,0,0,0,0,0,0,0,0,0,0,0,0,0,0,0,0,0,0,0,0,0,0,0,0,0,0,0,0,0,0,0,0,0,0,0,0,0,0,0,0,0,0,0,0,0,0,0,0,0,0,0,0,0,0,0,0,0,0,0,0,0,0,0,0,0,0,0,0,0,0,0,0,0,0,0,0,0,0,0,0,0,0,0,0,0,0,0,0,0,0,0,0,0,0,0,0,0,0,0,0,0,0,0,0,0,0,0,0,0,0,0,0,0,0,0,0,0,0,0,0,0,0,0,0,0,0,0,0,0,0,0,0,0,0,0,0,0,0,0,0,0,0,0,0,0,0,0,0,0,0,0,0,0,0,0,0,0,0,0,0,0,0,0,0,0,0,0,0,0,0,0,0,0,0,0,0,0,0,0,0,0,0,0,0,0,0,0,0,0,0,0,0,0,0,0,0,0,0,0,0,0,0,0,0,0,0,0,0,0,0,0,0,0,0,0,0,0,0,0,0,0,0,0,0,0,0,0,0,0,0,0,0,0,0,0,0,0,0,0,0,0,0,0,0,0,0,0,0,0,0,0,0,0,0,0,0,0,0,0,0,0,0,0,0,0,0,0,0,0,0,0,0,0,0,0,0,0,0,0,0,0,0,0,0,0,0,0,0,0,0,0,0,0,0,0,0,0,0,0,0,0,0,0,0,0,0,0,0,0,0,0,0,0,0,0,0,0,0,0,0,0,0,0,0,0,0,0,0,0,0,0,0,0,0,0,0,0,0,0,0,0,0,0,0,0,0,0,0,0,0,0,0,0,0,0,0,0,0,0,0,0,0,0,0,0,0,0,0,0,0,0,0,0,0,0,0,0,0,0,0,0,0,0,0,0,0,0,0,0,0,0,0,0,0,0,0,0,0,0,0,0,0,0,0,0,0,0,0,0,0,0,0,0,0,0,0,0,0,0,0,0,0,0,0,0,0,0,0,0,0,0,0,0,0,0,0,0,0,0,0,0,0,0,0,0,0,0,0,0,0,0,0,0,0,0,0,0,0,0,0,0,0,0,0,0,0,0,0,0,0,0,0,0,0,0,0,0,0,0,0,0,0,0,0,0,0,0,0,0,0,0,0,0,0,0,0,0,0,0,0,0,0,0,0,0,0,0,0,0,0,0,0,0,0,0,0,0,0,0,0,0,0,0,0,0,0,0,0,0,0,0,0,0,0,0,0,0,0,0,0,0,0,0,0,0,0,0,0,0,0,0,0,0,0,0,0,0,0,0,0,0,0,0,0,0,0,0,0,0,0,0,0,0,0,0,0,0,0,0,0,0,0,0,0,0,0,0,0,0,0,0,0,0,0,0,0,0,0,0,0,0,0,0,0,0,0,0,0,0,0,0,0,0,0,0,0,0,0,0,0,0,0,0,0,0,0,0,0,0,0,0,0,0,0,0,0,0,0,0,0,0,0,0,0,0,0,0,0,0,0,0,0,0,0,0,0,0,0,0,0,0,0,0,0,0,0,0,0,0,0,0,0,0,0,0,0,0,0,0,0,0,0,0,0,0,0,0,0,0,0,0,0,0,0,0,0,0,0,0,0,0,0,0,0,0,0,0,0,0,0,0,0,0,0,0,0,0,0,0,0,0,0,0,0,0,0,0,0,0,0,0,0,0,0,0,0,0,0,0,0,0,0,0,0,0,0,0,0,0,0,0,0,0,0,0,0,0,0,0,0,0,0,0,0,0,0,0,0,0,0,0,0,0,0,0,0,0,0,0,0,0,0,0,0,0,0,0,0,0,0,0,0,0,0,0,0,0,0,0,0,0,0,0,0,0,0,0,0,0,0,0,0,0,0,0,0,0,0,0,0,0,0,0,0,0,0,0,0,0,0,0,0,0,0,0,0,0,0,0,0,0,0,0,0,0,0,0,0,0,0,0,0,0,0,0,0,0,0,0,0,0,0,0,0,0,0,0,0,0,0,0,0,0,0,0,0,0,0,0,0,0,0,0,0,0,0,0,0,0,0,0,0,0,0,0,0,0,0,0,0,0,0,0,0,0,0,0,0,0,0,0,0,0,0,0,0,0,0,0,0,0,0,0,0,0,0,0,0,0,0,0,0,0,0,0,0,0,0,0,0,0,0,0,0,0,0,0,0,0,0,0,0,0,0,0,0,0,0,0,0,0,0,0,0,0,0,0,0,0,0,0,0,0,0,0,0,0,0,0,0,0,0,0,0,0,0,0,0,0,0,0,0,0,0,0,0,0,0,0,0,0,0,0,0,0,0,0,0,0,0,0,0,0,0,0,0,0,0,0,0,0,0,0,0,0,0,0,0,0,0,0,0,0,0,0,0,0,0,0,0,0,0,0,0,0,0,0,0,0,0,0,0,0,0,0,0,0,0,0,0,0,0,0,0,0,0,0,0,0,0,0,0,0,0,0,0,0,0,0,0,0,0,0,0,0,0,0,0,0,0,0,0,0,0,0,0,0,0,0,0,0,0,0,0,0,0,0,0,0,0,0,0,0,0,0,0,0,0,0,0,0,0,0,0,0,0,0,0,0,0,0,0,0,0,0,0,0,0,0,0,0,0,0,0,0,0,0,0,0,0,0,0,0,0,0,0,0,0,0,0,0,0,0,0,0,0,0,0,0,0,0,0,0,0,0,0,0,0,0,0,0,0,0,0,0,0,0,0,0,0,0,0,0,0,0,0,0,0,0,0,0,0,0,0,0,0,0,0,0,0,0,0,0,0,0,0,0,0,0,0,0,0,0,0,0,0,0,0,0,0,0,0,0,0,0,0,0,0,0,0,0,0,0,0,0,0,0,0,0,0,0,0,0,0,0,0,0,0,0,0,0,0,0,0,0,0,0,0,0,0,0,0,0,0,0,0,0,0,0,0,0,0,0,0,0,0,0,0,0,0,0,0,0,0,0,0,0,0,0,0,0,0,0,0,0,0,0,0,0,0,0,0,0,0,0,0,0,0,0,0,0,0,0,0,0,0,0,0,0,0,0,0,0,0,0,0,0,0,0,0,0,0,0,0,0,0,0,0,0,0,0,0,0,0,0,0,0,0,0,0,0,0,0,0,0,0,0,0,0,0,0,0,0,0,0,0,0,0,0,0,0,0,0,0,0,0,0,0,0,0,0,0,0,0,0,0,0,0,0,0,0,0,0,0,0,0,0,0,0,0,0,0,0,0,0,0,0,0,0,0,0,0,0,0,0,0,0,0,0,0,0,0,0,0,0,0,0,0,0,0,0,0,0,0,0,0,0,0,0,0,0,0,0,0,0,0,0,0,0,0,0,0,0,0,0,0,0,0,0,0,0,0,0,0,0,0,0,0,0,0,0,0,0,0,0,0,0,0,0,0,0,0,0,0,0,0,0,0,0,0,0,0,0,0,0,0,0,0,0,0,0,0,0,0,0,0,0,0,0,0,0,0,0,0,0,0,0,0,0,0,0,0,0,0,0,0,0,0,0,0,0,0,0,0,0,0,0,0,0,0,0,0,0,0,0,0,0,0,0,0,0,0,0,0,0,0,0,0,0,0,0,0,0,0,0,0,0,0,0,0,0,0,0,0,0,0,0,0,0,0,0,0,0,0,0,0,0,0,0,0,0,0,0,0,0,0,0,0,0,0,0,0,0,0,0,0,0,0,0,0,0,0,0,0,0,0,0,0,0,0,0,0,0,0,0,0,0,0,0,0,0,0,0,0,0,0,0,0,0,0,0,0,0,0,0,0,0,0,0,0,0,0,0,0,0,0,0,0,0,0,0,0,0,0,0,0,0,0,0,0,0,0,0,0,0,0,0,0,0,0,0,0,0,0,0,0,0,0,0,0,0,0,0,0,0,0,0,0,0,0,0,0,0,0,0,0,0,0,0,0,0,0,0,0,0,0,0,0,0,0,0,0,0,0,0,0,0,0,0,0,0,0,0,0,0,0,0,0,0,0,0,0,0,0,0,0,0,0,0,0,0,0,0,0,0,0,0,0,0,0,0,0,0,0,0,0,0,0,0,0,0,0,0,0,0,0,0,0,0,0,0,0,0,0,0,0,0,0,0,0,0,0,0,0,0,0,0,0,0,0,0,0,0,0,0,0,0,0,0,0,0,0,0,0,0,0,0,0,0,0,0,0,0,0,0,0,0,0,0,0,0,0,0,0,0,0,0,0,0,0,0,0,0,0,0,0,0,0,0,0,0,0,0,0,0,0,0,0,0,0,0,0,0,0,0,0,0,0,0,0,0,0,0,0,0,0,0,0,0,0,0,0,0,0,0,0,0,0,0,0,0,0,0,0,0,0,0,0,0,0,0,0,0,0,0,0,0,0,0,0,0,0,0,0,0,0,0,0,0,0,0,0,0,0,0,0,0,0,0,0,0,0,0,0,0,0,0,0,0,0,0,0,0,0,0,0,0,0,0,0,0,0,0,0,0,0,0,0,0,0,0,0,0,0,0,0,0,0,0,0,0,0,0,0,0,0,0,0,0,0,0,0,0,0,0,0,0,0,0,0,0,0,0,0,0,0,0,0,0,0,0,0,0,0,0,0,0,0,0,0,0,0,0,0,0,0,0,0,0,0,0,0,0,0,0,0,0,0,0,0,0,0,0,0,0,0,0,0,0,0,0,0,0,0,0,0,0,0,0,0,0,0,0,0,0,0,0,0,0,0,0,0,0,0,0,0,0,0,0,0,0,0,0,0,0,0,0,0,0,0,0,0,0,0,0,0,0,0,0,0,0,0,0,0,0,0,0,0,0,0,0,0,0,0,0,0,0,0,0,0,0,0,0,0,0,0,0,0,0,0,0,0,0,0,0,0,0,0,0,0,0,0,0,0,0,0,0,0,0,0,0,0,0,0,0,0,0,0,0,0,0,0,0,0,0,0,0,0,0,0,0,0,0,0,0,0,0,0,0,0,0,0,0,0,0,0,0,0,0,0,0,0,0,0,0,0,0,0,0,0,0,0,0,0,0,0,0,0,0,0,0,0,0,0,0,0,0,0,0,0,0,0,0,0,0,0,0,0,0,0,0,0,0,0,0,0,0,0,0,0,0,0,0,0,0,0,0,0,0,0,0,0,0,0,0,0,0,0,0,0,0,0,0,0,0,0,0,0,0,0,0,0,0,0,0,0,0,0,0,0,0,0,0,0,0,0,0,0,0,0,0,0,0,0,0,0,0,0,0,0,0,0,0,0,0,0,0,0,0,0,0,0,0,0,0,0,0,0,0,0,0,0,0,0,0,0,0,0,0,0,0,0,0,0,0,0,0,0,0,0,0,0,0,0,0,0,0,0,0,0,0,0,0,0,0,0,0,0,0,0,0,0,0,0,0,0,0,0,0,0,0,0,0,0,0,0,0,0,0,0,0,0,0,0,0,0,0,0,0,0,0,0,0,0,0,0,0,0,0,0,0,0,0,0,0,0,0,0,0,0,0,0,0,0,0,0,0,0,0,0,0,0,0,0,0,0,0,0,0,0,0,0,0,0,0,0,0,0,0,0,0,0,0,0,0,0,0,0,0,0,0,0,0,0,0,0,0,0,0,0,0,0,0,0,0,0,0,0,0,0,0,0,0,0,0,0,0,0,0,0,0,0,0,0,0,0,0,0,0,0,0,0,0,0,0,0,0,0,0,0,0,0,0,0,0,0,0,0,0,0,0,0,0,0,0,0,0,0,0,0,0,0,0,0,0,0,0,0,0,0,0,0,0,0,0,0,0,0,0,0,0,0,0,0,0,0,0,0,0,0,0,0,0,0,0,0,0,0,0,0,0,0,0,0,0,0,0,0,0,0,0,0,0,0,0,0,0,0,0,0,0,0,0,0,0,0,0,0,0,0,0,0,0,0,0,0,0,0,0,0,0,0,0,0,0,0,0,0,0,0,0,0,0,0,0,0,0,0,0,0,0,0,0,0,0,0,0,0,0,0,0,0,0,0,0,0,0,0,0,0,0,0,0,0,0,0,0,0,0,0,0,0,0,0,0,0,0,0,0,0,0,0,0,0,0,0,0,0,0,0,0,0,0,0,0,0,0,0,0,0,0,0,0,0,0,0,0,0,0,0,0,0,0,0,0,0,0,0,0,0,0,0,0,0,0,0,0,0,0,0,0,0,0,0,0,0,0,0,0,0,0,0,0,0,0,0,0,0,0,0,0,0,0,0,0,0,0,0,0,0,0,0,0,0,0,0,0,0,0,0,0,0,0,0,0,0,0,0,0,0,0,0,0,0,0,0,0,0,0,0,0,0,0,0,0,0,0,0,0,0,0,0,0,0,0,0,0,0,0,0,0,0,0,0,0,0,0,0,0,0,0,0,0,0,0,0,0,0,0,0,0,0,0,0,0,0,0,0,0,0,0,0,0,0,0,0,0,0,0,0,0,0,0,0,0,0,0,0,0,0,0,0,0,0,0,0,0,0,0,0,0,0,0,0,0,0,0,0,0,0,0,0,0,0,0,0,0,0,0,0,0,0,0,0,0,0,0,0,0,0,0,0,0,0,0,0,0,0,0,0,0,0,0,0,0,0,0,0,0,0,0,0,0,0,0,0,0,0,0,0,0,0,0,0,0,0,0,0,0,0,0,0,0,0,0,0,0,0,0,0,0,0,0,0,0,0,0,0,0,0,0,0,0,0,0,0,0,0,0,0,0,0,0,0,0,0,0,0,0,0,0,0,0,0,0,0,0,0,0,0,0,0,0,0,0,0,0,0,0,0,0,0,0,0,0,0,0,0,0,0,0,0,0,0,0,0,0,0,0,0,0,0,0,0,0,0,0,0,0,0,0,0,0,0,0,0,0,0,0,0,0,0,0,0,0,0,0,0,0,0,0,0,0,0,0,0,0,0,0,0,0,0,0,0,0,0,0,0,0,0,0,0,0,0,0,0,0,0,0,0,0,0,0,0,0,0,0,0,0,0,0,0,0,0,0,0,0,0,0,0,0,0,0,0,0,0,0,0,0,0,0,0,0,0,0,0,0,0,0,0,0,0,0,0,0,0,0,0,0,0,0,0,0,0,0,0,0,0,0,0,0,0,0,0,0,0,0,0,0,0,0,0,0,0,0,0,0,0,0,0,0,0,0,0,0,0,0,0,0,0,0,0,0,0,0,0,0,0,0,0,0,0,0,0,0,0,0,0,0,0,0,0,0,0,0,0,0,0,0,0,0,0,0,0,0,0,0,0,0,0,0,0,0,0,0,0,0,0,0,0,0,0,0,0,0,0,0,0,0,0,0,0,0,0,0,0,0,0,0,0,0,0,0,0,0,0,0,0,0,0,0,0,0,0,0,0,0,0,0,0,0,0,0,0,0,0,0,0,0,0,0,0,0,0,0,0,0,0,0,0,0,0,0,0,0,0,0,0,0,0,0,0,0,0,0,0,0,0,0,0,0,0,0,0,0,0,0,0,0,0,0,0,0,0,0,0,0,0,0,0,0,0,0,0,0,0,0,0,0,0,0,0,0,0,0,0,0,0,0,0,0,0,0,0,0,0,0,0,0,0,0,0,0,0,0,0,0,0,0,0,0,0,0,0,0,0,0,0,0,0,0,0,0,0,0,0,0,0,0,0,0,0,0,0,0,0,0,0,0,0,0,0,0,0,0,0,0,0,0,0,0,0,0,0,0,0,0,0,0,0,0,0,0,0,0,0,0,0,0,0,0,0,0,0,0,0,0,0,0,0,0,0,0,0,0,0,0,0,0,0,0,0,0,0,0,0,0,0,0,0,0,0,0,0,0,0,0,0,0,0,0,0,0,0,0,0,0,0,0,0,0,0,0,0,0,0,0,0,0,0,0,0,0,0,0,0,0,0,0,0,0,0,0,0,0,0,0,0,0,0,0,0,0,0,0,0,0,0,0,0,0,0,0,0,0,0,0,0,0,0,0,0,0,0,0,0,0,0,0,0,0,0,0,0,0,0,0,0,0,0,0,0,0,0,0,0,0,0,0,0,0,0,0,0,0,0,0,0,0,0,0,0,0,0,0,0,0,0,0,0,0,0,0,0,0,0,0,0,0,0,0,0,0,0,0,0,0,0,0,0,0,0,0,0,0,0,0,0,0,0,0,0,0,0,0,0,0,0,0,0,0,0,0,0,0,0,0,0,0,0,0,0,0,0,0,0,0,0,0,0,0,0,0,0,0,0,0,0,0,0,0,0,0,0,0,0,0,0,0,0,0,0,0,0,0,0,0,0,0,0,0,0,0,0,0,0,0,0,0,0,0,0,0,0,0,0,0,0,0,0,0,0,0,0,0,0,0,0,0,0,0,0,0,0,0,0,0,0,0,0,0,0,0,0,0,0,0,0,0,0,0,0,0,0,0,0,0,0,0,0,0,0,0,0,0,0,0,0,0,0,0,0,0,0,0,0,0,0,0,0,0,0,0,0,0,0,0,0,0,0,0,0,0,0,0,0,0,0,0,0,0,0,0,0,0,0,0,0,0,0,0,0,0,0,0,0,0,0,0,0,0,0,0,0,0,0,0,0,0,0,0,0,0,0,0,0,0,0,0,0,0,0,0,0,0,0,0,0,0,0,0,0,0,0,0,0,0,0,0,0,0,0,0,0,0,0,0,0,0,0,0,0,0,0,0,0,0,0,0,0,0,0,0,0,0,0,0,0,0,0,0,0,0,0,0,0,0,0,0,0,0,0,0,0,0,0,0,0,0,0,0,0,0,0,0,0,0,0,0,0,0,0,0,0,0,0,0,0,0,0,0,0,0,0,0,0,0,0,0,0,0,0,0,0,0,0,0,0,0,0,0,0,0,0,0,0,0,0,0,0,0,0,0,0,0,0,0,0,0,0,0,0,0,0,0,0,0,0,0,0,0,0,0,0,0,0,0,0,0,0,0,0,0,0,0,0,0,0,0,0,0,0,0,0,0,0,0,0,0,0,0,0,0,0,0,0,0,0,0,0,0,0,0,0,0,0,0,0,0,0,0,0,0,0,0,0,0,0,0,0,0,0,0,0,0,0,0,0,0,0,0,0,0,0,0,0,0,0,0,0,0,0,0,0,0,0,0,0,0,0,0,0,0,0,0,0,0,0,0,0,0,0,0,0,0,0,0,0,0,0,0,0,0,0,0,0,0,0,0,0,0,0,0,0,0,0,0,0,0,0,0,0,0,0,0,0,0,0,0,0,0,0,0,0,0,0,0,0,0,0,0,0,0,0,0,0,0,0,0,0,0,0,0,0,0,0,0,0,0,0,0,0,0,0,0,0,0,0,0,0,0,0,0,0,0,0,0,0,0,0,0,0,0,0,0,0,0,0,0,0,0,0,0,0,0,0,0,0,0,0,0,0,0,0,0,0,0,0,0,0,0,0,0,0,0,0,0,0,0,0,0,0,0,0,0,0,0,0,0,0,0,0,0,0,0,0,0,0,0,0,0,0,0,0,0,0,0,0,0,0,0,0,0,0,0,0,0,0,0,0,0,0,0,0,0,0,0,0,0,0,0,0,0,0,0,0,0,0,0,0,0,0,0,0,0,0,0,0,0,0,0,0,0,0,0,0,0,0,0,0,0,0,0,0,0,0,0,0,0,0,0,0,0,0,0,0,0,0,0,0,0,0,0,0,0,0,0,0,0,0,0,0,0,0,0,0,0,0,0,0,0,0,0,0,0,0,0,0,0,0,0,0,0,0,0,0,0,0,0,0,0,0,0,0,0,0,0,0,0,0,0,0,0,0,0,0,0,0,0,0,0,0,0,0,0,0,0,0,0,0,0,0,0,0,0,0,0,0,0,0,0,0,0,0,0,0,0,0,0,0,0,0,0,0,0,0,0,0,0,0,0,0,0,0,0,0,0,0,0,0,0,0,0,0,0,0,0,0,0,0,0,0,0,0,0,0,0,0,0,0,0,0,0,0,0,0,0,0,0,0,0,0,0,0,0,0,0,0,0,0,0,0,0,0,0,0,0,0,0,0,0,0,0,0,0,0,0,0,0,0,0,0,0,0,0,0,0,0,0,0,0,0,0,0,0,0,0,0,0,0,0,0,0,0,0,0,0,0,0,0,0,0,0,0,0,0,0,0,0,0,0,0,0,0,0,0,0,0,0,0,0,0,0,0,0,0,0,0,0,0,0,0,0,0,0,0,0,0,0,0,0,0,0,0,0,0,0,0,0,0,0,0,0,0,0,0,0,0,0,0,0,0,0,0,0,0,0,0,0,0,0,0,0,0,0,0,0,0,0,0,0,0,0,0,0,0,0,0,0,0,0,0,0,0,0,0,0,0,0,0,0,0,0,0,0,0,0,0,0,0,0,0,0,0,0,0,0,0,0,0,0,0,0,0,0,0,0,0,0,0,0,0,0,0,0,0,0,0,0,0,0,0,0,0,0,0,0,0,0,0,0,0,0,0,0,0,0,0,0,0,0,0,0,0,0,0,0,0,0,0,0,0,0,0,0,0,0,0,0,0,0,0,0,0,0,0,0,0,0,0,0,0,0,0,0,0,0,0,0,0,0,0,0,0,0,0,0,0,0,0,0,0,0,0,0,0,0,0,0,0,0,0,0,0,0,0,0,0,0,0,0,0,0,0,0,0,0,0,0,0,0,0,0,0,0,0,0,0,0,0,0,0,0,0,0,0,0,0,0,0,0,0,0,0,0,0,0,0,0,0,0,0,0,0,0,0,0,0,0,0,0,0,0,0,0,0,0,0,0,0,0,0,0,0,0,0,0,0,0,0,0,0,0,0,0,0,0,0,0,0,0,0,0,0,0,0,0,0,0,0,0,0,0,0,0,0,0,0,0,0,0,0,0,0,0,0,0,0,0,0,0,0,0,0,0,0,0,0,0,0,0,0,0,0,0,0,0,0,0,0,0,0,0,0,0,0,0,0,0,0,0,0,0,0,0,0,0,0,0,0,0,0,0,0,0,0,0,0,0,0,0,0,0,0,0,0,0,0,0,0,0,0,0,0,0,0,0,0,0,0,0,0,0,0,0,0,0,0,0,0,0,0,0,0,0,0,0,0,0,0,0,0,0,0,0,0,0,0,0,0,0,0,0,0,0,0,0,0,0,0,0,0,0,0,0,0,0,0,0,0,0,0,0,0,0,0,0,0,0,0,0,0,0,0,0,0,0,0,0,0,0,0,0,0,0,0,0,0,0,0,0,0,0,0,0,0,0,0,0,0,0,0,0,0,0,0,0,0,0,0,0,0,0,0,0,0,0,0,0,0,0,0,0,0,0,0,0,0,0,0,0,0,0,0,0,0,0,0,0,0,0,0,0,0,0,0,0,0,0,0,0,0,0,0,0,0,0,0,0,0,0,0,0,0,0,0,0,0,0,0,0,0,0,0,0,0,0,0,0,0,0,0,0,0,0,0,0,0,0,0,0,0,0,0,0,0,0,0,0,0,0,0,0,0,0,0,0,0,0,0,0,0,0,0,0,0,0,0,0,0,0,0,0,0,0,0,0,0,0,0,0,0,0,0,0,0,0,0,0,0,0,0,0,0,0,0,0,0,0,0,0,0,0,0,0,0,0,0,0,0,0,0,0,0,0,0,0,0,0,0,0,0,0,0,0,0,0,0,0,0,0,0,0,0,0,0,0,0,0,0,0,0,0,0,0,0,0,0,0,0,0,0,0,0,0,0,0,0,0,0,0,0,0,0,0,0,0,0,0,0,0,0,0,0,0,0,0,0,0,0,0,0,0,0,0,0,0,0,0,0,0,0,0,0,0,0,0,0,0,0,0,0,0,0,0,0,0,0,0,0,0,0,0,0,0,0,0,0,0,0,0,2123,2144,2144,2144,2144,2139,0,0,0,0,0,0,0,0,0,0,0,0,0,0,0,0,0,0,0,0,0,0,0,0,0,0,0,0,0,0,0,0,0,0,0,0,0,0,0,0,0,0,0,0,0,0,0,0,0,0,0,0,0,0,0,0,0,0,0,0,0,0,0,0,0,0,0,0,0,0,0,0,0,0,0,0,0,0,0,0,0,0,0,0,0,0,0,0,0,0,0,0,0,0,0,0,0,0,0,0,0,0,0,0,0,0,0,0,0,0,0,0,0,0,0,0,0,0,0,0,0,0,0,0,0,0,0,0,0,0,0,0,0,0,0,0,2123,2144,2146,2147485855,2147485855,2303,2255,2158,2144,2139,0,0,0,0,0,0,0,0,0,0,0,0,0,0,0,0,0,0,0,0,0,0,0,0,0,0,0,0,0,0,0,0,0,0,0,0,0,0,0,0,0,0,0,0,0,0,0,0,0,0,0,0,0,0,0,0,0,0,0,0,0,0,0,0,0,0,0,0,0,0,0,0,0,0,0,0,0,0,0,0,0,0,0,0,0,0,0,0,0,0,0,0,0,0,0,0,0,0,0,0,0,0,0,0,0,0,0,0,0,0,0,0,0,0,0,0,0,0,0,0,0,0,0,0,0,0,0,0,0,0,0,0,0,2123,2146,2207,2207,2255,2303,2147485855,2147485903,2147485855,2147485903,2158,2139,0,0,0,0,0,0,0,0,0,0,0,0,0,0,0,0,0,0,0,0,0,0,0,0,0,0,0,0,0,0,0,0,0,0,0,0,0,0,0,0,0,0,0,0,0,0,0,0,0,0,0,0,0,0,0,0,0,0,0,0,0,0,0,0,0,0,0,0,0,0,0,0,0,0,0,0,0,0,0,0,0,0,0,0,0,0,0,0,0,0,0,0,0,0,0,0,0,0,0,0,0,0,0,0,0,0,0,0,0,0,0,0,0,0,0,0,0,0,0,0,0,0,0,0,0,0,0,0,0,0,0,2123,2146,2147485903,2207,2147485903,2207,2207,2147485903,2147485855,2255,2147485807,2255,2158,2139,0,0,0,0,0,0,0,0,0,0,0,0,0,0,0,0,0,0,0,0,0,0,0,0,0,0,0,0,0,0,0,0,0,0,0,0,0,0,0,0,0,0,0,0,0,0,0,0,0,0,0,0,0,0,0,0,0,0,0,0,0,0,0,0,0,0,0,0,0,0,0,0,0,0,0,0,0,0,0,0,0,0,0,0,0,0,0,0,0,0,0,0,0,0,0,0,0,0,0,0,0,0,0,0,0,0,0,0,0,0,0,0,0,0,0,0,0,0,0,0,0,0,0,0,0,0,0,0,0,0,2117,2154,2147485855,2147485807,2147485855,2147485855,2255,2303,2147485903,2147485903,2147485807,2159,2157,2147,0,0,0,0,0,0,0,0,0,0,0,0,0,0,0,0,0,0,0,0,0,0,0,0,0,0,0,0,0,0,0,0,0,0,0,0,0,0,0,0,0,0,0,0,0,0,0,0,0,0,0,0,0,0,0,0,0,0,0,0,0,0,0,0,0,0,0,0,0,0,0,0,0,0,0,0,0,0,0,0,0,0,0,0,0,0,0,0,0,0,0,0,0,0,0,0,0,0,0,0,0,0,0,0,0,0,0,0,0,0,0,0,0,0,0,2123,2144,2144,2144,2144,2144,2144,2139,0,0,0,0,0,0,0,0,2117,2154,2147485855,2147485807,2303,2147485903,2147485951,2207,2207,2159,2157,2147,0,0,0,0,0,0,0,0,0,0,0,0,0,0,0,0,0,0,0,0,0,0,0,0,0,0,0,0,0,0,0,0,0,0,0,0,0,0,0,0,0,0,0,0,0,0,0,0,0,0,0,0,0,0,0,0,0,0,0,0,0,0,0,0,0,0,0,0,0,0,0,0,0,0,0,0,0,0,0,0,0,0,0,0,0,0,0,0,0,0,0,0,0,0,0,0,0,0,0,0,0,0,0,0,0,0,0,0,0,0,0,0,0,0,2123,2144,2146,2303,2159,2147485855,2147485903,2207,2147485807,2158,2144,2139,0,0,0,0,0,0,0,2117,2149,2154,2147485951,2147485903,2147485855,2147485855,2157,2149,2147,0,0,0,0,0,0,0,0,0,0,0,0,0,0,0,0,0,0,0,0,0,0,0,0,0,0,0,0,0,0,0,0,0,0,0,0,0,0,0,0,0,0,0,0,0,0,0,0,0,0,0,0,0,0,0,0,0,0,0,0,0,0,0,0,0,0,0,0,0,0,0,0,0,0,0,0,0,0,0,0,0,0,0,0,0,0,0,0,0,0,0,0,0,0,0,0,0,0,0,0,0,0,0,0,0,0,0,0,0,0,0,0,0,0,2123,2146,2147485855,2207,2159,2147485807,2255,2147485903,2147485903,2159,2159,2207,2158,2139,0,0,0,0,0,0,0,0,2117,2149,2149,2149,2149,2147,0,0,0,0,0,0,0,0,0,0,0,0,0,0,0,0,0,0,0,0,0,0,0,0,0,0,0,0,0,0,0,0,0,0,0,0,0,0,0,0,0,0,0,0,0,0,0,0,0,0,0,0,0,0,0,0,0,0,0,0,0,0,0,0,0,0,0,0,0,0,4379,4400,2144,2144,2144,2144,2144,2144,2144,2139,0,0,0,0,0,0,0,0,0,0,0,0,0,0,0,0,0,0,0,0,0,0,0,0,0,0,0,0,0,0,0,0,0,0,0,2123,2146,2207,2147485855,2303,2147485903,2303,2147485807,2159,2255,2147485903,2147485807,2303,2303,2158,2139,0,0,0,0,0,0,0,0,0,0,0,0,0,0,0,0,0,0,0,0,0,0,0,0,0,0,0,0,0,0,0,0,0,0,0,0,0,0,0,0,0,0,0,0,0,0,0,0,0,0,0,0,0,0,0,0,0,0,0,0,0,0,0,0,0,0,0,0,0,0,0,0,0,0,0,0,0,0,0,0,4379,4400,4400,4402,2255,2207,2147485855,2147485903,2147485855,2147485807,2255,2303,4462,4448,4448,4443,0,0,0,0,0,0,0,0,0,0,0,0,0,0,0,0,0,0,0,0,0,0,0,0,0,0,0,0,0,0,0,0,2117,2154,2147485903,2207,2207,2159,2303,2147485903,2147485903,2255,2147485807,2147485951,2207,2147485807,2157,2147,0,0,0,0,0,0,0,0,0,0,0,0,0,0,0,0,0,0,0,0,0,0,0,0,0,0,0,0,0,0,0,0,0,0,0,0,0,0,0,0,0,0,0,0,0,0,0,0,0,0,0,0,0,0,0,0,0,0,0,0,0,0,0,0,0,0,0,0,0,0,0,0,0,0,0,0,0,0,0,4379,4402,2255,2147485951,2147485903,2255,2255,2303,2147485807,2207,2147485855,2159,2147485951,2147485951,2147485951,2255,4462,4443,0,0,0,0,0,0,0,0,0,0,0,2123,2144,2144,2144,2144,2144,2144,2139,0,0,0,0,0,0,0,0,0,0,0,0,0,2117,2154,2147485855,2147485855,2147485855,2147485807,2147485855,2303,2147485951,2159,2147485951,2255,2157,2147,0,0,0,0,0,0,0,0,0,0,0,0,0,0,0,0,0,0,0,0,0,0,0,0,0,0,0,0,0,0,0,0,0,0,0,0,0,0,0,0,0,0,0,0,0,0,0,0,0,0,0,0,0,0,0,0,0,0,0,0,0,0,0,0,0,0,0,0,0,0,0,0,0,0,0,0,0,0,0,4379,4402,2303,2255,2207,2147485807,2147485951,2159,2147485951,2147485903,2147485855,2159,2303,2147485903,2147485855,2147485903,2207,2159,4462,4443,0,0,0,0,0,0,0,2123,2144,2144,2146,2303,2255,2147485855,2147485807,2147485951,2255,2158,2144,2144,2139,0,0,0,0,0,0,0,0,0,0,0,2117,2149,2154,2147485855,2159,2147485951,2147485903,2147485855,2147485807,2157,2149,2147,0,0,0,0,0,0,0,0,0,0,0,0,0,0,0,0,0,0,0,0,0,0,0,0,0,0,0,0,0,0,0,0,0,0,0,0,0,0,0,0,0,0,0,0,0,0,0,0,0,0,0,0,0,0,0,0,0,0,0,0,0,0,0,0,0,0,0,0,0,0,0,0,0,0,0,0,0,0,0,0,2117,2154,2147485903,2147485807,2207,2147485807,2255,2159,2207,2147485903,2147485807,2147485903,2147485807,2147485951,2147485903,2303,2303,2147485951,4461,4451,0,0,0,0,0,0,2123,2146,2147485855,2207,2255,2147485855,2303,2147485903,2159,2303,2255,2303,2207,2159,2158,2139,0,0,0,0,0,0,0,0,0,0,0,0,2117,2149,2149,2149,2149,2149,2149,2147,0,0,0,0,0,0,0,0,0,0,0,0,0,0,0,0,0,0,0,0,0,0,0,0,0,0,0,0,0,0,0,0,0,0,0,0,0,0,0,0,0,0,0,0,0,0,0,0,0,0,0,0,0,0,0,0,0,0,0,0,0,0,0,0,0,0,0,0,0,0,0,0,0,0,0,0,0,0,0,0,0,0,0,2117,2154,2255,2147485903,2147485951,2147485855,2147485855,2159,2207,2147485951,2255,2147485951,2147485807,2207,2147485855,2147485807,2157,2147,0,0,0,0,0,0,0,2117,2154,2303,2147485855,2159,2255,2147485855,2255,2147485951,2147485855,2147485807,2255,2207,2147485807,2157,2147,0,0,0,0,0,0,0,0,0,0,0,0,0,0,0,0,0,0,0,0,0,0,0,0,0,0,0,0,0,0,0,0,0,0,0,0,0,0,0,0,0,0,0,0,0,0,0,0,0,0,0,0,0,0,0,0,0,0,0,0,0,0,0,0,0,0,0,0,0,0,0,0,0,0,0,0,0,0,0,0,0,0,0,0,0,0,0,0,0,0,0,0,0,0,0,0,0,0,0,0,0,0,0,0,2117,2149,2149,2154,2159,2159,2159,2147485903,2147485903,2159,2147485807,2207,2157,2149,2149,2147,0,0,0,0,0,0,0,0,0,2117,2149,2149,2154,2147485855,2303,2159,2147485903,2207,2147485807,2157,2149,2149,2147,0,0,0,0,0,0,0,0,0,0,0,0,0,0,0,0,0,0,0,0,0,0,0,0,0,0,0,0,0,0,0,0,0,0,0,0,0,0,0,0,0,0,0,0,0,0,0,0,0,0,0,0,0,0,0,0,0,0,0,0,0,0,0,0,0,0,0,0,0,0,0,0,0,0,0,0,0,0,0,0,0,0,0,0,0,0,0,0,0,0,0,0,0,0,0,0,0,0,0,0,0,0,0,0,0,0,0,0,2117,2149,2149,2149,2149,2149,2149,2149,2149,2147,0,0,0,0,0,0,0,0,0,0,0,0,0,0,0,2117,2149,2149,2149,2149,2149,2149,2147,0,0,0,0,0,0,0,0,0,0,0,0,0,0,0,0,0,0,0,0,0,0,0,0,0,0,0,0,0,0,0,0,0,0,0,0,0,0,0,0,0,0,0,0,0,0,0,0,0,0,0,0,0,0,0,0,0,0,0,0,0,0,0,0,0,0,0,0,0,0,0,0,0,0,0,0,0,0,0,0,0,0,0,0,0,0,0,0,0,0,0,0,0,0,0,0,0,0,0,0,0,0,0,0,0,0,0,0,0,0,0,0,0,0,0,0,0,0,0,0,0,0,0,0,0,0,0,0,0,0,0,0,0,0,0,0,0,0,0,0,0,0,0,0,0,0,0,0,0,0,0,0,0,0,0,0,0,0,0,0,0,0,0,0,0,0,0,0,0,0,0,0,0,0,0,0,0,0,0,0,0,0,0,0,0,0,0,0,0,0,0,0,0,0,0,0,0,0,0,0,0,0,0,0,0,0,0,0,0,0,0,0,0,0,0,0,0,0,0,0,0,0,0,0,0,0,0,0,0,0,0,0,0,0,0,0,0,0,0,0,0,0,0,0,0,0,0,0,0,0,0,0,0,0,0,0,0,0,0,0,0,0,0,0,0,0,0,0,0,0,0,0,0,0,0,0,0,0,0,0,0,0,0,0,0,0,0,0,0,0,0,0,0,0,0,0,0,0,0,0,0,0,0,0,0,0,0,0,0,0,0,0,0,0,0,0,0,0,0,0,0,0,0,0,0,0,0,0,0,0,0,0,0,0,0,0,0,0,0,0,0,0,0,0,0,0,0,0,0,0,0,0,0,0,0,0,0,0,0,0,0,0,0,0,0,0,0,0,0,0,0,0,0,0,0,0,0,0,0,0,0,0,0,0,0,0,0,0,0,0,0,0,0,0,0,0,0,0,0,0,0,0,0,0,0,0,0,0,0,0,0,0,0,0,0,0,0,0,0,0,0,0,0,0,0,0,0,0,0,0,0,0,0,0,0,0,0,0,0,0,0,0,0,0,0,0,0,0,0,0,0,0,0,0,0,0,0,0,0,0,0,0,0,0,0,0,0,0,0,0,0,0,0,0,0,0,0,0,0,0,0,0,0,0,0,0,0,0,0,0,0,0,0,0,0,0]},{"id":12,"name":"qinling","type":"tilelayer","x":0,"y":0,"opacity":1,"visible":true,"width":144,"height":96,"data":[0,0,0,0,0,0,0,0,0,0,0,0,0,0,0,0,0,0,0,0,0,0,0,0,0,0,0,0,0,0,0,0,0,0,0,0,0,0,0,0,0,0,0,0,0,0,0,0,0,0,0,0,0,0,0,0,0,0,0,0,0,0,0,0,0,0,0,0,0,0,0,0,0,0,0,0,0,0,0,0,0,0,0,0,0,0,0,0,0,0,0,0,0,0,0,0,0,0,0,0,0,0,0,0,0,0,0,0,0,0,0,0,0,0,0,0,0,0,0,0,0,0,0,0,0,0,0,0,0,0,0,0,0,0,0,0,0,0,0,0,0,0,0,0,0,0,0,0,0,0,0,0,0,0,0,0,0,0,0,0,0,0,0,0,0,0,0,0,0,0,0,0,0,0,0,0,0,0,0,0,0,0,0,0,0,0,0,0,0,0,0,0,0,0,0,0,0,0,0,0,0,0,0,0,0,0,0,0,0,0,0,0,0,0,0,0,0,0,0,0,0,0,0,0,0,0,0,0,0,0,0,0,0,0,0,0,0,0,0,0,0,0,0,0,0,0,0,0,0,0,0,0,0,0,0,0,0,0,0,0,0,0,0,0,0,0,0,0,0,0,0,0,0,0,0,0,0,0,0,0,0,0,0,0,0,0,0,0,0,0,0,0,0,0,0,0,0,0,0,0,0,0,0,0,0,0,0,0,0,0,0,0,0,0,0,0,0,0,0,0,0,0,0,0,0,0,0,0,0,0,0,0,0,0,0,0,0,0,0,0,0,0,0,0,0,0,0,0,0,0,0,0,0,0,0,0,0,0,0,0,0,0,0,0,0,0,0,0,0,0,0,0,0,0,0,0,0,0,0,0,0,0,0,0,0,0,0,0,0,0,0,0,0,0,0,0,0,0,0,0,0,0,0,0,0,0,0,0,0,0,0,0,0,0,0,0,0,0,0,0,0,0,0,0,0,0,0,0,0,0,0,0,0,0,0,0,0,0,0,0,0,0,0,0,0,0,0,0,0,0,0,0,0,0,0,0,0,0,0,0,0,0,0,0,0,0,0,0,0,0,0,0,0,0,0,0,0,0,0,0,0,0,0,0,0,0,0,0,0,0,0,0,0,0,0,0,0,0,0,0,0,0,0,0,0,0,0,0,0,0,0,0,0,0,0,0,0,0,0,0,0,0,0,0,0,0,0,0,0,0,0,0,0,0,0,0,0,0,0,0,0,0,0,0,0,0,0,0,0,0,0,0,0,0,0,0,0,0,0,0,0,0,0,0,0,0,0,0,0,0,0,0,0,0,0,0,0,0,0,0,0,0,0,0,0,0,0,0,0,0,0,0,0,0,0,0,0,0,0,0,0,0,0,0,0,0,0,0,0,0,0,0,0,0,0,0,0,0,0,0,0,0,0,0,0,0,0,0,0,0,0,0,0,0,0,0,0,0,0,0,0,0,0,0,0,0,0,0,0,0,0,0,0,0,0,0,0,0,0,0,0,0,0,0,0,0,0,0,0,0,0,0,0,0,0,0,0,0,0,0,0,0,0,0,0,0,0,0,0,0,0,0,0,0,0,0,0,0,0,0,0,0,0,0,0,0,0,0,0,0,0,0,0,0,0,0,0,0,0,0,0,0,0,0,0,0,0,0,0,0,0,0,0,0,0,0,0,0,0,0,0,0,0,0,0,0,0,0,0,0,0,0,0,0,0,0,0,0,0,0,0,0,0,0,0,0,0,0,0,0,0,0,0,0,0,0,0,0,0,0,0,0,0,0,0,0,0,0,0,0,0,0,0,0,0,0,0,0,0,0,0,0,0,0,0,0,0,0,0,0,0,0,0,0,0,0,0,0,0,0,0,0,0,0,0,0,0,0,0,0,0,0,0,0,0,0,0,0,0,0,0,0,0,0,0,0,0,0,0,0,0,0,0,0,0,0,0,0,0,0,0,0,0,0,0,0,0,0,0,0,0,0,0,0,0,0,0,0,0,0,0,0,0,0,0,0,0,0,0,0,0,0,0,0,0,0,0,0,0,0,0,0,0,0,0,0,0,0,0,0,0,0,0,0,0,0,0,0,0,0,0,0,0,0,0,0,0,0,0,0,0,0,0,0,0,0,0,0,0,0,0,0,0,0,0,0,0,0,0,0,0,0,0,0,0,0,0,0,0,0,0,0,0,0,0,0,0,0,0,0,0,0,0,0,0,0,0,0,0,0,0,0,0,0,0,0,0,0,0,0,0,0,0,0,0,0,0,0,0,0,0,0,0,0,0,0,0,0,0,0,0,0,0,0,0,0,0,0,0,0,0,0,0,0,0,0,0,0,0,0,0,0,0,0,0,0,0,0,0,0,0,0,0,0,0,0,0,0,0,0,0,0,0,0,0,0,0,0,0,0,0,0,0,0,0,0,0,0,0,0,0,0,0,0,0,0,0,0,0,0,0,0,0,0,0,0,0,0,0,0,0,0,0,0,0,0,0,0,0,0,0,0,0,0,0,0,0,0,0,0,0,0,0,0,0,0,0,0,0,0,0,0,0,0,0,0,0,0,0,0,0,0,0,0,0,0,0,0,0,0,0,0,0,0,0,0,0,0,0,0,0,0,0,0,0,0,0,0,0,0,0,0,0,0,0,0,0,0,0,0,0,0,0,0,0,0,0,0,0,0,0,0,0,0,0,0,0,0,0,0,0,0,0,0,0,0,0,0,0,0,0,0,0,0,0,0,0,0,0,0,0,0,0,0,0,0,0,0,0,0,0,0,0,0,0,0,0,0,0,0,0,0,0,0,0,0,0,0,0,0,0,0,0,0,0,0,0,0,0,0,0,0,0,0,0,0,0,0,0,0,0,0,0,0,0,0,0,0,0,0,0,0,0,0,0,0,0,0,0,0,0,0,0,0,0,0,0,0,0,0,0,0,0,0,0,0,0,0,0,0,0,0,0,0,0,0,0,0,0,0,0,0,0,0,0,0,0,0,0,0,0,0,0,0,0,0,0,0,0,0,0,0,0,0,0,0,0,0,0,0,0,0,0,0,0,0,0,0,0,0,0,0,0,0,0,0,0,0,0,0,0,0,0,0,0,0,0,0,0,0,0,0,0,0,0,0,0,0,0,0,0,0,0,0,0,0,0,0,0,0,0,0,0,0,0,0,0,0,0,0,0,0,0,0,0,0,0,0,0,0,0,0,0,0,0,0,0,0,0,0,0,0,0,0,0,0,0,0,0,0,0,0,0,0,0,0,0,0,0,0,0,0,0,0,0,0,0,0,0,0,0,0,0,0,0,0,0,0,0,0,0,0,0,0,0,0,0,0,0,0,0,0,0,0,0,0,0,0,0,0,0,0,0,0,0,0,0,0,0,0,0,0,0,0,0,0,0,0,0,0,0,0,0,0,0,0,0,0,0,0,0,0,0,0,0,0,0,0,0,0,0,0,0,0,0,0,0,0,0,0,0,0,0,0,0,0,0,0,0,0,0,0,0,0,0,0,0,0,0,0,0,0,0,0,0,0,0,0,0,0,0,0,0,0,0,0,0,0,0,0,0,0,0,0,0,0,0,0,0,0,0,0,0,0,0,0,0,0,0,0,0,0,0,0,0,0,0,0,0,0,0,0,0,0,0,0,0,0,0,0,0,0,0,0,0,0,0,0,0,0,0,0,0,0,0,0,0,0,0,0,0,0,0,0,0,0,0,0,0,0,0,0,0,0,0,0,0,0,0,0,0,0,0,0,0,0,0,0,0,0,0,0,0,0,0,0,0,0,0,0,0,0,0,0,0,0,0,0,0,0,0,0,0,0,0,0,0,0,0,0,0,0,0,0,0,0,0,0,0,0,0,0,0,0,0,0,0,0,0,0,0,0,0,0,0,0,0,0,0,0,0,0,0,0,0,0,0,0,0,0,0,0,0,0,0,0,0,0,0,0,0,0,0,0,0,0,0,0,0,0,0,0,0,0,0,0,0,0,0,0,0,0,0,0,0,0,0,0,0,0,0,0,0,0,0,0,0,0,0,0,0,0,0,0,0,0,0,0,0,0,0,0,0,0,0,0,0,0,0,0,0,0,0,0,0,0,0,0,0,0,0,0,0,0,0,0,0,0,0,0,0,0,0,0,0,0,0,0,0,0,0,0,0,0,0,0,0,0,0,0,0,0,0,0,0,0,0,0,0,0,0,0,0,0,0,0,0,0,0,0,0,0,0,0,0,0,0,0,0,0,0,0,0,0,0,0,0,0,0,0,0,0,0,0,0,0,0,0,0,0,0,0,0,0,0,0,0,0,0,0,0,0,0,0,0,0,0,0,0,0,0,0,0,0,0,0,0,0,0,0,0,0,0,0,0,0,0,0,0,0,0,0,0,0,0,0,0,0,0,0,0,0,0,0,0,0,0,0,0,0,0,0,0,0,0,0,0,0,0,0,0,0,0,0,0,0,0,0,0,0,0,0,0,0,0,0,0,0,0,0,0,0,0,0,0,0,0,0,0,0,0,0,0,0,0,0,0,0,0,0,0,0,0,0,0,0,0,0,0,0,0,0,0,0,0,0,0,0,0,0,0,0,0,0,0,0,0,0,0,0,0,0,0,0,0,0,0,0,0,0,0,0,0,0,0,0,0,0,0,0,0,0,0,0,0,0,0,0,0,0,0,0,0,0,0,0,0,0,0,0,0,0,0,0,0,0,0,0,0,0,0,0,0,0,0,0,0,0,0,0,0,0,0,0,0,0,0,0,0,0,0,0,0,0,0,0,0,0,0,0,0,0,0,0,0,0,0,0,0,0,0,0,0,0,0,0,0,0,0,0,0,0,0,0,0,0,0,0,0,0,0,0,0,0,0,0,0,0,0,0,0,0,0,0,0,0,0,0,0,0,0,0,0,0,0,0,0,0,0,0,0,0,0,0,0,0,0,0,0,0,0,0,0,0,0,0,0,0,0,0,0,0,0,0,0,0,0,0,0,0,0,0,0,0,0,0,0,0,0,0,0,0,0,0,0,0,0,0,0,0,0,0,0,0,0,0,0,0,0,0,0,0,0,0,0,0,0,0,0,0,0,0,0,0,0,0,0,0,0,0,0,0,0,0,0,0,0,0,0,0,0,0,0,0,0,0,0,0,0,0,0,0,0,0,0,0,0,0,0,0,0,0,0,0,0,0,0,0,0,0,0,0,0,0,0,0,0,0,0,0,0,0,0,0,0,0,0,0,0,0,0,0,0,0,0,0,0,0,0,0,0,0,0,0,0,0,0,0,0,0,0,0,0,0,0,0,0,0,0,0,0,0,0,0,0,0,0,0,0,0,0,0,0,0,0,0,0,0,0,0,0,0,0,0,0,0,0,0,0,0,0,0,0,0,0,0,0,0,0,0,0,0,0,0,0,0,0,0,0,0,0,0,0,0,0,0,0,0,0,0,0,0,0,0,0,0,0,0,0,0,0,0,0,0,0,0,0,0,0,0,0,0,0,0,0,0,0,0,0,0,0,0,0,0,0,0,0,0,0,0,0,0,0,0,0,0,0,0,0,0,0,0,0,0,0,0,0,0,0,0,0,0,0,0,0,0,0,0,0,0,0,0,0,0,0,0,0,0,0,0,0,0,0,0,0,0,0,0,0,0,0,0,0,0,0,0,0,0,0,0,0,0,0,0,0,0,0,0,0,0,0,0,0,0,0,0,0,0,0,0,0,0,0,0,0,0,0,0,0,0,0,0,0,0,0,0,0,0,0,0,0,0,0,0,0,0,0,0,0,0,0,0,0,0,0,0,0,0,0,0,0,0,0,0,0,0,0,0,0,0,0,0,0,0,0,0,0,0,0,0,0,0,0,0,0,0,0,0,0,0,0,0,0,0,0,0,0,0,0,0,0,0,0,0,0,0,0,0,0,0,0,0,0,0,0,0,0,0,0,0,0,0,0,0,0,0,0,0,0,0,0,0,0,0,0,0,0,0,0,0,0,0,0,0,0,0,0,0,0,0,0,0,0,0,0,0,0,0,0,0,0,0,0,0,0,0,0,0,0,0,0,0,0,0,0,0,0,0,0,0,0,0,0,0,0,0,0,0,0,0,0,0,0,0,0,0,0,0,0,0,0,0,0,0,0,0,0,0,0,0,0,0,0,0,0,0,0,0,0,0,0,0,0,0,0,0,0,0,0,0,0,0,0,0,0,0,0,0,0,0,0,0,0,0,0,0,0,0,0,0,0,0,0,0,0,0,0,0,0,0,0,0,0,0,0,0,0,0,0,0,0,0,0,0,0,0,0,0,0,0,0,0,0,0,0,0,0,0,0,0,0,0,0,0,0,0,0,0,0,0,0,0,0,0,0,0,0,0,0,0,0,0,0,0,0,0,0,0,0,0,0,0,0,0,0,0,0,0,0,0,0,0,0,0,0,0,0,0,0,0,0,0,0,0,0,0,0,0,0,0,0,0,0,0,0,0,0,0,0,0,0,0,0,0,0,0,0,0,0,0,0,0,0,0,0,0,0,0,0,0,0,0,0,0,0,0,0,0,0,0,0,0,0,0,0,0,0,0,0,0,0,0,0,0,0,0,0,0,0,0,0,0,0,0,0,0,0,0,0,0,0,0,0,0,0,0,0,0,0,0,0,0,0,0,0,0,0,0,0,0,0,0,0,0,0,0,0,0,0,0,0,0,0,0,0,0,0,0,0,0,0,0,0,0,0,0,0,0,0,0,0,0,0,0,0,0,0,0,0,0,0,0,0,0,0,0,0,0,0,0,0,0,0,0,0,0,0,0,0,0,0,0,0,0,0,0,0,0,0,0,0,0,0,0,0,0,0,0,0,0,0,0,0,0,0,0,0,0,0,0,0,0,0,0,0,0,0,0,0,0,0,0,0,0,0,0,0,0,0,0,0,0,0,0,0,0,0,0,0,0,0,0,0,0,0,0,0,0,0,0,0,0,0,0,0,0,0,0,0,0,0,0,0,0,0,0,0,0,0,0,0,0,0,0,0,0,0,0,0,0,0,0,0,0,0,0,0,0,0,0,0,0,0,0,0,0,0,0,0,0,0,0,0,0,0,0,0,0,0,0,0,0,0,0,0,0,0,0,0,0,0,0,0,0,0,0,0,0,0,0,0,0,0,0,0,0,0,0,0,0,0,0,0,0,0,0,0,0,0,0,0,0,0,0,0,0,0,0,0,0,0,0,0,0,0,0,0,0,0,0,0,0,0,0,0,0,0,0,0,0,0,0,0,0,0,0,0,0,0,0,0,0,0,0,0,0,0,0,0,0,0,0,0,0,0,0,0,0,0,0,0,0,0,0,0,0,0,0,0,0,0,0,0,0,0,0,0,0,0,0,0,0,0,0,0,0,0,0,0,0,0,0,0,0,0,0,0,0,0,0,0,0,0,0,0,0,0,0,0,0,0,0,0,0,0,0,0,0,0,0,0,0,0,0,0,0,0,0,0,0,0,0,0,0,0,0,0,0,0,0,0,0,0,0,0,0,0,0,0,0,0,0,0,0,0,0,0,0,0,0,0,0,0,0,0,0,0,0,0,0,0,0,0,0,0,0,0,0,0,0,0,0,0,0,0,0,0,0,0,0,0,0,0,0,0,0,0,0,0,0,0,0,0,0,0,0,0,0,0,0,0,0,0,0,0,0,0,0,0,0,0,0,0,0,0,0,0,0,0,0,0,0,0,0,0,0,0,0,0,0,0,0,0,0,0,0,0,0,0,0,0,0,0,0,0,0,0,0,0,0,0,0,0,0,0,0,0,0,0,0,0,0,0,0,0,0,0,0,0,0,0,0,0,0,0,0,0,0,0,0,0,0,0,0,0,0,0,0,0,0,0,0,0,0,0,0,0,0,0,0,0,0,0,0,0,0,0,0,0,0,0,0,0,0,0,0,0,0,0,0,0,0,0,0,0,0,0,0,0,0,0,0,0,0,0,0,0,0,0,0,0,0,0,0,0,0,0,0,0,0,0,0,0,0,0,0,0,0,0,0,0,0,0,0,0,0,0,0,0,0,0,0,0,0,0,0,0,0,0,0,0,0,0,0,0,0,0,0,0,0,0,0,0,0,0,0,0,0,0,0,0,0,0,0,0,0,0,0,0,0,0,0,0,0,0,0,0,0,0,0,0,0,0,0,0,0,0,0,0,0,0,0,0,0,0,0,0,0,0,0,0,0,0,0,0,0,0,0,0,0,0,0,0,0,0,0,0,0,0,0,0,0,0,0,0,0,0,0,0,0,0,0,0,0,0,0,0,0,0,0,0,0,0,0,0,0,0,0,0,0,0,0,0,0,0,0,0,0,0,0,0,0,0,0,0,0,0,0,0,0,0,0,0,0,0,0,0,0,0,0,0,0,0,0,0,0,0,0,0,0,0,0,0,0,0,0,0,0,0,0,0,0,0,0,0,0,0,0,0,0,0,0,0,0,0,0,0,0,0,0,0,0,0,0,0,0,0,0,0,0,0,0,0,0,0,0,0,0,0,0,0,0,0,0,0,0,0,0,0,0,0,0,0,0,0,0,0,0,0,0,0,0,0,0,0,0,0,0,0,0,0,0,0,0,0,0,0,0,0,0,0,0,0,0,0,0,0,0,0,0,0,0,0,0,0,0,0,0,0,0,0,0,0,0,0,0,0,0,0,0,0,0,0,0,0,0,0,0,0,0,0,0,0,0,0,0,0,0,0,0,0,0,0,0,0,0,0,0,0,0,0,0,0,0,0,0,0,0,0,0,0,0,0,0,0,0,0,0,0,0,0,0,0,0,0,0,0,0,0,0,0,0,0,0,0,0,0,0,0,0,0,0,0,0,0,0,0,0,0,0,0,0,0,0,0,0,0,0,0,0,0,0,0,0,0,0,0,0,0,0,0,0,0,0,0,0,0,0,0,0,0,0,0,0,0,0,0,0,0,0,0,0,0,0,0,0,0,0,0,0,0,0,0,0,0,0,0,0,0,0,0,0,0,0,0,0,0,0,0,0,0,0,0,0,0,0,0,0,0,0,0,0,0,0,0,0,0,0,0,0,0,0,0,0,0,0,0,0,0,0,0,0,0,0,0,0,0,0,0,0,0,0,0,0,0,0,0,0,0,0,0,0,0,0,0,0,0,0,0,0,0,0,0,0,0,0,0,0,0,0,0,0,0,0,0,0,0,0,0,0,0,0,0,0,0,0,0,0,0,0,0,0,0,0,0,0,0,0,0,0,0,0,0,0,0,0,0,0,0,0,0,0,0,0,0,0,0,0,0,0,0,0,0,0,0,0,0,0,0,0,0,0,0,0,0,0,0,0,0,0,0,0,0,0,0,0,0,0,0,0,0,0,0,0,0,0,0,0,0,0,0,0,0,0,0,0,0,0,0,0,0,0,0,0,0,0,0,0,0,0,0,0,0,0,0,0,0,0,0,0,0,0,0,0,0,0,0,0,0,0,0,0,0,0,0,0,0,0,0,0,0,0,0,0,0,0,0,0,0,0,0,0,0,0,0,0,0,0,0,0,0,0,0,0,0,0,0,0,0,0,0,0,0,0,0,0,0,0,0,0,0,0,0,0,0,0,0,0,0,0,0,0,0,0,0,0,0,0,0,0,0,0,0,0,0,0,0,0,0,0,0,0,0,0,0,0,0,0,0,0,0,0,0,0,0,0,0,0,0,0,0,0,0,0,0,0,0,0,0,0,0,0,0,0,0,0,0,0,0,0,0,0,0,0,0,0,0,0,0,0,0,0,0,0,0,0,0,0,0,0,0,0,0,0,0,0,0,0,0,0,0,0,0,0,0,0,0,0,0,0,0,0,0,0,0,0,0,0,0,0,0,0,0,0,0,0,0,0,0,0,0,0,0,0,0,0,0,0,0,0,0,0,0,0,0,0,0,0,0,0,0,0,0,0,0,0,0,0,0,0,0,0,0,0,0,0,0,0,0,0,0,0,0,0,0,0,0,0,0,0,0,0,0,0,0,0,0,0,0,0,0,0,0,0,0,0,0,0,0,0,0,0,0,0,0,0,0,0,0,0,0,0,0,0,0,0,0,0,0,0,0,0,0,0,0,0,0,0,0,0,0,0,0,0,0,0,0,0,0,0,0,0,0,0,0,0,0,0,0,0,0,0,0,0,0,0,0,0,0,0,0,0,0,0,0,0,0,0,0,0,0,0,0,0,0,0,0,0,0,0,0,0,0,0,0,0,0,0,0,0,0,0,0,0,0,0,0,0,0,0,0,0,0,0,0,0,0,0,0,0,0,0,0,0,0,0,0,0,0,0,0,0,0,0,0,0,0,0,0,0,0,0,0,0,0,0,0,0,0,0,0,0,0,0,0,0,0,0,0,0,0,0,0,0,0,0,0,0,0,0,0,0,0,0,0,0,0,0,0,0,0,0,0,0,0,0,0,0,0,0,0,0,0,0,0,0,0,0,0,0,0,0,0,0,0,0,0,0,0,0,0,0,0,0,0,0,0,0,0,0,0,0,0,0,0,0,0,0,0,0,0,0,0,0,0,0,0,0,0,0,0,0,0,0,0,0,0,0,0,0,0,0,0,0,0,0,0,0,0,0,0,0,0,0,0,0,0,0,0,0,0,0,0,0,0,0,0,0,0,0,0,0,0,0,0,0,0,0,0,0,0,0,0,0,0,0,0,0,0,0,0,0,0,0,0,0,0,0,0,0,0,0,0,0,0,0,0,0,0,0,0,0,0,0,0,0,0,0,0,0,0,0,0,0,0,0,0,0,0,0,0,0,0,0,0,0,0,0,0,0,0,0,0,0,0,0,0,0,0,0,0,0,0,0,0,0,0,0,0,0,0,0,0,0,0,0,0,0,0,0,0,0,0,0,0,0,0,0,0,0,0,0,0,0,0,0,0,0,0,0,0,0,0,0,0,0,0,0,0,0,0,0,0,0,0,0,0,0,0,0,0,0,0,0,0,0,0,0,0,0,0,0,0,0,0,0,0,0,0,0,0,0,0,0,0,0,0,0,0,0,0,0,0,0,0,0,0,0,0,0,0,0,0,0,0,0,0,0,0,0,0,0,0,0,0,0,0,0,0,0,0,0,0,0,0,0,0,0,0,0,0,0,0,0,0,0,0,0,0,0,0,0,0,0,0,0,0,0,0,0,0,0,0,0,0,0,0,0,0,0,0,0,0,0,0,0,0,0,0,0,0,0,0,0,0,0,0,0,0,0,0,0,0,0,0,0,0,0,0,0,0,0,0,0,0,0,0,0,0,0,0,0,0,0,0,0,0,0,0,0,0,0,0,0,0,0,0,0,0,0,0,0,0,0,0,0,0,0,0,0,0,0,0,0,0,0,0,0,0,0,0,0,0,0,0,0,0,0,0,0,0,0,0,0,0,0,0,0,0,0,0,0,0,0,0,0,0,0,0,0,0,0,0,0,0,0,0,0,0,0,0,0,0,0,0,0,0,0,0,0,0,0,0,0,0,0,0,0,0,0,0,0,0,0,0,0,0,0,0,0,0,0,0,0,0,0,0,0,0,0,0,0,0,0,0,0,0,0,0,0,0,0,0,0,0,0,0,0,0,0,0,0,0,0,0,0,0,0,0,0,0,0,0,0,0,0,0,0,0,0,0,0,0,0,0,0,0,0,0,0,0,0,0,0,0,0,0,0,0,0,0,0,0,0,0,0,0,0,0,0,0,0,0,0,0,0,0,0,0,0,0,0,0,0,0,0,0,0,0,0,0,0,0,0,0,0,0,0,0,0,0,0,0,0,0,0,0,0,0,0,0,0,0,0,0,0,0,0,0,0,0,0,0,0,0,0,0,0,0,0,0,0,0,0,0,0,0,0,0,0,0,0,0,0,0,0,0,0,0,0,0,0,0,0,0,0,0,0,0,0,0,0,0,0,0,0,0,0,0,0,0,0,0,0,0,0,0,0,0,0,0,0,0,0,0,0,0,0,0,0,0,0,0,0,0,0,0,0,0,0,0,0,0,0,0,0,0,0,0,0,0,0,0,0,0,0,0,0,0,0,0,0,0,0,0,0,0,0,0,0,0,0,0,0,0,0,0,0,0,0,0,0,0,0,0,0,0,0,0,0,0,0,0,0,0,0,0,0,0,0,0,0,0,0,0,0,0,0,0,0,0,0,0,0,0,0,0,0,0,0,0,0,0,0,0,0,0,0,0,0,0,0,0,0,0,0,0,0,0,0,0,0,0,0,0,0,0,0,0,0,0,0,0,0,0,0,0,0,0,0,0,0,0,0,0,0,0,0,0,0,0,0,0,0,0,0,0,0,0,0,0,0,0,0,0,0,0,0,0,0,0,0,0,0,0,0,0,0,0,0,0,0,0,0,0,0,0,0,0,0,0,0,0,0,0,0,0,0,0,0,0,0,0,0,0,0,0,0,0,0,0,0,0,0,0,0,0,0,0,0,0,0,0,0,0,0,0,0,0,0,0,0,0,0,0,0,0,0,0,0,0,0,0,0,0,0,0,0,0,0,0,0,0,0,0,0,0,0,0,0,0,0,0,0,0,0,0,0,0,0,0,0,0,0,0,0,0,0,0,0,0,0,0,0,0,0,0,0,0,0,0,0,0,0,0,0,0,0,0,0,0,0,0,0,0,0,0,0,0,0,0,0,0,0,0,0,0,0,0,0,0,0,0,0,0,0,0,0,0,0,0,0,0,0,0,0,0,0,0,0,0,0,0,0,0,0,0,0,0,0,0,0,0,0,0,0,0,0,0,0,0,0,0,0,0,0,0,0,0,0,0,0,0,0,0,0,0,0,0,0,0,0,0,0,0,0,0,0,0,0,0,0,0,0,0,0,0,0,0,0,0,0,0,0,0,0,0,0,0,0,0,0,0,0,0,0,0,0,0,0,0,0,0,0,0,0,0,0,0,0,0,0,0,0,0,0,0,0,0,0,0,0,0,0,0,0,0,0,0,0,0,0,0,0,0,0,0,0,0,0,0,0,0,0,0,0,0,0,0,0,0,0,0,0,0,0,0,0,0,0,0,0,0,0,0,0,0,0,0,0,0,0,0,0,0,0,0,0,0,0,0,0,0,0,0,0,0,0,0,0,0,0,0,0,0,0,0,0,0,0,0,0,0,0,0,0,0,0,0,0,0,0,0,0,0,0,0,0,0,0,0,0,0,0,0,0,0,0,0,0,0,0,0,0,0,0,0,0,0,0,0,0,0,0,0,0,0,0,0,0,0,0,0,0,0,0,0,0,0,0,0,0,0,0,0,0,0,0,0,0,0,0,0,0,0,0,0,0,0,0,0,0,0,0,0,0,0,0,0,0,0,0,0,0,0,0,0,0,0,0,0,0,0,0,0,0,0,0,0,0,0,0,0,0,0,0,0,0,0,0,0,0,0,0,0,0,0,0,0,0,0,0,0,0,0,0,0,0,0,0,0,0,0,0,0,0,0,0,0,0,0,0,0,0,0,0,0,0,0,0,0,0,0,0,0,0,0,0,0,0,0,0,0,0,0,0,0,0,0,0,0,0,0,0,0,0,0,0,0,0,0,0,0,0,0,0,0,0,0,0,0,0,0,0,0,0,0,0,0,0,0,0,0,0,0,0,0,0,0,0,0,0,0,0,0,0,0,0,0,0,0,0,0,0,0,0,0,0,0,0,0,0,0,0,0,0,0,0,0,0,0,0,0,0,0,0,0,0,0,0,0,0,0,0,0,0,0,0,0,0,0,0,0,0,0,0,0,0,0,0,0,0,0,0,0,0,0,0,0,0,0,0,0,0,0,0,0,0,0,0,0,0,0,0,0,0,0,0,0,0,0,0,0,0,0,0,0,0,0,0,0,0,0,0,0,0,0,0,0,0,0,0,0,0,0,0,0,0,0,0,0,0,0,0,0,0,0,0,0,0,0,0,0,0,0,0,0,0,0,0,0,0,0,0,0,0,0,0,0,0,0,0,0,0,0,0,0,0,0,0,0,0,0,0,0,0,0,0,0,0,0,0,0,0,0,0,0,0,0,0,0,0,0,0,0,0,0,0,0,0,0,0,0,0,0,0,0,0,0,0,0,0,0,0,0,0,0,0,0,0,0,0,0,0,0,0,0,0,0,0,0,0,0,0,0,0,0,0,0,0,0,0,0,0,0,0,0,0,0,0,0,0,0,0,0,0,0,0,0,0,0,0,0,0,0,0,0,0,0,0,0,0,0,0,0,0,0,0,0,0,0,0,0,0,0,0,0,0,0,0,0,0,0,0,0,0,0,0,0,0,0,0,0,0,0,0,0,0,0,0,0,0,0,0,0,0,0,0,0,0,0,0,0,0,0,0,0,0,0,0,0,0,0,0,0,0,0,0,0,0,0,0,0,0,0,0,0,0,0,0,0,0,0,0,0,0,0,0,0,0,0,0,0,0,0,0,0,0,0,0,0,0,0,0,0,0,0,0,0,0,0,0,0,0,0,0,0,0,0,0,0,0,0,0,0,0,0,0,0,0,0,0,0,0,0,0,0,0,0,0,0,0,0,0,0,0,0,0,0,0,0,0,0,0,0,0,0,0,0,0,0,0,0,0,0,0,0,0,0,0,0,0,0,0,0,0,0,0,0,0,0,0,0,0,0,0,0,0,0,0,0,0,0,0,0,0,0,0,0,0,0,0,0,0,0,0,0,0,0,0,0,0,0,0,0,0,0,0,0,0,0,0,0,0,0,0,0,0,0,0,0,0,0,0,0,0,0,0,0,0,0,0,0,0,0,0,0,0,0,0,0,0,0,0,0,0,0,0,0,0,0,0,0,0,0,0,0,0,0,0,0,0,0,0,0,0,0,0,0,0,0,0,0,0,0,0,0,0,0,0,0,0,0,0,0,0,0,0,0,0,0,0,0,0,0,0,0,0,0,0,0,0,0,0,0,0,0,0,0,0,0,0,0,0,0,0,0,0,0,0,0,0,0,0,0,0,0,0,0,0,0,0,0,0,0,0,0,0,0,0,0,0,0,0,0,0,0,0,0,0,0,0,0,0,0,0,0,0,0,0,0,0,0,0,0,0,0,0,0,0,0,0,0,0,0,0,0,0,0,0,0,0,0,0,0,0,0,0,0,0,0,0,0,0,0,0,0,0,0,0,0,0,0,0,0,0,0,0,0,0,0,0,0,0,0,0,0,0,0,0,0,0,0,0,0,0,0,0,0,0,0,0,0,0,0,0,0,0,0,0,0,0,0,0,0,0,0,0,0,0,0,0,0,0,0,0,0,0,0,0,0,0,0,0,0,0,0,0,0,0,0,0,0,0,0,0,0,0,0,0,0,0,0,0,0,0,0,0,0,0,0,0,0,0,0,0,0,0,0,0,0,0,0,0,0,0,0,0,0,0,0,0,0,0,0,0,0,0,0,0,0,0,0,0,0,0,0,0,0,0,0,0,0,0,0,0,0,0,0,0,0,0,0,0,0,0,0,0,0,0,0,0,0,0,0,0,0,0,0,0,0,0,0,0,0,0,0,0,0,0,0,0,0,0,0,0,0,0,0,0,0,0,0,0,0,0,0,0,0,0,0,0,0,0,0,0,0,0,0,0,0,0,0,0,0,0,0,0,0,0,0,0,0,0,0,0,0,0,0,0,0,0,0,0,0,0,0,0,4470,0,0,0,0,0,0,0,0,0,0,0,0,0,0,0,0,0,0,0,0,0,0,0,0,0,0,0,0,0,0,0,0,0,0,0,0,0,0,0,0,0,0,0,0,0,0,0,0,0,0,0,0,0,0,0,0,0,0,0,0,0,0,0,0,0,0,0,0,0,0,0,0,0,0,0,0,0,0,0,0,0,0,0,0,0,0,0,0,0,0,0,0,0,0,0,0,0,0,0,0,0,0,0,0,0,0,0,0,0,0,0,0,0,0,0,0,0,0,0,0,0,0,0,0,0,0,0,0,0,0,0,0,0,0,0,0,0,0,0,0,0,0,2315,4497,4496,4496,4496,4496,4496,4496,4496,4496,4496,4491,0,0,0,0,0,0,0,0,0,0,0,0,0,0,0,0,0,0,0,0,0,0,0,0,0,0,0,2310,0,0,0,0,0,0,0,0,0,0,0,0,0,0,0,0,0,0,0,0,0,0,0,0,0,0,0,0,0,0,0,0,0,0,0,0,0,0,0,0,0,0,0,0,0,0,0,0,0,0,0,0,0,0,0,0,0,0,0,0,0,0,0,0,0,0,0,0,0,0,0,0,0,0,0,0,0,0,0,0,0,0,0,0,0,0,0,0,0,0,0,0,0,0,0,0,0,0,0,0,0,0,0,2307,2330,2147486047,2147486143,2399,2399,2447,2147486143,2147485999,2351,2399,2147486095,2350,2336,2336,2336,2336,2336,2336,2336,2336,2336,2336,2336,2336,2336,0,2336,2336,2336,2336,2336,2336,2336,2336,2336,2336,2336,2336,2336,2337,2331,0,0,0,0,0,0,0,0,0,0,0,0,0,0,0,0,0,0,0,0,0,0,0,0,0,0,0,0,0,0,0,0,0,0,0,0,0,0,0,0,0,0,0,0,0,0,0,0,0,0,0,0,0,0,0,0,0,0,0,0,0,0,0,0,0,0,0,0,0,0,0,0,0,0,0,0,0,0,0,0,0,0,0,0,0,0,0,0,0,0,0,0,0,0,0,0,0,0,0,0,0,0,0,2309,2346,2351,2447,2447,2447,2147485999,2351,2351,2351,2147486143,2351,2147485999,2147486047,2147486095,2147486047,2447,2147486143,2147485999,2147486047,2147486095,2399,2147486095,2147486095,2147486095,0,2147486047,2447,2147486143,2147486143,2147486047,2351,2495,2147486047,2447,2351,2447,2147485999,2447,2147486095,2348,2318,0,0,0,0,0,0,0,0,0,0,0,0,0,0,0,0,0,0,0,0,0,0,0,0,0,0,0,0,0,0,0,0,0,0,0,0,0,0,0,0,0,0,0,0,0,0,0,0,0,0,0,0,0,0,0,0,0,0,0,0,0,0,0,0,0,0,0,0,0,0,0,0,0,0,0,0,0,0,0,0,0,0,0,0,0,0,0,0,0,0,0,0,0,0,0,0,0,0,0,0,0,0,0,2309,2341,2341,2341,2341,2341,2341,2341,2341,2341,2346,2447,2147485999,2351,2351,2495,2147486047,2147485999,2147486047,2351,2147486143,2495,2147486095,2351,0,2147486095,2495,2351,2447,2147486095,2147485999,2147486047,2147486047,2447,2495,2147486095,2147486143,2147486143,2349,2339,0,0,0,0,0,0,0,0,0,0,0,0,0,0,0,0,0,0,0,0,0,0,0,0,0,0,0,0,0,0,0,0,0,0,0,0,0,0,0,0,0,0,0,0,0,0,0,0,0,0,0,0,0,0,0,0,0,0,0,0,0,0,0,0,0,0,0,0,0,0,0,0,0,0,0,0,0,0,0,0,0,0,0,0,0,0,0,0,0,0,0,0,0,0,0,0,0,0,0,0,0,0,0,0,0,0,0,0,0,0,0,0,0,0,4517,4549,4549,4549,4549,4549,4549,4549,4549,4549,4554,2351,2147485999,2147486095,0,2447,2351,2495,2147486143,2351,2349,2341,2341,2341,2341,2341,2341,2341,2339,0,0,0,0,0,0,0,0,0,0,0,0,0,0,0,0,0,0,0,0,0,0,0,0,0,0,0,0,0,0,0,0,0,0,0,0,0,0,0,0,0,0,0,0,0,0,0,0,0,0,0,0,0,0,0,0,0,0,0,0,0,0,0,0,0,0,0,0,0,0,0,0,0,0,0,0,0,0,0,0,0,0,0,0,0,0,0,0,0,0,0,0,0,0,0,0,0,0,0,0,0,0,0,0,0,0,0,0,0,0,0,0,0,0,0,0,0,0,0,0,0,0,0,0,0,4517,2341,2341,2341,0,2341,2341,2341,2341,2341,2339,0,0,0,0,0,0,0,0,0,0,0,0,0,0,0,0,0,0,0,0,0,0,0,0,0,0,0,0,0,0,0,0,0,0,0,0,0,0,0,0,0,0,0,0,0,0,0,0,0,0,0,0,0,0,0,0,0,0,0,0,0,0,0,0,0,0,0,0,0,0,0,0,0,0,0,0,0,0,0,0,0,0,0,0,0,0,0,0,0,0,0,0,0,0,0,0,0,0,0,0,0,0,0,0,0,0,0,0,0,0,0,0,0,0,0,0,0,0,0,0,0,0,0,0,0,0,0,0,0,0,0,0,0,0,0,0,0,0,0,0,0,0,0,0,0,0,0,0,0,0,0,0,0,0,0,0,0,0,0,0,0,0,0,0,0,0,0,0,0,0,0,0,0,0,0,0,0,0,0,0,0,0,0,0,0,0,0,0,0,0,0,0,0,0,0,0,0,0,0,0,0,0,0,0,0,0,0,0,0,0,0,0,0,0,0,0,0,0,0,0,0,0,0,0,0,0,0,0,0,0,0,0,0,0,0,0,0,0,0,0,0,0,0,0,0,0,0,0,0,0,0,0,0,0,0,0,0,0,0,0,0,0,0,0,0,0,0,0,0,0,0,0,0,0,0,0,0,0,0,0,0,0,0,0,0,0,0,0,0,0,0,0,0,0,0,0,0,0,0,0,0,0,0,0,0,0,0,0,0,0,0,0,0,0,0,0,0,0,0,0,0,0,0,0,0,0,0,0,0,0,0,0,0,0,0,0,0,0,0,0,0,0,0,0,0,0,0,0,0,0,0,0,0,0,0,0,0,0,0,0,0,0,0,0,0,0,0,0,0,0,0,0,0,0,0,0,0,0,0,0,0,0,0,0,0,0,0,0,0,0,0,0,0,0,0,0,0,0,0,0,0,0,0,0,0,0,0,0,0,0,0,0,0,0,0,0,0,0,0,0,0,0,0,0,0,0,0,0,0,0,0,0,0,0,0,0,0,0,0,0,0,0,0,0,0,0,0,0,0,0,0,0,0,0,0,0,0,0,0,0,0,0,0,0,0,0,0,0,0,0,0,0,0,0,0,0,0,0,0,0,0,0,0,0,0,0,0,0,0,0,0,0,0,0,0,0,0,0,0,0,0,0,0,0,0,0,0,0,0,0,0,0,0,0,0,0,0,0,0,0,0,0,0,0,0,0,0,0,0,0,0,0,0,0,0,0,0,0,0,0,0,0,0,0,0,0,0,0,0,0,0,0,0,0,0,0,0,0,0,0,0,0,0,0,0,0,0,0,0,0,0,0,0,0,0,0,0,0,0,0,0,0,0,0,0,0,0,0,0,0,0,0,0,0,0,0,0,0,0,0,0,0,0,0,0,0,0,0,0,0,0,0,0,0,0,0,0,0,0,0,0,0,0,0,0,0,0,0,0,0,0,0,0,0,0,0,0,0,0,0,0,0,0,0,0,0,0,0,0,0,0,0,0,0,0,0,0,0,0,0,0,0,0,0,0,0,0,0,0,0,0,0,0,0,0,0,0,0,0,0,0,0,0,0,0,0,0,0,0,0,0,0,0,0,0,0,0,0,0,0,0,0,0,0,0,0,0,0,0,0,0,0,0,0,0,0,0,0,0,0,0,0,0,0,0,0,0,0,0,0,0,0,0,0,0,0,0,0,0,0,0,0,0,0,0,0,0,0,0,0,0,0,0,0,0,0,0,0,0,0,0,0,0,0,0,0,0,0,0,0,0,0,0,0,0,0,0,0,0,0,0,0,0,0,0,0,0,0,0,0,0,0,0,0,0,0,0,0,0,0,0,0,0,0,0,0,0,0,0,0,0,0,0,0,0,0,0,0,0,0,0,0,0,0,0,0,0,0,0,0,0,0,0,0,0,0,0,0,0,0,0,0,0,0,0,0,0,0,0,0,0,0,0,0,0,0,0,0,0,0,0,0,0,0,0,0,0,0,0,0,0,0,0,0,0,0,0,0,0,0,0,0,0,0,0,0,0,0,0,0,0,0,0,0,0,0,0,0,0,0,0,0,0,0,0,0,0,0,0,0,0,0,0,0,0,0,0,0,0,0,0,0,0,0,0,0,0,0,0,0,0,0,0,0,0,0,0,0,0,0,0,0,0,0,0,0,0,0,0,0,0,0,0,0,0,0,0,0,0,0,0,0,0,0,0,0,0,0,0,0,0,0,0,0,0,0,0,0,0,0,0,0,0,0,0,0,0,0,0,0,0,0,0,0,0,0,0,0,0,0,0,0,0,0,0,0,0,0,0,0,0,0,0,0,0,0,0,0,0,0,0,0,0,0,0,0,0,0,0,0,0,0,0,0,0,0,0,0,0,0,0,0,0,0,0,0,0,0,0,0,0,0,0,0,0,0,0,0,0,0,0,0,0,0,0,0,0,0,0,0,0,0,0,0,0,0,0,0,0,0,0,0,0,0,0,0,0,0,0,0,0,0,0,0,0,0,0,0,0,0,0,0,0,0,0,0,0,0,0,0,0,0,0,0,0,0,0,0,0,0,0,0,0,0,0,0,0,0,0,0,0,0,0,0,0,0,0,0,0,0,0,0,0,0,0,0,0,0,0,0,0,0,0,0,0,0,0,0,0,0,0,0,0,0,0,0,0,0,0,0,0,0,0,0,0,0,0,0,0,0,0,0,0,0,0,0,0,0,0,0,0,0,0,0,0,0,0,0,0,0,0,0,0,0,0,0,0,0,0,0,0,0,0,0,0,0,0,0,0,0,0,0,0,0,0,0,0,0,0,0,0,0,0,0,0,0,0,0,0,0,0,0,0,0,0,0,0,0,0,0,0,0,0,0,0,0,0,0,0,0,0,0,0,0,0,0,0,0,0,0,0,0,0,0,0,0,0,0,0,0,0,0,0,0,0,0,0,0,0,0,0,0,0,0,0,0,0,0,0,0,0,0,0,0,0,0,0,0,0,0,0,0,0,0,0,0,0,0,0,0,0,0,0,0,0,0,0,0,0,0,0,0,0,0,0,0,0,0,0,0,0,0,0,0,0,0,0,0,0,0,0,0,0,0,0,0,0,0,0,0,0,0,0,0,0,0,0,0,0,0,0,0,0,0,0,0,0,0,0,0,0,0,0,0,0,0,0,0,0,0,0,0,0,0,0,0,0,0,0,0,0,0,0,0,0,0,0,0,0,0,0,0,0,0,0,0,0,0,0,0,0,0,0,0,0,0,0,0,0,0,0,0,0,0,0,0,0,0,0,0,0,0,0,0,0,0,0,0,0,0,0,0,0,0,0,0,0,0,0,0,0,0,0,0,0,0,0,0,0,0,0,0,0,0,0,0,0,0,0,0,0,0,0,0,0,0,0,0,0,0,0,0,0,0,0,0,0,0,0,0,0,0,0,0,0,0,0,0,0,0,0,0,0,0,0,0,0,0,0,0,0,0,0,0,0,0,0,0,0,0,0,0,0,0,0,0,0,0,0,0,0,0,0,0,0,0,0,0,0,0,0,0,0,0,0,0,0,0,0,0,0,0,0,0,0,0,0,0,0,0,0,0,0,0,0,0,0,0,0,0,0,0,0,0,0,0,0,0,0,0,0,0,0,0,0,0,0,0,0,0,0,0,0,0,0,0,0,0,0,0,0,0,0,0,0,0,0,0,0,0,0,0,0,0,0,0,0,0,0,0,0,0,0,0,0,0,0,0,0,0,0,0,0,0,0,0,0,0,0,0,0,0,0,0,0,0,0,0,0,0,0,0,0,0,0,0,0,0,0,0,0,0,0,0,0,0,0,0,0,0,0,0,0,0,0,0,0,0,0,0,0,0,0,0,0,0,0,0,0,0,0,0,0,0,0,0,0,0,0,0,0,0,0,0,0,0,0,0,0,0,0,0,0,0,0,0,0,0,0,0,0,0,0,0,0,0,0,0,0,0,0,0,0,0,0,0,0,0,0,0,0,0,0,0,0,0,0,0,0,0,0,0,0,0,0,0,0,0,0,0,0,0,0,0,0,0,0,0,0,0,0,0,0,0,0,0,0,0,0,0,0,0,0,0,0,0,0,0,0,0,0,0,0,0,0,0,0,0,0,0,0,0,0,0,0,0,0,0,0,0,0,0,0,0,0,0,0,0,0,0,0,0,0,0,0,0,0,0,0,0,0,0,0,0,0,0,0,0,0,0,0,0,0,0,0,0,0,0,0,0,0,0,0,0,0,0,0,0,0,0,0,0,0,0,0,0,0,0,0,0,0,0,0,0,0,0,0,0,0,0,0,0,0,0,0,0,0,0,0,0,0,0,0,0,0,0,0,0,0,0,0,0,0,0,0,0,0,0,0,0,0,0,0,0,0,0,0,0,0,0,0,0,0,0,0,0,0,0,0,0,0,0,0,0,0,0,0,0,0,0,0,0,0,0,0,0,0,0,0,0,0,0,0,0,0,0,0,0,0,0,0,0,0,0,0,0,0,0,0,0,0,0,0,0,0,0,0,0,0,0,0,0,0,0,0,0,0,0,0,0,0,0,0,0,0,0,0,0,0,0,0,0,0,0,0,0,0,0,0,0,0,0,0,0,0,0,0,0,0,0,0,0,0,0,0,0,0,0,0,0,0,0,0,0,0,0,0,0,0,0,0,0,0,0,0,0,0,0,0,0,0,0,0,0,0,0,0,0,0,0,0,0,0,0,0,0,0,0,0,0,0,0,0,0,0,0,0,0,0,0,0,0,0,0,0,0,0,0,0,0,0,0,0,0,0,0,0,0,0,0,0,0,0,0,0,0,0,0,0,0,0,0,0,0,0,0,0,0,0,0,0,0,0,0,0,0,0,0,0,0,0,0,0,0,0,0,0,0,0,0,0,0,0,0,0,0,0,0,0,0,0,0,0,0,0,0,0,0,0,0,0,0,0,0,0,0,0,0,0,0,0,0,0,0,0,0,0,0,0,0,0,0,0,0,0,0,0,0,0,0,0,0,0,0,0,0,0,0,0,0,0,0,0,0,0,0,0,0,0,0,0,0,0,0,0,0,0,0,0,0,0,0,0,0,0,0,0,0,0,0,0,0,0,0,0,0,0,0,0,0,0,0,0,0,0,0,0,0,0,0,0,0,0,0,0,0,0,0,0,0,0,0,0,0,0,0,0,0,0,0,0,0,0,0,0,0,0,0,0,0,0,0,0,0,0,0,0,0,0,0,0,0,0,0,0,0,0,0,0,0,0,0,0,0,0,0,0,0,0,0,0,0,0,0,0,0,0,0,0,0,0,0,0,0,0,0,0,0,0,0,0,0,0,0,0,0,0,0,0,0,0,0,0,0,0,0,0,0,0,0,0,0,0,0,0,0,0,0,0,0,0,0,0,0,0,0,0,0,0,0,0,0,0,0,0,0,0,0,0,0,0,0,0,0,0,0,0,0,0,0,0,0,0,0,0,0,0,0,0,0,0,0,0,0,0,0,0,0,0,0,0,0,0,0,0,0,0,0,0,0,0,0,0,0,0,0,0,0,0,0,0,0,0,0,0,0,0,0,0,0,0,0,0,0,0,0,0,0,0,0,0,0,0,0,0,0,0,0,0,0,0,0,0,0,0,0,0,0,0,0,0,0,0,0,0,0,0,0,0,0,0,0,0,0,0,0,0,0,0,0,0,0,0,0,0,0,0,0,0,0,0,0,0,0,0,0,0,0,0,0,0,0,0,0,0,0,0,0,0,0,0,0,0,0,0,0,0,0,0,0,0,0,0,0,0,0,0,0,0,0,0,0,0,0,0,0,0,0,0,0,0,0,0,0,0,0,0,0,0,0,0,0,0,0,0,0,0,0,0,0,0,0,0,0,0,0,0,0,0,0,0,0,0,0,0,0,0,0,0,0,0,0,0,0,0,0,0,0,0,0,0,0,0,0,0,0,0,0,0,0,0,0,0,0,0,0,0,0,0,0,0,0,0,0,0,0,0,0,0,0,0,0,0,0,0,0,0,0,0,0,0,0,0,0,0,0,0,0,0,0,0,0,0,0,0,0,0,0,0,0,0,0,0,0,0,0,0,0,0,0,0,0,0,0,0,0,0,0,0,0,0,0,0,0,0,0,0,0,0,0,0,0,0,0,0,0,0,0,0,0,0,0,0,0,0,0,0,0,0,0,0,0,0,0,0,0,0,0,0,0,0,0,0,0,0,0,0,0,0,0,0,0,0,0,0,0,0,0,0,0,0,0,0,0,0,0,0,0,0,0,0,0,0,0,0,0,0,0,0,0,0,0,0,0,0,0,0,0,0,0,0,0,0,0,0,0,0,0,0,0,0,0,0,0,0,0,0,0,0,0,0,0,0,0,0,0,0,0,0,0,0,0,0,0,0,0,0,0,0,0,0,0,0,0,0,0,0,0,0,0,0,0,0,0,0,0,0,0,0,0,0,0,0,0,0,0,0,0,0,0,0,0,0,0,0,0,0,0,0,0,0,0,0,0,0,0,0,0,0,0,0,0,0,0,0,0,0,0,0,0,0,0,0,0,0,0,0,0,0,0,0,0,0,0,0,0,0,0,0,0,0,0,0,0,0,0,0,0,0,0,0,0,0,0,0,0,0,0,0,0,0,0,0,0,0,0,0,0,0,0,0,0,0,0,0,0,0,0,0,0,0,0,0,0,0,0,0,0,0,0,0,0,0,0,0,0,0,0,0,0,0,0,0,0,0,0,0,0,0,0,0,0,0,0,0,0,0,0,0,0,0,0,0,0,0,0,0,0,0,0,0,0,0,0,0,0,0,0,0,0,0,0,0,0,0,0,0,0,0,0,0,0,0,0,0,0,0,0,0,0,0,0,0,0,0,0,0,0,0,0,0,0,0,0,0,0,0,0,0,0,0,0,0,0,0,0,0,0,0,0,0,0,0,0,0,0,0,0,0,0,0,0,0,0,0,0,0,0,0,0,0,0,0,0,0,0,0,0,0,0,0,0,0,0,0,0,0,0,0,0,0,0,0,0,0,0,0,0,0,0,0,0,0,0,0,0,0,0,0,0,0,0,0,0,0,0,0,0,0,0,0,0,0,0,0,0,0,0,0,0,0,0,0,0,0,0,0,0,0,0,0,0,0,0,0,0,0,0,0,0,0,0,0,0,0,0,0,0,0,0,0,0,0,0,0,0,0,0,0,0,0,0,0,0,0,0,0,0,0,0,0,0,0,0,0,0,0,0,0,0,0,0,0,0,0,0,0,0,0,0,0,0,0,0,0,0,0,0,0,0,0,0,0,0,0,0,0,0,0,0,0,0,0,0,0,0,0,0,0,0,0,0,0,0,0,0,0,0,0,0,0,0,0,0,0,0,0,0,0,0,0,0,0,0,0,0,0,0,0,0,0,0,0,0,0,0,0,0,0,0,0,0,0,0,0,0,0,0,0,0,0,0,0,0,0,0,0,0,0,0,0,0,0,0,0,0,0,0,0,0,0,0,0,0,0,0,0,0,0,0,0,0,0,0,0,0,0,0,0,0,0,0,0,0,0,0,0,0,0,0,0,0,0,0,0,0,0,0,0,0,0,0,0,0,0,0,0,0,0,0,0,0,0,0,0,0,0,0,0,0,0,0,0,0,0,0,0,0,0,0,0,0,0,0,0,0,0,0,0,0,0,0,0,0,0,0,0,0,0,0,0,0,0,0,0,0,0,0,0,0,0,0,0,0,0,0,0,0,0,0,0,0,0,0,0,0,0,0,0,0,0,0,0,0,0,0,0,0,0,0,0,0,0,0,0,0,0,0,0,0,0,0,0,0,0,0,0,0,0,0,0,0,0,0,0,0,0,0,0,0,0,0,0,0,0,0,0,0,0,0,0,0,0,0,0,0,0,0,0,0,0,0,0,0,0,0,0,0,0,0,0,0,0,0,0,0,0,0,0,0,0,0,0,0,0,0,0,0,0,0,0,0,0,0,0,0,0,0,0,0,0,0,0,0,0,0,0,0,0,0,0,0,0,0,0,0,0,0,0,0,0,0,0,0,0,0,0,0,0,0,0,0,0,0,0,0,0,0,0,0,0,0,0,0,0,0,0,0,0,0,0,0,0,0,0,0,0,0,0,0,0,0,0,0,0,0,0,0,0,0,0,0,0,0,0,0,0,0,0,0,0,0,0,0,0,0,0,0,0,0,0,0,0,0,0,0,0,0,0,0,0,0,0,0,0,0,0,0,0,0,0,0,0,0,0,0,0,0,0,0,0,0,0,0,0,0,0,0,0,0,0,0,0,0,0,0,0,0,0,0,0,0,0,0,0,0,0,0,0,0,0,0,0,0,0,0,0,0,0,0,0,0,0,0,0,0,0,0,0,0,0,0,0,0,0,0,0,0,0,0,0,0,0,0,0,0,0,0,0,0,0,0,0,0,0,0,0,0,0,0,0,0,0,0,0,0,0,0,0,0,0,0,0,0,0,0,0,0,0,0,0,0,0,0,0,0,0,0,0,0,0,0,0,0,0,0,0,0,0,0,0,0,0,0,0,0,0,0,0,0,0,0,0,0,0,0,0,0,0,0,0,0,0,0,0,0,0,0,0,0,0,0,0,0,0,0,0,0,0,0,0,0,0,0,0,0,0,0,0,0,0,0,0,0,0,0,0,0,0,0,0,0,0,0,0,0,0,0,0,0,0,0,0,0,0,0,0,0,0,0,0,0,0,0,0,0,0,0,0,0,0,0,0,0,0,0,0,0,0,0,0,0,0,0,0,0,0,0,0,0,0,0,0,0,0,0,0,0,0,0,0,0,0,0,0,0,0,0,0,0,0,0,0,0,0,0,0,0,0,0,0,0,0,0,0,0,0,0,0,0,0,0,0,0,0,0,0,0,0,0,0,0,0,0,0,0,0,0,0,0,0,0,0,0,0,0,0,0,0,0,0,0,0,0,0,0,0,0,0,0,0,0,0,0,0,0,0,0,0,0,0,0,0,0,0,0,0,0,0,0,0,0,0,0,0,0,0,0,0,0,0,0,0,0,0,0,0,0,0,0,0,0,0,0,0,0,0,0,0,0,0,0,0,0,0,0,0,0,0,0,0,0,0,0,0,0,0,0,0,0,0,0,0,0,0,0,0,0,0,0,0,0,0,0,0,0,0,0,0,0,0,0,0,0,0,0,0,0,0,0,0,0,0,0,0,0,0,0,0,0,0,0,0,0,0,0,0,0,0,0,0,0,0,0,0,0,0,0,0,0,0,0,0,0,0,0,0,0,0,0,0,0,0,0,0,0,0,0,0,0,0,0,0,0,0,0,0,0,0,0,0,0,0,0,0,0,0,0,0,0,0,0,0,0,0,0,0,0,0,0,0,0,0,0,0,0,0,0,0,0,0,0,0,0,0,0,0,0,0,0,0,0,0,0,0,0,0,0,0,0,0,0,0,0,0,0,0,0,0,0,0,0,0,0,0,0,0,0,0,0,0,0,0,0,0,0,0,0,0,0,0,0,0,0,0,0,0,0,0,0,0,0,0,0,0,0,0,0,0,0,0,0,0,0,0,0,0,0,0,0,0,0,0,0,0,0,0,0,0,0,0,0,0,0,0,0,0,0,0,0,0,0,0,0,0,0,0,0,0,0,0,0,0,0,0,0,0,0,0,0,0,0,0,0,0,0,0,0,0,0,0,0,0,0,0,0,0,0,0,0,0,0,0,0,0,0,0,0,0,0,0,0,0,0,0,0,0,0,0,0,0,0,0,0,0,0,0,0,0,0,0,0,0,0,0,0,0,0,0,0,0,0,0,0,0,0,0,0,0,0,0,0,0,0,0,0,0,0,0,0,0,0,0,0,0,0,0,0,0,0,0,0,0,0,0,0,0,0,0,0,0,0,0,0,0,0,0,0,0,0,0,0,0,0,0,0,0,0,0,0,0,0,0,0,0,0,0,0,0,0,0,0,0,0,0,0,0,0,0,0,0,0,0,0,0,0,0,0,0,0,0,0,0,0,0,0,0,0,0,0,0,0,0,0,0,0,0,0,0,0,0,0,0,0,0,0,0,0,0,0,0,0,0,0,0,0,0,0,0,0,0,0,0,0,0,0,0,0,0,0,0,0,0,0,0,0,0,0,0,0,0,0,0,0,0,0,0,0,0,0,0,0,0,0,0,0,0,0,0,0,0,0,0,0,0,0,0,0,0,0,0,0,0,0,0,0,0,0,0,0,0,0,0,0,0,0,0,0,0,0,0,0,0,0,0,0,0,0,0,0,0,0,0,0,0,0,0,0,0,0,0,0,0,0,0,0,0,0,0,0,0,0,0,0,0,0,0,0,0,0,0,0,0,0,0,0,0,0,0,0,0,0,0,0,0,0,0,0,0,0,0,0,0,0,0,0,0,0,0,0,0,0,0,0,0,0,0,0,0,0,0,0,0,0,0,0,0,0,0,0,0,0,0,0,0,0,0,0,0,0,0,0,0,0,0,0,0,0,0,0,0,0,0,0,0,0,0,0,0,0,0,0,0,0,0,0,0,0,0,0,0,0,0,0,0,0,0,0,0,0,0,0,0,0,0,0,0,0,0,0,0,0,0,0,0,0,0,0,0,0,0,0,0,0,0,0,0,0,0,0,0,0,0,0,0,0,0,0,0,0,0,0,0,0,0,0,0,0,0,0,0,0,0,0,0,0,0,0,0,0,0,0,0,0,0,0,0,0,0,0,0,0,0,0,0,0,0,0,0,0,0,0,0,0,0,0,0,0,0,0,0,0,0,0,0,0,0,0,0,0,0,0,0,0,0,0,0,0,0,0,0,0,0,0,0,0,0,0,0,0,0,0,0,0,0,0,0,0,0,0,0,0,0,0,0,0,0,0,0,0,0,0,0,0,0,0,0,0,0,0,0,0,0,0,0,0,0,0,0,0,0,0,0,0,0,0,0,0,0,0,0,0,0,0,0,0,0,0,0,0,0,0,0,0,0,0,0,0,0,0,0,0,0,0,0,0,0,0,0,0,0,0,0,0,0,0,0,0,0,0,0,0,0,0,0,0,0,0,0,0,0,0,0,0,0,0,0,0,0,0,0,0,0,0,0,0,0,0,0,0,0,0,0,0,0,0,0,0,0,0,0,0,0,0,0,0,0,0,0,0,0,0,0,0,0,0,0,0,0,0,0,0,0,0,0,0,0,0,0,0,0,0,0,0,0,0,0,0,0,0,0,0,0,0,0,0,0,0,0,0,0,0,0,0,0,0,0,0,0,0,0,0,0,0,0,0,0,0,0,0,0,0,0,0,0,0,0,0,0,0,0,0,0,0,0,0,0,0,0,0,0,0,0,0,0,0,0,0,0,0,0,0,0,0,0,0,0,0,0,0,0,0,0,0,0,0,0,0,0,0,0,0,0,0,0,0,0,0,0,0,0,0,0,0,0,0,0,0,0,0,0,0,0,0,0,0,0,0,0,0,0,0,0,0,0,0,0,0,0,0,0,0,0,0,0,0,0,0,0,0,0,0,0,0,0,0,0,0,0,0,0,0,0,0,0,0,0,0,0,0,0,0,0,0,0,0,0,0,0,0,0,0,0,0,0,0,0,0,0,0,0,0,0,0,0,0,0,0,0,0,0,0,0,0,0,0,0,0,0,0,0,0,0,0,0,0,0,0,0,0,0,0,0,0,0,0,0,0,0,0,0,0,0,0,0,0,0,0,0,0,0,0,0,0,0,0,0,0,0,0,0,0,0,0,0,0,0,0,0,0,0,0,0,0,0,0,0,0,0,0,0,0,0,0,0,0,0,0,0,0,0,0,0,0,0,0,0,0,0,0,0,0,0,0,0,0,0,0,0,0,0,0,0,0,0,0,0,0,0,0,0,0,0,0,0,0,0,0,0,0,0,0,0,0,0,0,0,0,0,0,0,0,0,0,0,0,0,0,0,0,0,0,0,0,0,0,0,0,0,0,0,0,0,0,0,0,0,0,0,0,0,0,0,0,0,0,0,0,0,0,0,0,0,0,0,0,0,0,0,0,0,0,0,0,0,0,0,0,0,0,0,0,0,0,0,0,0,0,0,0,0,0,0,0,0,0,0,0,0,0,0,0,0,0,0,0,0,0,0,0,0,0,0,0,0,0,0,0,0,0,0,0,0,0,0,0,0,0,0,0,0,0,0,0,0,0,0,0,0,0,0,0,0,0,0,0,0,0,0,0,0,0,0,0,0,0,0,0,0,0,0,0,0,0,0,0,0,0,0,0,0,0,0,0,0,0,0,0,0,0,0,0,0,0,0,0,0,0,0,0,0,0,0,0,0,0,0,0,0,0,0,0,0,0,0,0,0,0,0,0,0,0,0,0,0,0,0,0,0,0,0,0,0,0,0,0,0,0,0,0,0,0,0,0,0,0,0,0,0,0,0,0,0,0,0,0,0,0,0,0,0,0,0,0,0,0,0,0,0,0,0,0,0,0,0,0,0,0,0,0,0,0,0,0,0,0,0,0,0,0,0,0,0,0,0,0,0,0,0,0,0,0,0,0,0,0,0,0,0,0,0,0,0,0,0,0,0,0,0,0,0,0,0,0,0,0,0,0,0,0,0,0,0,0,0,0,0,0,0,0,0,0,0,0,0,0,0,0,0,0,0,0,0,0,0,0,0,0,0,0,0,0,0,0,0,0,0,0,0,0,0,0,0,0,0,0,0,0,0,0,0,0,0,0,0,0,0,0,0,0,0,0,0,0,0,0,0,0,0,0,0,0,0,0,0,0,0,0,0,0,0,0,0,0,0,0,0,0,0,0,0,0,0,0,0,0,0,0,0,0,0,0,0,0,0,0,0,0,0,0,0,0,0,0,0,0,0,0,0,0,0,0,0,0,0,0,0,0,0,0,0,0,0,0,0,0,0,0,0,0,0,0,0,0,0,0,0,0,0,0,0,0,0,0,0,0,0,0,0,0,0,0,0,0,0,0,0,0,0,0,0,0,0,0,0,0,0,0,0,0,0,0,0,0,0,0,0,0,0,0,0,0,0,0,0,0,0,0,0,0,0,0,0,0,0,0,0,0,0,0,0,0,0,0,0,0,0,0,0,0,0,0,0,0,0,0,0,0,0,0,0,0,0,0,0,0,0,0,0,0,0,0,0,0,0,0,0,0,0,0,0,0,0,0,0,0,0,0,0,0,0,0,0,0,0,0,0,0,0,0,0,0,0,0,0,0,0,0,0,0,0,0,0,0,0,0,0,0,0,0,0,0,0,0,0,0,0,0,0,0,0,0,0,0,0,0,0,0,0,0,0,0,0,0,0,0,0,0,0,0,0,0,0,0,0,0,0,0,0,0,0,0,0,0,0,0,0,0,0,0,0,0,0,0,0,0,0,0,0,0,0,0,0,0,0,0,0,0,0,0,0,0,0,0,0,0,0,0,0,0,0,0,0,0,0,0,0,0,0,0,0,0,0,0,0,0,0,0,0,0,0,0,0,0,0,0,0,0,0,0,0,0,0,0,0,0,0,0,0,0,0,0,0,0,0,0,0,0,0,0,0,0,0,0,0,0,0,0,0,0,0,0,0,0,0,0,0,0,0,0,0,0,0,0,0,0,0,0,0,0,0]},{"id":13,"name":"taihang","type":"tilelayer","x":0,"y":0,"opacity":1,"visible":true,"width":144,"height":96,"data":[0,0,0,0,0,0,0,0,0,0,0,0,0,0,0,0,0,0,0,0,0,0,0,0,0,0,0,0,0,0,0,0,0,0,0,0,0,0,0,0,0,0,0,0,0,0,0,0,0,0,0,0,0,0,0,0,0,0,0,0,0,0,0,0,0,0,0,0,0,0,0,0,0,0,0,0,0,0,0,0,0,0,0,0,0,0,0,0,0,0,0,0,0,0,0,0,0,0,0,0,0,0,0,0,0,0,0,0,0,0,0,0,0,0,0,0,0,0,0,0,0,0,0,0,0,0,0,0,0,0,0,0,0,0,0,0,0,0,0,0,0,0,0,0,0,0,0,0,0,0,0,0,0,0,0,0,0,0,0,0,0,0,0,0,0,0,0,0,0,0,0,0,0,0,0,0,0,0,0,0,0,0,0,0,0,0,0,0,0,0,0,0,0,0,0,0,0,0,0,0,0,0,0,0,0,0,0,0,0,0,0,0,0,0,0,0,0,0,0,0,0,0,0,0,0,0,0,0,0,0,0,0,0,0,0,0,0,0,0,0,0,0,0,0,0,0,0,0,0,0,0,0,0,0,0,0,0,0,0,0,0,0,0,0,0,0,0,0,0,0,0,0,0,0,0,0,0,0,0,0,0,0,0,0,0,0,0,0,0,0,0,0,0,0,0,0,0,0,0,0,0,0,0,0,0,0,0,0,0,0,0,0,0,0,0,0,0,0,0,0,0,0,0,0,0,0,0,0,0,0,0,0,0,0,0,0,0,0,0,0,0,0,0,0,0,0,0,0,0,0,0,0,0,0,0,0,0,0,0,0,0,0,0,0,0,0,0,0,0,0,0,0,0,0,0,0,0,0,0,0,0,0,0,0,0,0,0,0,0,0,0,0,0,0,0,0,0,0,0,0,0,0,0,0,0,0,0,0,0,0,0,0,0,0,0,0,0,0,0,0,0,0,0,0,0,0,0,0,0,0,0,0,0,0,0,0,0,0,0,0,0,0,0,0,0,0,0,0,0,0,0,0,0,0,0,0,0,0,0,0,0,0,0,0,0,0,0,0,0,0,0,0,0,0,0,0,0,0,0,0,0,0,0,0,0,0,0,0,0,0,0,0,0,0,0,0,0,0,0,0,0,0,0,0,0,0,0,0,0,0,0,0,0,0,0,0,0,0,0,0,0,0,0,0,0,0,0,0,0,0,0,0,0,0,0,0,0,0,0,0,0,0,0,0,0,0,0,0,0,0,0,0,0,0,0,0,0,0,0,0,0,0,0,0,0,0,0,0,0,0,0,0,0,0,0,0,0,0,0,0,0,0,0,0,0,0,0,0,0,0,0,0,0,0,0,0,0,0,0,0,0,0,0,0,0,0,0,0,0,0,0,0,0,0,0,0,0,0,0,0,0,0,0,0,0,0,0,0,0,0,0,0,0,0,0,0,0,0,0,0,0,0,0,0,0,0,0,0,0,0,0,0,0,0,0,0,0,0,0,0,0,0,0,0,0,0,0,0,0,0,0,0,0,0,0,0,0,0,0,0,0,0,0,0,0,0,0,0,0,0,0,0,0,0,0,0,0,0,0,0,0,0,0,0,0,0,0,0,0,0,0,0,0,0,0,0,0,0,0,0,0,0,0,0,0,0,0,0,0,0,0,0,0,0,0,0,0,0,0,0,0,0,0,0,0,0,0,0,0,0,0,0,0,0,0,0,0,0,0,0,0,0,0,0,0,0,0,0,0,0,0,0,0,0,0,0,0,0,0,0,0,0,0,0,0,0,0,0,0,0,0,0,0,0,0,0,0,0,0,0,0,0,0,0,0,0,0,0,0,0,0,0,0,0,0,0,0,0,0,0,0,0,0,0,0,0,0,0,0,0,0,0,0,0,0,0,0,0,0,0,0,0,0,0,0,0,0,0,0,0,0,0,0,0,0,0,0,0,0,0,0,0,0,0,0,0,0,0,0,0,0,0,0,0,0,0,0,0,0,0,0,0,0,0,0,0,0,0,0,0,0,0,0,0,0,0,0,0,0,0,0,0,0,0,0,0,0,0,0,0,0,0,0,0,0,0,0,0,0,0,0,0,0,0,0,0,0,0,0,0,0,0,0,0,0,0,0,0,0,0,0,0,0,0,0,0,0,0,0,0,0,0,0,0,0,0,0,0,0,0,0,0,0,0,0,0,0,0,0,0,0,0,0,0,0,0,0,0,0,0,0,0,0,0,0,0,0,0,0,0,0,0,0,0,0,0,0,0,0,0,0,0,0,0,0,0,0,0,0,0,0,0,0,0,0,0,0,0,0,0,0,0,0,0,0,0,0,0,0,0,0,0,0,0,0,0,0,0,0,0,0,0,0,0,0,0,0,0,0,0,0,0,0,0,0,0,0,0,0,0,0,0,0,0,0,0,0,0,0,0,0,0,0,2507,2528,2523,0,0,0,0,0,0,0,0,0,0,0,0,0,0,0,0,0,0,0,0,0,0,0,0,0,0,0,0,0,0,0,0,0,0,0,0,0,0,0,0,0,0,0,0,0,0,0,0,0,0,0,0,0,0,0,0,0,0,0,0,0,0,0,0,0,0,0,0,0,0,0,0,0,0,0,0,0,0,0,0,0,0,0,0,0,0,0,0,0,0,0,0,0,0,0,0,0,0,0,0,0,0,0,0,0,0,0,0,0,0,0,0,0,0,0,0,0,0,0,0,0,0,0,0,0,0,0,0,0,0,0,0,0,0,0,0,0,0,0,0,0,4573,2687,4603,0,0,0,0,0,0,0,0,0,0,0,0,0,0,0,0,0,0,0,0,0,0,0,0,0,0,0,0,0,0,0,0,0,0,0,0,0,0,0,0,0,0,0,0,0,0,0,0,0,0,0,0,0,0,0,0,0,0,0,0,0,0,0,0,0,0,0,0,0,0,0,0,0,0,0,0,0,0,0,0,0,0,0,0,0,0,0,0,0,0,0,0,0,0,0,0,0,0,0,0,0,0,0,0,0,0,0,0,0,0,0,0,0,0,0,0,0,0,0,0,0,0,0,0,0,0,0,0,0,0,0,0,0,0,0,0,0,0,0,0,0,4573,4605,4595,0,0,0,0,0,0,0,0,0,0,0,0,0,0,0,0,0,0,0,0,0,0,0,0,0,0,0,0,0,0,0,0,0,0,0,0,0,0,0,0,0,0,0,0,0,0,0,0,0,0,0,0,0,0,0,0,0,0,0,0,0,0,0,0,0,0,0,0,0,0,0,0,0,0,0,0,0,0,0,0,0,0,0,0,0,0,0,0,0,0,0,0,0,0,0,0,0,0,0,0,0,0,0,0,0,0,0,0,0,0,0,0,0,0,0,0,0,0,0,0,0,0,0,0,0,0,0,0,0,0,0,0,0,0,0,0,0,0,0,0,4571,4594,4603,0,0,0,0,0,0,0,0,0,0,0,0,0,0,0,0,0,0,0,0,0,0,0,0,0,0,0,0,0,0,0,0,0,0,0,0,0,0,0,0,0,0,0,0,0,0,0,0,0,0,0,0,0,0,0,0,0,0,0,0,0,0,0,0,0,0,0,0,0,0,0,0,0,0,0,0,0,0,0,0,0,0,0,0,0,0,0,0,0,0,0,0,0,0,0,0,0,0,0,0,0,0,0,0,0,0,0,0,0,0,0,0,0,0,0,0,0,0,0,0,0,0,0,0,0,0,0,0,0,0,0,0,0,0,0,0,0,0,0,0,0,4573,2147486335,4603,0,0,0,0,0,0,0,0,0,0,0,0,0,0,0,0,0,0,0,0,0,0,0,0,0,0,0,0,0,0,0,0,0,0,0,0,0,0,0,0,0,0,0,0,0,0,0,0,0,0,0,0,0,0,0,0,0,0,0,0,0,0,0,0,0,0,0,0,0,0,0,0,0,0,0,0,0,0,0,0,0,0,0,0,0,0,0,0,0,0,0,0,0,0,0,0,0,0,0,0,0,0,0,0,0,0,0,0,0,0,0,0,0,0,0,0,0,0,0,0,0,0,0,0,0,0,0,0,0,0,0,0,0,0,0,0,0,0,0,0,0,4573,4605,4595,0,0,0,0,0,0,0,0,0,0,0,0,0,0,0,0,0,0,0,0,0,0,0,0,0,0,0,0,0,0,0,0,0,0,0,0,0,0,0,0,0,0,0,0,0,0,0,0,0,0,0,0,0,0,0,0,0,0,0,0,0,0,0,0,0,0,0,0,0,0,0,0,0,0,0,0,0,0,0,0,0,0,0,0,0,0,0,0,0,0,0,0,0,0,0,0,0,0,0,0,0,0,0,0,0,0,0,0,0,0,0,0,0,0,0,0,0,0,0,0,0,0,0,0,0,0,0,0,0,0,0,0,0,0,0,0,0,0,0,0,4571,4594,4603,0,0,0,0,0,0,0,0,0,0,0,0,0,0,0,0,0,0,0,0,0,0,0,0,0,0,0,0,0,0,0,0,0,0,0,0,0,0,0,0,0,0,0,0,0,0,0,0,0,0,0,0,0,0,0,0,0,0,0,0,0,0,0,0,0,0,0,0,0,0,0,0,0,0,0,0,0,0,0,0,0,0,0,0,0,0,0,0,0,0,0,0,0,0,0,0,0,0,0,0,0,0,0,0,0,0,0,0,0,0,0,0,0,0,0,0,0,0,0,0,0,0,0,0,0,0,0,0,0,0,0,0,0,0,0,0,0,0,0,0,0,4573,2147486287,4603,0,0,0,0,0,0,0,0,0,0,0,0,0,0,0,0,0,0,0,0,0,0,0,0,0,0,0,0,0,0,0,0,0,0,0,0,0,0,0,0,0,0,0,0,0,0,0,0,0,0,0,0,0,0,0,0,0,0,0,0,0,0,0,0,0,0,0,0,0,0,0,0,0,0,0,0,0,0,0,0,0,0,0,0,0,0,0,0,0,0,0,0,0,0,0,0,0,0,0,0,0,0,0,0,0,0,0,0,0,0,0,0,0,0,0,0,0,0,0,0,0,0,0,0,0,0,0,0,0,0,0,0,0,0,0,0,0,0,0,0,0,4573,2591,4603,0,0,0,0,0,0,0,0,0,0,0,0,0,0,0,0,0,0,0,0,0,0,0,0,0,0,0,0,0,0,0,0,0,0,0,0,0,0,0,0,0,0,0,0,0,0,0,0,0,0,0,0,0,0,0,0,0,0,0,0,0,0,0,0,0,0,0,0,0,0,0,0,0,0,0,0,0,0,0,0,0,0,0,0,0,0,0,0,0,0,0,0,0,0,0,0,0,0,0,0,0,0,0,0,0,0,0,0,0,0,0,0,0,0,0,0,0,0,0,0,0,0,0,0,0,0,0,0,0,0,0,0,0,0,0,0,0,0,0,0,4571,4594,2541,4595,0,0,0,0,0,0,0,0,0,0,0,0,0,0,0,0,0,0,0,0,0,0,0,0,0,0,0,0,0,0,0,0,0,0,0,0,0,0,0,0,0,0,0,0,0,0,0,0,0,0,0,0,0,0,0,0,0,0,0,0,0,0,0,0,0,0,0,0,0,0,0,0,0,0,0,0,0,0,0,0,0,0,0,0,0,0,0,0,0,0,0,0,0,0,0,0,0,0,0,0,0,0,0,0,0,0,0,0,0,0,0,0,0,0,0,0,0,0,0,0,0,0,0,0,0,0,0,0,0,0,0,0,0,0,0,0,0,0,0,0,2509,2147486287,2539,0,0,0,0,0,0,0,0,0,0,0,0,0,0,0,0,0,0,0,0,0,0,0,0,0,0,0,0,0,0,0,0,0,0,0,0,0,0,0,0,0,0,0,0,0,0,0,0,0,0,0,0,0,0,0,0,0,0,0,0,0,0,0,0,0,0,0,0,0,0,0,0,0,0,0,0,0,0,0,0,0,0,0,0,0,0,0,0,0,0,0,0,0,0,0,0,0,0,0,0,0,0,0,0,0,0,0,0,0,0,0,0,0,0,0,0,0,0,0,0,0,0,0,0,0,0,0,0,0,0,0,0,0,0,0,0,0,0,0,0,0,2509,2639,2539,0,0,0,0,0,0,0,0,0,0,0,0,0,0,0,0,0,0,0,0,0,0,0,0,0,0,0,0,0,0,0,0,0,0,0,0,0,0,0,0,0,0,0,0,0,0,0,0,0,0,0,0,0,0,0,0,0,0,0,0,0,0,0,0,0,0,0,0,0,0,0,0,0,0,0,0,0,0,0,0,0,0,0,0,0,0,0,0,0,0,0,0,0,0,0,0,0,0,0,0,0,0,0,0,0,0,0,0,0,0,0,0,0,0,0,0,0,0,0,0,0,0,0,0,0,0,0,0,0,0,0,0,0,0,0,0,0,0,0,0,0,2509,2147486335,2539,0,0,0,0,0,0,0,0,0,0,0,0,0,0,0,0,0,0,0,0,0,0,0,0,0,0,0,0,0,0,0,0,0,0,0,0,0,0,0,0,0,0,0,0,0,0,0,0,0,0,0,0,0,0,0,0,0,0,0,0,0,0,0,0,0,0,0,0,0,0,0,0,0,0,0,0,0,0,0,0,0,0,0,0,0,0,0,0,0,0,0,0,0,0,0,0,0,0,0,0,0,0,0,0,0,0,0,0,0,0,0,0,0,0,0,0,0,0,0,0,0,0,0,0,0,0,0,0,0,0,0,0,0,0,0,0,0,0,0,0,2507,2530,2541,2531,0,0,0,0,0,0,0,0,0,0,0,0,0,0,0,0,0,0,0,0,0,0,0,0,0,0,0,0,0,0,0,0,0,0,0,0,0,0,0,0,0,0,0,0,0,0,0,0,0,0,0,0,0,0,0,0,0,0,0,0,0,0,0,0,0,0,0,0,0,0,0,0,0,0,0,0,0,0,0,0,0,0,0,0,0,0,0,0,0,0,0,0,0,0,0,0,0,0,0,0,0,0,0,0,0,0,0,0,0,0,0,0,0,0,0,0,0,0,0,0,0,0,0,0,0,0,0,0,0,0,0,0,0,0,0,0,0,0,0,0,2509,2687,2539,0,0,0,0,0,0,0,0,0,0,0,0,0,0,0,0,0,0,0,0,0,0,0,0,0,0,0,0,0,0,0,0,0,0,0,0,0,0,0,0,0,0,0,0,0,0,0,0,0,0,0,0,0,0,0,0,0,0,0,0,0,0,0,0,0,0,0,0,0,0,0,0,0,0,0,0,0,0,0,0,0,0,0,0,0,0,0,0,0,0,0,0,0,0,0,0,0,0,0,0,0,0,0,0,0,0,0,0,0,0,0,0,0,0,0,0,0,0,0,0,0,0,0,0,0,0,0,0,0,0,0,0,0,0,0,0,0,0,0,0,0,2509,2543,2539,0,0,0,0,0,0,0,0,0,0,0,0,0,0,0,0,0,0,0,0,0,0,0,0,0,0,0,0,0,0,0,0,0,0,0,0,0,0,0,0,0,0,0,0,0,0,0,0,0,0,0,0,0,0,0,0,0,0,0,0,0,0,0,0,0,0,0,0,0,0,0,0,0,0,0,0,0,0,0,0,0,0,0,0,0,0,0,0,0,0,0,0,0,0,0,0,0,0,0,0,0,0,0,0,0,0,0,0,0,0,0,0,0,0,0,0,0,0,0,0,0,0,0,0,0,0,0,0,0,0,0,0,0,0,0,0,0,0,0,0,0,2509,2541,2531,0,0,0,0,0,0,0,0,0,0,0,0,0,0,0,0,0,0,0,0,0,0,0,0,0,0,0,0,0,0,0,0,0,0,0,0,0,0,0,0,0,0,0,0,0,0,0,0,0,0,0,0,0,0,0,0,0,0,0,0,0,0,0,0,0,0,0,0,0,0,0,0,0,0,0,0,0,0,0,0,0,0,0,0,0,0,0,0,0,0,0,0,0,0,0,0,0,0,0,0,0,0,0,0,0,0,0,0,0,0,0,0,0,0,0,0,0,0,0,0,0,0,0,0,0,0,0,0,0,0,0,0,0,0,0,0,0,0,0,0,2507,2530,2539,0,0,0,0,0,0,0,0,0,0,0,0,0,0,0,0,0,0,0,0,0,0,0,0,0,0,0,0,0,0,0,0,0,0,0,0,0,0,0,0,0,0,0,0,0,0,0,0,0,0,0,0,0,0,0,0,0,0,0,0,0,0,0,0,0,0,0,0,0,0,0,0,0,0,0,0,0,0,0,0,0,0,0,0,0,0,0,0,0,0,0,0,0,0,0,0,0,0,0,0,0,0,0,0,0,0,0,0,0,0,0,0,0,0,0,0,0,0,0,0,0,0,0,0,0,0,0,0,0,0,0,0,0,0,0,0,0,0,0,0,0,2509,2687,2539,0,0,0,0,0,0,0,0,0,0,0,0,0,0,0,0,0,0,0,0,0,0,0,0,0,0,0,0,0,0,0,0,0,0,0,0,0,0,0,0,0,0,0,0,0,0,0,0,0,0,0,0,0,0,0,0,0,0,0,0,0,0,0,0,0,0,0,0,0,0,0,0,0,0,0,0,0,0,0,0,0,0,0,0,0,0,0,0,0,0,0,0,0,0,0,0,0,0,0,0,0,0,0,0,0,0,0,0,0,0,0,0,0,0,0,0,0,0,0,0,0,0,0,0,0,0,0,0,0,0,0,0,0,0,0,0,0,0,0,0,2507,2530,2541,2531,0,0,0,0,0,0,0,0,0,0,0,0,0,0,0,0,0,0,0,0,0,0,0,0,0,0,0,0,0,0,0,0,0,0,0,0,0,0,0,0,0,0,0,0,0,0,0,0,0,0,0,0,0,0,0,0,0,0,0,0,0,0,0,0,0,0,0,0,0,0,0,0,0,0,0,0,0,0,0,0,0,0,0,0,0,0,0,0,0,0,0,0,0,0,0,0,0,0,0,0,0,0,0,0,0,0,0,0,0,0,0,0,0,0,0,0,0,0,0,0,0,0,0,0,0,0,0,0,0,0,0,0,0,0,0,0,0,0,0,0,2509,2147486287,2539,0,0,0,0,0,0,0,0,0,0,0,0,0,0,0,0,0,0,0,0,0,0,0,0,0,0,0,0,0,0,0,0,0,0,0,0,0,0,0,0,0,0,0,0,0,0,0,0,0,0,0,0,0,0,0,0,0,0,0,0,0,0,0,0,0,0,0,0,0,0,0,0,0,0,0,0,0,0,0,0,0,0,0,0,0,0,0,0,0,0,0,0,0,0,0,0,0,0,0,0,0,0,0,0,0,0,0,0,0,0,0,0,0,0,0,0,0,0,0,0,0,0,0,0,0,0,0,0,0,0,0,0,0,0,0,0,0,0,0,0,0,2509,2541,2531,0,0,0,0,0,0,0,0,0,0,0,0,0,0,0,0,0,0,0,0,0,0,0,0,0,0,0,0,0,0,0,0,0,0,0,0,0,0,0,0,0,0,0,0,0,0,0,0,0,0,0,0,0,0,0,0,0,0,0,0,0,0,0,0,0,0,0,0,0,0,0,0,0,0,0,0,0,0,0,0,0,0,0,0,0,0,0,0,0,0,0,0,0,0,0,0,0,0,0,0,0,0,0,0,0,0,0,0,0,0,0,0,0,0,0,0,0,0,0,0,0,0,0,0,0,0,0,0,0,0,0,0,0,0,0,0,0,0,0,0,2507,2530,2539,0,0,0,0,0,0,0,0,0,0,0,0,0,0,0,0,0,0,0,0,0,0,0,0,0,0,0,0,0,0,0,0,0,0,0,0,0,0,0,0,0,0,0,0,0,0,0,0,0,0,0,0,0,0,0,0,0,0,0,0,0,0,0,0,0,0,0,0,0,0,0,0,0,0,0,0,0,0,0,0,0,0,0,0,0,0,0,0,0,0,0,0,0,0,0,0,0,0,0,0,0,0,0,0,0,0,0,0,0,0,0,0,0,0,0,0,0,0,0,0,0,0,0,0,0,0,0,0,0,0,0,0,0,0,0,0,0,0,0,0,0,2509,2543,2539,0,0,0,0,0,0,0,0,0,0,0,0,0,0,0,0,0,0,0,0,0,0,0,0,0,0,0,0,0,0,0,0,0,0,0,0,0,0,0,0,0,0,0,0,0,0,0,0,0,0,0,0,0,0,0,0,0,0,0,0,0,0,0,0,0,0,0,0,0,0,0,0,0,0,0,0,0,0,0,0,0,0,0,0,0,0,0,0,0,0,0,0,0,0,0,0,0,0,0,0,0,0,0,0,0,0,0,0,0,0,0,0,0,0,0,0,0,0,0,0,0,0,0,0,0,0,0,0,0,0,0,0,0,0,0,0,0,0,0,0,0,2509,2541,2531,0,0,0,0,0,0,0,0,0,0,0,0,0,0,0,0,0,0,0,0,0,0,0,0,0,0,0,0,0,0,0,0,0,0,0,0,0,0,0,0,0,0,0,0,0,0,0,0,0,0,0,0,0,0,0,0,0,0,0,0,0,0,0,0,0,0,0,0,0,0,0,0,0,0,0,0,0,0,0,0,0,0,0,0,0,0,0,0,0,0,0,0,0,0,0,0,0,0,0,0,0,0,0,0,0,0,0,0,0,0,0,0,0,0,0,0,0,0,0,0,0,0,0,0,0,0,0,0,0,0,0,0,0,0,0,0,0,0,0,0,2507,2530,2539,0,0,0,0,0,0,0,0,0,0,0,0,0,0,0,0,0,0,0,0,0,0,0,0,0,0,0,0,0,0,0,0,0,0,0,0,0,0,0,0,0,0,0,0,0,0,0,0,0,0,0,0,0,0,0,0,0,0,0,0,0,0,0,0,0,0,0,0,0,0,0,0,0,0,0,0,0,0,0,0,0,0,0,0,0,0,0,0,0,0,0,0,0,0,0,0,0,0,0,0,0,0,0,0,0,0,0,0,0,0,0,0,0,0,0,0,0,0,0,0,0,0,0,0,0,0,0,0,0,0,0,0,0,0,0,0,0,0,0,0,0,2509,2591,2539,0,0,0,0,0,0,0,0,0,0,0,0,0,0,0,0,0,0,0,0,0,0,0,0,0,0,0,0,0,0,0,0,0,0,0,0,0,0,0,0,0,0,0,0,0,0,0,0,0,0,0,0,0,0,0,0,0,0,0,0,0,0,0,0,0,0,0,0,0,0,0,0,0,0,0,0,0,0,0,0,0,0,0,0,0,0,0,0,0,0,0,0,0,0,0,0,0,0,0,0,0,0,0,0,0,0,0,0,0,0,0,0,0,0,0,0,0,0,0,0,0,0,0,0,0,0,0,0,0,0,0,0,0,0,0,0,0,0,0,0,2507,2530,2541,2531,0,0,0,0,0,0,0,0,0,0,0,0,0,0,0,0,0,0,0,0,0,0,0,0,0,0,0,0,0,0,0,0,0,0,0,0,0,0,0,0,0,0,0,0,0,0,0,0,0,0,0,0,0,0,0,0,0,0,0,0,0,0,0,0,0,0,0,0,0,0,0,0,0,0,0,0,0,0,0,0,0,0,0,0,0,0,0,0,0,0,0,0,0,0,0,0,0,0,0,0,0,0,0,0,0,0,0,0,0,0,0,0,0,0,0,0,0,0,0,0,0,0,0,0,0,0,0,0,0,0,0,0,0,0,0,0,0,0,0,0,4573,2147486191,2539,0,0,0,0,0,0,0,0,0,0,0,0,0,0,0,0,0,0,0,0,0,0,0,0,0,0,0,0,0,0,0,0,0,0,0,0,0,0,0,0,0,0,0,0,0,0,0,0,0,0,0,0,0,0,0,0,0,0,0,0,0,0,0,0,0,0,0,0,0,0,0,0,0,0,0,0,0,0,0,0,0,0,0,0,0,0,0,0,0,0,0,0,0,0,0,0,0,0,0,0,0,0,0,0,0,0,0,0,0,0,0,0,0,0,0,0,0,0,0,0,0,0,0,0,0,0,0,0,0,0,0,0,0,0,0,0,0,0,0,0,0,4573,2541,2531,0,0,0,0,0,0,0,0,0,0,0,0,0,0,0,0,0,0,0,0,0,0,0,0,0,0,0,0,0,0,0,0,0,0,0,0,0,0,0,0,0,0,0,0,0,0,0,0,0,0,0,0,0,0,0,0,0,0,0,0,0,0,0,0,0,0,0,0,0,0,0,0,0,0,0,0,0,0,0,0,0,0,0,0,0,0,0,0,0,0,0,0,0,0,0,0,0,0,0,0,0,0,0,0,0,0,0,0,0,0,0,0,0,0,0,0,0,0,0,0,0,0,0,0,0,0,0,0,0,0,0,0,0,0,0,0,0,0,0,0,4571,4594,2539,0,0,0,0,0,0,0,0,0,0,0,0,0,0,0,0,0,0,0,0,0,0,0,0,0,0,0,0,0,0,0,0,0,0,0,0,0,0,0,0,0,0,0,0,0,0,0,0,0,0,0,0,0,0,0,0,0,0,0,0,0,0,0,0,0,0,0,0,0,0,0,0,0,0,0,0,0,0,0,0,0,0,0,0,0,0,0,0,0,0,0,0,0,0,0,0,0,0,0,0,0,0,0,0,0,0,0,0,0,0,0,0,0,0,0,0,0,0,0,0,0,0,0,0,0,0,0,0,0,0,0,0,0,0,0,0,0,0,0,0,0,2509,2147486191,2539,0,0,0,0,0,0,0,0,0,0,0,0,0,0,0,0,0,0,0,0,0,0,0,0,0,0,0,0,0,0,0,0,0,0,0,0,0,0,0,0,0,0,0,0,0,0,0,0,0,0,0,0,0,0,0,0,0,0,0,0,0,0,0,0,0,0,0,0,0,0,0,0,0,0,0,0,0,0,0,0,0,0,0,0,0,0,0,0,0,0,0,0,0,0,0,0,0,0,0,0,0,0,0,0,0,0,0,0,0,0,0,0,0,0,0,0,0,0,0,0,0,0,0,0,0,0,0,0,0,0,0,0,0,0,0,0,0,0,0,0,0,2501,2533,2531,0,0,0,0,0,0,0,0,0,0,0,0,0,0,0,0,0,0,0,0,0,0,0,0,0,0,0,0,0,0,0,0,0,0,0,0,0,0,0,0,0,0,0,0,0,0,0,0,0,0,0,0,0,0,0,0,0,0,0,0,0,0,0,0,0,0,0,0,0,0,0,0,0,0,0,0,0,0,0,0,0,0,0,0,0,0,0,0,0,0,0,0,0,0,0,0,0,0,0,0,0,0,0,0,0,0,0,0,0,0,0,0,0,0,0,0,0,0,0,0,0,0,0,0,0,0,0,0,0,0,0,0,0,0,0,0,0,0,0,0,0,0,0,0,0,0,0,0,0,0,0,0,0,0,0,0,0,0,0,0,0,0,0,0,0,0,0,0,0,0,0,0,0,0,0,0,0,0,0,0,0,0,0,0,0,0,0,0,0,0,0,0,0,0,0,0,0,0,0,0,0,0,0,0,0,0,0,0,0,0,0,0,0,0,0,0,0,0,0,0,0,0,0,0,0,0,0,0,0,0,0,0,0,0,0,0,0,0,0,0,0,0,0,0,0,0,0,0,0,0,0,0,0,0,0,0,0,0,0,0,0,0,0,0,0,0,0,0,0,0,0,0,0,0,0,0,0,0,0,0,0,0,0,0,0,0,0,0,0,0,0,0,0,0,0,0,0,0,0,0,0,0,0,0,0,0,0,0,0,0,0,0,0,0,0,0,0,0,0,0,0,0,0,0,0,0,0,0,0,0,0,0,0,0,0,0,0,0,0,0,0,0,0,0,0,0,0,0,0,0,0,0,0,0,0,0,0,0,0,0,0,0,0,0,0,0,0,0,0,0,0,0,0,0,0,0,0,0,0,0,0,0,0,0,0,0,0,0,0,0,0,0,0,0,0,0,0,0,0,0,0,0,0,0,0,0,0,0,0,0,0,0,0,0,0,0,0,0,0,0,0,0,0,0,0,0,0,0,0,0,0,0,0,0,0,0,0,0,0,0,0,0,0,0,0,0,0,0,0,0,0,0,0,0,0,0,0,0,0,0,0,0,0,0,0,0,0,0,0,0,0,0,0,0,0,0,0,0,0,0,0,0,0,0,0,0,0,0,0,0,0,0,0,0,0,0,0,0,0,0,0,0,0,0,0,0,0,0,0,0,0,0,0,0,0,0,0,0,0,0,0,0,0,0,0,0,0,0,0,0,0,0,0,0,0,0,0,0,0,0,0,0,0,0,0,0,0,0,0,0,0,0,0,0,0,0,0,0,0,0,0,0,0,0,0,0,0,0,0,0,0,0,0,0,0,0,0,0,0,0,0,0,0,0,0,0,0,0,0,0,0,0,0,0,0,0,0,0,0,0,0,0,0,0,0,0,0,0,0,0,0,0,0,0,0,0,0,0,0,0,0,0,0,0,0,0,0,0,0,0,0,0,0,0,0,0,0,0,0,0,0,0,0,0,0,0,0,0,0,0,0,0,0,0,0,0,0,0,0,0,0,0,0,0,0,0,0,0,0,0,0,0,0,0,0,0,0,0,0,0,0,0,0,0,0,0,0,0,0,0,0,0,0,0,0,0,0,0,0,0,0,0,0,0,0,0,0,0,0,0,0,0,0,0,0,0,0,0,0,0,0,0,0,0,0,0,0,0,0,0,0,0,0,0,0,0,0,0,0,0,0,0,0,0,0,0,0,0,0,0,0,0,0,0,0,0,0,0,0,0,0,0,0,0,0,0,0,0,0,0,0,0,0,0,0,0,0,0,0,0,0,0,0,0,0,0,0,0,0,0,0,0,0,0,0,0,0,0,0,0,0,0,0,0,0,0,0,0,0,0,0,0,0,0,0,0,0,0,0,0,0,0,0,0,0,0,0,0,0,0,0,0,0,0,0,0,0,0,0,0,0,0,0,0,0,0,0,0,0,0,0,0,0,0,0,0,0,0,0,0,0,0,0,0,0,0,0,0,0,0,0,0,0,0,0,0,0,0,0,0,0,0,0,0,0,0,0,0,0,0,0,0,0,0,0,0,0,0,0,0,0,0,0,0,0,0,0,0,0,0,0,0,0,0,0,0,0,0,0,0,0,0,0,0,0,0,0,0,0,0,0,0,0,0,0,0,0,0,0,0,0,0,0,0,0,0,0,0,0,0,0,0,0,0,0,0,0,0,0,0,0,0,0,0,0,0,0,0,0,0,0,0,0,0,0,0,0,0,0,0,0,0,0,0,0,0,0,0,0,0,0,0,0,0,0,0,0,0,0,0,0,0,0,0,0,0,0,0,0,0,0,0,0,0,0,0,0,0,0,0,0,0,0,0,0,0,0,0,0,0,0,0,0,0,0,0,0,0,0,0,0,0,0,0,0,0,0,0,0,0,0,0,0,0,0,0,0,0,0,0,0,0,0,0,0,0,0,0,0,0,0,0,0,0,0,0,0,0,0,0,0,0,0,0,0,0,0,0,0,0,0,0,0,0,0,0,0,0,0,0,0,0,0,0,0,0,0,0,0,0,0,0,0,0,0,0,0,0,0,0,0,0,0,0,0,0,0,0,0,0,0,0,0,0,0,0,0,0,0,0,0,0,0,0,0,0,0,0,0,0,0,0,0,0,0,0,0,0,0,0,0,0,0,0,0,0,0,0,0,0,0,0,0,0,0,0,0,0,0,0,0,0,0,0,0,0,0,0,0,0,0,0,0,0,0,0,0,0,0,0,0,0,0,0,0,0,0,0,0,0,0,0,0,0,0,0,0,0,0,0,0,0,0,0,0,0,0,0,0,0,0,0,0,0,0,0,0,0,0,0,0,0,0,0,0,0,0,0,0,0,0,0,0,0,0,0,0,0,0,0,0,0,0,0,0,0,0,0,0,0,0,0,0,0,0,0,0,0,0,0,0,0,0,0,0,0,0,0,0,0,0,0,0,0,0,0,0,0,0,0,0,0,0,0,0,0,0,0,0,0,0,0,0,0,0,0,0,0,0,0,0,0,0,0,0,0,0,0,0,0,0,0,0,0,0,0,0,0,0,0,0,0,0,0,0,0,0,0,0,0,0,0,0,0,0,0,0,0,0,0,0,0,0,0,0,0,0,0,0,0,0,0,0,0,0,0,0,0,0,0,0,0,0,0,0,0,0,0,0,0,0,0,0,0,0,0,0,0,0,0,0,0,0,0,0,0,0,0,0,0,0,0,0,0,0,0,0,0,0,0,0,0,0,0,0,0,0,0,0,0,0,0,0,0,0,0,0,0,0,0,0,0,0,0,0,0,0,0,0,0,0,0,0,0,0,0,0,0,0,0,0,0,0,0,0,0,0,0,0,0,0,0,0,0,0,0,0,0,0,0,0,0,0,0,0,0,0,0,0,0,0,0,0,0,0,0,0,0,0,0,0,0,0,0,0,0,0,0,0,0,0,0,0,0,0,0,0,0,0,0,0,0,0,0,0,0,0,0,0,0,0,0,0,0,0,0,0,0,0,0,0,0,0,0,0,0,0,0,0,0,0,0,0,0,0,0,0,0,0,0,0,0,0,0,0,0,0,0,0,0,0,0,0,0,0,0,0,0,0,0,0,0,0,0,0,0,0,0,0,0,0,0,0,0,0,0,0,0,0,0,0,0,0,0,0,0,0,0,0,0,0,0,0,0,0,0,0,0,0,0,0,0,0,0,0,0,0,0,0,0,0,0,0,0,0,0,0,0,0,0,0,0,0,0,0,0,0,0,0,0,0,0,0,0,0,0,0,0,0,0,0,0,0,0,0,0,0,0,0,0,0,0,0,0,0,0,0,0,0,0,0,0,0,0,0,0,0,0,0,0,0,0,0,0,0,0,0,0,0,0,0,0,0,0,0,0,0,0,0,0,0,0,0,0,0,0,0,0,0,0,0,0,0,0,0,0,0,0,0,0,0,0,0,0,0,0,0,0,0,0,0,0,0,0,0,0,0,0,0,0,0,0,0,0,0,0,0,0,0,0,0,0,0,0,0,0,0,0,0,0,0,0,0,0,0,0,0,0,0,0,0,0,0,0,0,0,0,0,0,0,0,0,0,0,0,0,0,0,0,0,0,0,0,0,0,0,0,0,0,0,0,0,0,0,0,0,0,0,0,0,0,0,0,0,0,0,0,0,0,0,0,0,0,0,0,0,0,0,0,0,0,0,0,0,0,0,0,0,0,0,0,0,0,0,0,0,0,0,0,0,0,0,0,0,0,0,0,0,0,0,0,0,0,0,0,0,0,0,0,0,0,0,0,0,0,0,0,0,0,0,0,0,0,0,0,0,0,0,0,0,0,0,0,0,0,0,0,0,0,0,0,0,0,0,0,0,0,0,0,0,0,0,0,0,0,0,0,0,0,0,0,0,0,0,0,0,0,0,0,0,0,0,0,0,0,0,0,0,0,0,0,0,0,0,0,0,0,0,0,0,0,0,0,0,0,0,0,0,0,0,0,0,0,0,0,0,0,0,0,0,0,0,0,0,0,0,0,0,0,0,0,0,0,0,0,0,0,0,0,0,0,0,0,0,0,0,0,0,0,0,0,0,0,0,0,0,0,0,0,0,0,0,0,0,0,0,0,0,0,0,0,0,0,0,0,0,0,0,0,0,0,0,0,0,0,0,0,0,0,0,0,0,0,0,0,0,0,0,0,0,0,0,0,0,0,0,0,0,0,0,0,0,0,0,0,0,0,0,0,0,0,0,0,0,0,0,0,0,0,0,0,0,0,0,0,0,0,0,0,0,0,0,0,0,0,0,0,0,0,0,0,0,0,0,0,0,0,0,0,0,0,0,0,0,0,0,0,0,0,0,0,0,0,0,0,0,0,0,0,0,0,0,0,0,0,0,0,0,0,0,0,0,0,0,0,0,0,0,0,0,0,0,0,0,0,0,0,0,0,0,0,0,0,0,0,0,0,0,0,0,0,0,0,0,0,0,0,0,0,0,0,0,0,0,0,0,0,0,0,0,0,0,0,0,0,0,0,0,0,0,0,0,0,0,0,0,0,0,0,0,0,0,0,0,0,0,0,0,0,0,0,0,0,0,0,0,0,0,0,0,0,0,0,0,0,0,0,0,0,0,0,0,0,0,0,0,0,0,0,0,0,0,0,0,0,0,0,0,0,0,0,0,0,0,0,0,0,0,0,0,0,0,0,0,0,0,0,0,0,0,0,0,0,0,0,0,0,0,0,0,0,0,0,0,0,0,0,0,0,0,0,0,0,0,0,0,0,0,0,0,0,0,0,0,0,0,0,0,0,0,0,0,0,0,0,0,0,0,0,0,0,0,0,0,0,0,0,0,0,0,0,0,0,0,0,0,0,0,0,0,0,0,0,0,0,0,0,0,0,0,0,0,0,0,0,0,0,0,0,0,0,0,0,0,0,0,0,0,0,0,0,0,0,0,0,0,0,0,0,0,0,0,0,0,0,0,0,0,0,0,0,0,0,0,0,0,0,0,0,0,0,0,0,0,0,0,0,0,0,0,0,0,0,0,0,0,0,0,0,0,0,0,0,0,0,0,0,0,0,0,0,0,0,0,0,0,0,0,0,0,0,0,0,0,0,0,0,0,0,0,0,0,0,0,0,0,0,0,0,0,0,0,0,0,0,0,0,0,0,0,0,0,0,0,0,0,0,0,0,0,0,0,0,0,0,0,0,0,0,0,0,0,0,0,0,0,0,0,0,0,0,0,0,0,0,0,0,0,0,0,0,0,0,0,0,0,0,0,0,0,0,0,0,0,0,0,0,0,0,0,0,0,0,0,0,0,0,0,0,0,0,0,0,0,0,0,0,0,0,0,0,0,0,0,0,0,0,0,0,0,0,0,0,0,0,0,0,0,0,0,0,0,0,0,0,0,0,0,0,0,0,0,0,0,0,0,0,0,0,0,0,0,0,0,0,0,0,0,0,0,0,0,0,0,0,0,0,0,0,0,0,0,0,0,0,0,0,0,0,0,0,0,0,0,0,0,0,0,0,0,0,0,0,0,0,0,0,0,0,0,0,0,0,0,0,0,0,0,0,0,0,0,0,0,0,0,0,0,0,0,0,0,0,0,0,0,0,0,0,0,0,0,0,0,0,0,0,0,0,0,0,0,0,0,0,0,0,0,0,0,0,0,0,0,0,0,0,0,0,0,0,0,0,0,0,0,0,0,0,0,0,0,0,0,0,0,0,0,0,0,0,0,0,0,0,0,0,0,0,0,0,0,0,0,0,0,0,0,0,0,0,0,0,0,0,0,0,0,0,0,0,0,0,0,0,0,0,0,0,0,0,0,0,0,0,0,0,0,0,0,0,0,0,0,0,0,0,0,0,0,0,0,0,0,0,0,0,0,0,0,0,0,0,0,0,0,0,0,0,0,0,0,0,0,0,0,0,0,0,0,0,0,0,0,0,0,0,0,0,0,0,0,0,0,0,0,0,0,0,0,0,0,0,0,0,0,0,0,0,0,0,0,0,0,0,0,0,0,0,0,0,0,0,0,0,0,0,0,0,0,0,0,0,0,0,0,0,0,0,0,0,0,0,0,0,0,0,0,0,0,0,0,0,0,0,0,0,0,0,0,0,0,0,0,0,0,0,0,0,0,0,0,0,0,0,0,0,0,0,0,0,0,0,0,0,0,0,0,0,0,0,0,0,0,0,0,0,0,0,0,0,0,0,0,0,0,0,0,0,0,0,0,0,0,0,0,0,0,0,0,0,0,0,0,0,0,0,0,0,0,0,0,0,0,0,0,0,0,0,0,0,0,0,0,0,0,0,0,0,0,0,0,0,0,0,0,0,0,0,0,0,0,0,0,0,0,0,0,0,0,0,0,0,0,0,0,0,0,0,0,0,0,0,0,0,0,0,0,0,0,0,0,0,0,0,0,0,0,0,0,0,0,0,0,0,0,0,0,0,0,0,0,0,0,0,0,0,0,0,0,0,0,0,0,0,0,0,0,0,0,0,0,0,0,0,0,0,0,0,0,0,0,0,0,0,0,0,0,0,0,0,0,0,0,0,0,0,0,0,0,0,0,0,0,0,0,0,0,0,0,0,0,0,0,0,0,0,0,0,0,0,0,0,0,0,0,0,0,0,0,0,0,0,0,0,0,0,0,0,0,0,0,0,0,0,0,0,0,0,0,0,0,0,0,0,0,0,0,0,0,0,0,0,0,0,0,0,0,0,0,0,0,0,0,0,0,0,0,0,0,0,0,0,0,0,0,0,0,0,0,0,0,0,0,0,0,0,0,0,0,0,0,0,0,0,0,0,0,0,0,0,0,0,0,0,0,0,0,0,0,0,0,0,0,0,0,0,0,0,0,0,0,0,0,0,0,0,0,0,0,0,0,0,0,0,0,0,0,0,0,0,0,0,0,0,0,0,0,0,0,0,0,0,0,0,0,0,0,0,0,0,0,0,0,0,0,0,0,0,0,0,0,0,0,0,0,0,0,0,0,0,0,0,0,0,0,0,0,0,0,0,0,0,0,0,0,0,0,0,0,0,0,0,0,0,0,0,0,0,0,0,0,0,0,0,0,0,0,0,0,0,0,0,0,0,0,0,0,0,0,0,0,0,0,0,0,0,0,0,0,0,0,0,0,0,0,0,0,0,0,0,0,0,0,0,0,0,0,0,0,0,0,0,0,0,0,0,0,0,0,0,0,0,0,0,0,0,0,0,0,0,0,0,0,0,0,0,0,0,0,0,0,0,0,0,0,0,0,0,0,0,0,0,0,0,0,0,0,0,0,0,0,0,0,0,0,0,0,0,0,0,0,0,0,0,0,0,0,0,0,0,0,0,0,0,0,0,0,0,0,0,0,0,0,0,0,0,0,0,0,0,0,0,0,0,0,0,0,0,0,0,0,0,0,0,0,0,0,0,0,0,0,0,0,0,0,0,0,0,0,0,0,0,0,0,0,0,0,0,0,0,0,0,0,0,0,0,0,0,0,0,0,0,0,0,0,0,0,0,0,0,0,0,0,0,0,0,0,0,0,0,0,0,0,0,0,0,0,0,0,0,0,0,0,0,0,0,0,0,0,0,0,0,0,0,0,0,0,0,0,0,0,0,0,0,0,0,0,0,0,0,0,0,0,0,0,0,0,0,0,0,0,0,0,0,0,0,0,0,0,0,0,0,0,0,0,0,0,0,0,0,0,0,0,0,0,0,0,0,0,0,0,0,0,0,0,0,0,0,0,0,0,0,0,0,0,0,0,0,0,0,0,0,0,0,0,0,0,0,0,0,0,0,0,0,0,0,0,0,0,0,0,0,0,0,0,0,0,0,0,0,0,0,0,0,0,0,0,0,0,0,0,0,0,0,0,0,0,0,0,0,0,0,0,0,0,0,0,0,0,0,0,0,0,0,0,0,0,0,0,0,0,0,0,0,0,0,0,0,0,0,0,0,0,0,0,0,0,0,0,0,0,0,0,0,0,0,0,0,0,0,0,0,0,0,0,0,0,0,0,0,0,0,0,0,0,0,0,0,0,0,0,0,0,0,0,0,0,0,0,0,0,0,0,0,0,0,0,0,0,0,0,0,0,0,0,0,0,0,0,0,0,0,0,0,0,0,0,0,0,0,0,0,0,0,0,0,0,0,0,0,0,0,0,0,0,0,0,0,0,0,0,0,0,0,0,0,0,0,0,0,0,0,0,0,0,0,0,0,0,0,0,0,0,0,0,0,0,0,0,0,0,0,0,0,0,0,0,0,0,0,0,0,0,0,0,0,0,0,0,0,0,0,0,0,0,0,0,0,0,0,0,0,0,0,0,0,0,0,0,0,0,0,0,0,0,0,0,0,0,0,0,0,0,0,0,0,0,0,0,0,0,0,0,0,0,0,0,0,0,0,0,0,0,0,0,0,0,0,0,0,0,0,0,0,0,0,0,0,0,0,0,0,0,0,0,0,0,0,0,0,0,0,0,0,0,0,0,0,0,0,0,0,0,0,0,0,0,0,0,0,0,0,0,0,0,0,0,0,0,0,0,0,0,0,0,0,0,0,0,0,0,0,0,0,0,0,0,0,0,0,0,0,0,0,0,0,0,0,0,0,0,0,0,0,0,0,0,0,0,0,0,0,0,0,0,0,0,0,0,0,0,0,0,0,0,0,0,0,0,0,0,0,0,0,0,0,0,0,0,0,0,0,0,0,0,0,0,0,0,0,0,0,0,0,0,0,0,0,0,0,0,0,0,0,0,0,0,0,0,0,0,0,0,0,0,0,0,0,0,0,0,0,0,0,0,0,0,0,0,0,0,0,0,0,0,0,0,0,0,0,0,0,0,0,0,0,0,0,0,0,0,0,0,0,0,0,0,0,0,0,0,0,0,0,0,0,0,0,0,0,0,0,0,0,0,0,0,0,0,0,0,0,0,0,0,0,0,0,0,0,0,0,0,0,0,0,0,0,0,0,0,0,0,0,0,0,0,0,0,0,0,0,0,0,0,0,0,0,0,0,0,0,0,0,0,0,0,0,0,0,0,0,0,0,0,0,0,0,0,0,0,0,0,0,0,0,0,0,0,0,0,0,0,0,0,0,0,0,0,0,0,0,0,0,0,0,0,0,0,0,0,0,0,0,0,0,0,0,0,0,0,0,0,0,0,0,0,0,0,0,0,0,0,0,0,0,0,0,0,0,0,0,0,0,0,0,0,0,0,0,0,0,0,0,0,0,0,0,0,0,0,0,0,0,0,0,0,0,0,0,0,0,0,0,0,0,0,0,0,0,0,0,0,0,0,0,0,0,0,0,0,0,0,0,0,0,0,0,0,0,0,0,0,0,0,0,0,0,0,0,0,0,0,0,0,0,0,0,0,0,0,0,0,0,0,0,0,0,0,0,0,0,0,0,0,0,0,0,0,0,0,0,0,0,0,0,0,0,0,0,0,0,0,0,0,0,0,0,0,0,0,0,0,0,0,0,0,0,0,0,0,0,0,0,0,0,0,0,0,0,0,0,0,0,0,0,0,0,0,0,0,0,0,0,0,0,0,0,0,0,0,0,0,0,0,0,0,0,0,0,0,0,0,0,0,0,0,0,0,0,0,0,0,0,0,0,0,0,0,0,0,0,0,0,0,0,0,0,0,0,0,0,0,0,0,0,0,0,0,0,0,0,0,0,0,0,0,0,0,0,0,0,0,0,0,0,0,0,0,0,0,0,0,0,0,0,0,0,0,0,0,0,0,0,0,0,0,0,0,0,0,0,0,0,0,0,0,0,0,0,0,0,0,0,0,0,0,0,0,0,0,0,0,0,0,0,0,0,0,0,0,0,0,0,0,0,0,0,0,0,0,0,0,0,0,0,0,0,0,0,0,0,0,0,0,0,0,0,0,0,0,0,0,0,0,0,0,0,0,0,0,0,0,0,0,0,0,0,0,0,0,0,0,0,0,0,0,0,0,0,0,0,0,0,0,0,0,0,0,0,0,0,0,0,0,0,0,0,0,0,0,0,0,0,0,0,0,0,0,0,0,0,0,0,0,0,0,0,0,0,0,0,0,0,0,0,0,0,0,0,0,0,0,0,0,0,0,0,0,0,0,0,0,0,0,0,0,0,0,0,0,0,0,0,0,0,0,0,0,0,0,0,0,0,0,0,0,0,0,0,0,0,0,0,0,0,0,0,0,0,0,0,0,0,0,0,0,0,0,0,0,0,0,0,0,0,0,0,0,0,0,0,0,0,0,0,0,0,0,0,0,0,0,0,0,0,0,0,0,0,0,0,0,0,0,0,0,0,0,0,0,0,0,0,0,0,0,0,0,0,0,0,0,0,0,0,0,0,0,0,0,0,0,0,0,0,0,0,0,0,0,0,0,0,0,0,0,0,0,0,0,0,0,0,0,0,0,0,0,0,0,0,0,0,0,0,0,0,0,0,0,0,0,0,0,0,0,0,0,0,0,0,0,0,0,0,0,0,0,0,0,0,0,0,0,0,0,0,0,0,0,0,0,0,0,0,0,0,0,0,0,0,0,0,0,0,0,0,0,0,0,0,0,0,0,0,0,0,0,0,0,0,0,0,0,0,0,0,0,0,0,0,0,0,0,0,0,0,0,0,0,0,0,0,0,0,0,0,0,0,0,0,0,0,0,0,0,0,0,0,0,0,0,0,0,0,0,0,0,0,0,0,0,0,0,0,0,0,0,0,0,0,0,0,0,0,0,0,0,0,0,0,0,0,0,0,0,0,0,0,0,0,0,0,0,0,0,0,0,0,0,0,0,0,0,0,0,0,0,0,0,0,0,0,0,0,0,0,0,0,0,0,0,0,0,0,0,0,0,0,0,0,0,0,0,0,0,0,0,0,0,0,0,0,0,0,0,0,0,0,0,0,0,0,0,0,0,0,0,0,0,0,0,0,0,0,0,0,0,0,0,0,0,0,0,0,0,0,0,0,0,0,0,0,0,0,0,0,0,0,0,0,0,0,0,0,0,0,0,0,0,0,0,0,0,0,0,0,0,0,0,0,0,0,0,0,0,0,0,0,0,0,0,0,0,0,0,0,0,0,0,0,0,0,0,0,0,0,0,0,0,0,0,0,0,0,0,0,0,0,0,0,0,0,0,0,0,0,0,0,0,0,0,0,0,0,0,0,0,0,0,0,0,0,0,0,0,0,0,0,0,0,0,0,0,0,0,0,0,0,0,0,0,0,0,0,0,0,0,0,0,0,0,0,0,0,0,0,0,0,0,0,0,0,0,0,0,0,0,0,0,0,0,0,0,0,0,0,0,0,0,0,0,0,0,0,0,0,0,0,0,0,0,0,0,0,0,0,0,0,0,0,0,0,0,0,0,0,0,0,0,0,0,0,0,0,0,0,0,0,0,0,0,0,0,0,0,0,0,0,0,0,0,0,0,0,0,0,0,0,0,0,0,0,0,0,0,0,0,0,0,0,0,0,0,0,0,0,0,0,0,0,0,0,0,0,0,0,0,0,0,0,0,0,0,0,0,0,0,0,0,0,0,0,0,0,0,0,0,0,0,0,0,0,0,0,0,0,0,0,0,0,0,0,0,0,0,0,0,0,0,0,0,0,0,0,0,0,0,0,0,0,0,0,0,0,0,0,0,0,0,0,0,0,0,0,0,0,0,0,0,0,0,0,0,0,0,0,0,0,0,0,0,0,0,0,0,0,0,0,0,0,0,0,0,0,0,0,0,0,0,0,0,0,0,0,0,0,0,0,0,0,0,0,0,0,0,0,0,0,0,0,0,0,0,0,0,0,0,0,0,0,0,0,0,0,0,0,0,0,0,0,0,0,0,0,0,0,0,0,0,0,0,0,0,0,0,0,0,0,0,0,0,0,0,0,0,0,0,0,0,0,0,0,0,0,0,0,0,0,0,0,0,0,0,0,0,0,0,0,0,0,0,0,0,0,0,0,0,0,0,0,0,0,0,0,0,0,0,0,0,0,0,0,0,0,0,0,0,0,0,0,0,0,0,0,0,0,0,0,0,0,0,0,0,0,0,0,0,0,0,0,0,0,0,0,0,0,0,0,0,0,0,0,0,0,0,0,0,0,0,0,0,0,0,0,0,0,0,0,0,0,0,0,0,0,0,0,0,0,0,0,0,0,0,0,0,0,0,0,0,0,0,0,0,0,0,0,0,0,0,0,0,0,0,0,0,0,0,0,0,0,0,0,0,0,0,0,0,0,0,0,0,0,0,0,0,0,0,0,0,0,0,0,0,0,0,0,0,0,0,0,0,0,0,0,0,0,0,0,0,0,0,0,0,0,0,0,0,0,0,0,0,0,0,0,0,0,0,0,0,0,0,0,0,0,0,0,0,0,0,0,0,0,0,0,0,0,0,0,0,0,0,0,0,0,0,0,0,0,0,0,0,0,0,0,0,0,0,0,0,0,0,0,0,0,0,0,0,0,0,0,0,0,0,0,0,0,0,0,0,0,0,0,0,0,0,0,0,0,0,0,0,0,0,0,0,0,0,0,0,0,0,0,0,0,0,0,0,0,0,0,0,0,0,0,0,0,0,0,0,0,0,0,0,0,0,0,0,0,0,0,0,0,0,0,0,0,0,0,0,0,0,0,0,0,0,0,0,0,0,0,0,0,0,0,0,0,0,0,0,0,0,0,0,0,0,0,0,0,0,0,0,0,0,0,0,0,0,0,0,0,0,0,0,0,0,0,0,0,0,0,0,0,0,0,0,0,0,0,0,0,0,0,0,0,0,0,0,0,0,0,0,0,0,0,0,0,0,0,0,0,0,0,0,0,0,0,0,0,0,0,0,0,0,0,0,0,0,0,0,0,0,0,0,0,0,0,0,0,0,0,0,0,0,0,0,0,0,0,0,0,0,0,0,0,0,0,0,0,0,0,0,0,0,0,0,0,0,0,0,0,0,0,0,0,0,0,0,0,0,0,0,0,0,0,0,0,0,0,0,0,0,0,0,0,0,0,0,0,0,0,0,0,0,0,0,0,0,0,0,0,0,0,0,0,0,0,0,0,0,0,0,0,0,0,0,0,0,0,0,0,0,0,0,0,0,0,0,0,0,0,0,0,0,0,0,0,0,0,0,0,0,0,0,0,0,0,0,0,0,0,0,0,0,0,0,0,0,0,0,0,0,0,0,0,0,0,0,0,0,0,0,0,0,0,0,0,0,0,0,0,0,0,0,0,0,0,0,0,0,0,0,0,0,0,0,0,0,0,0,0,0,0,0,0,0,0,0,0,0,0,0,0,0,0,0,0,0,0,0,0,0,0,0,0,0,0,0,0,0,0,0,0,0,0,0,0,0,0,0,0,0,0,0,0,0,0,0,0,0,0,0,0,0,0,0,0,0,0,0,0,0,0,0,0,0,0,0,0,0,0,0,0,0,0,0,0,0,0,0,0,0,0,0,0,0,0,0,0,0,0,0,0,0,0,0,0,0,0,0,0,0,0,0,0,0,0,0,0,0,0,0,0,0,0,0,0,0,0,0,0,0,0,0,0,0,0,0,0,0,0,0,0,0,0,0,0,0,0,0,0,0,0,0,0,0,0,0,0,0,0,0,0,0,0,0,0,0,0,0,0,0,0,0,0,0,0,0,0,0,0,0,0,0,0,0,0,0,0,0,0,0,0,0,0,0,0,0,0,0,0,0,0,0,0,0,0,0,0,0,0,0,0,0,0,0,0,0,0,0,0,0,0,0,0,0,0,0,0,0,0,0,0,0,0,0,0,0,0,0,0,0,0,0,0,0,0,0,0,0,0,0,0,0,0,0,0,0,0,0,0,0,0,0,0,0,0,0,0,0,0,0,0,0,0,0,0,0,0,0,0,0,0,0,0,0,0,0,0,0,0,0,0,0,0,0,0,0,0,0,0,0,0,0,0,0,0,0,0,0,0,0,0,0,0,0,0,0,0,0,0,0,0,0,0,0,0,0,0,0,0,0,0,0,0,0,0,0,0,0,0,0,0,0,0,0,0,0,0,0,0,0,0,0,0,0,0,0,0,0,0,0,0,0,0,0,0,0,0,0,0,0,0,0,0,0,0,0,0,0,0,0,0,0,0,0,0,0,0,0,0,0,0,0,0,0,0,0,0,0,0,0,0,0,0,0,0,0,0,0,0,0,0,0,0,0,0,0,0,0,0,0,0,0,0,0,0,0,0,0,0,0,0,0,0,0,0,0,0,0,0,0,0,0,0,0,0,0,0,0,0,0,0,0,0,0,0,0,0,0,0,0,0,0,0,0,0,0,0,0,0,0,0,0,0,0,0,0,0,0,0,0,0,0,0,0,0,0,0,0,0,0,0,0,0,0,0,0,0,0,0,0,0,0,0,0,0,0,0,0,0,0,0,0,0,0,0,0,0,0,0,0,0,0,0,0,0,0,0,0,0,0,0,0,0,0,0,0,0,0,0,0,0,0,0,0,0,0,0,0,0,0,0,0,0,0,0,0,0,0,0,0,0,0,0,0,0,0,0,0,0,0,0,0,0,0,0,0,0,0,0,0,0,0,0,0,0,0,0,0,0,0,0,0,0,0,0,0,0,0,0,0,0,0,0,0,0,0,0,0,0,0,0,0,0,0,0,0,0,0,0,0,0,0,0,0,0,0,0,0,0,0,0,0,0,0,0,0,0,0,0,0,0,0,0,0,0,0,0,0,0,0,0,0,0,0,0,0,0,0,0,0,0,0,0,0,0,0,0,0,0,0,0,0,0,0,0,0,0,0,0,0,0,0,0,0,0,0,0,0,0,0,0,0,0,0,0,0,0,0,0,0,0,0,0,0,0,0,0,0,0,0,0,0,0,0,0,0,0,0,0,0,0,0,0,0,0,0,0,0,0,0,0,0,0,0,0,0,0,0,0,0,0,0,0,0,0,0,0,0,0,0,0,0,0,0,0,0,0,0,0,0,0,0,0,0,0,0,0,0,0,0,0,0,0,0,0,0,0,0,0,0,0,0,0,0,0,0,0,0,0,0,0,0,0,0,0,0,0,0,0,0,0,0,0,0,0,0,0,0,0,0,0,0,0,0,0,0,0,0,0,0,0,0,0,0,0,0,0,0,0,0,0,0,0,0,0,0,0,0,0,0,0,0,0,0,0,0,0,0,0,0,0,0,0,0,0,0,0,0,0,0,0,0,0,0,0,0,0,0,0,0,0,0,0,0,0,0,0,0,0,0,0,0,0,0,0,0,0,0,0,0,0,0,0,0,0,0,0,0,0,0,0,0,0,0,0,0,0,0,0,0,0,0,0,0,0,0,0,0,0,0,0,0,0,0,0,0,0,0,0,0,0,0,0,0,0,0,0,0,0,0,0,0,0,0,0,0,0,0,0,0,0,0,0,0,0,0,0,0,0,0,0,0,0,0,0,0,0,0,0,0,0,0,0,0,0,0,0,0,0,0,0,0,0,0,0,0,0,0,0,0,0,0,0,0,0,0,0,0,0,0,0,0,0,0,0,0,0,0,0,0,0,0,0,0,0,0,0,0,0,0,0,0,0,0,0,0,0,0,0,0,0,0,0,0,0,0,0,0,0,0,0,0,0,0,0,0,0,0,0,0,0,0,0,0,0,0,0,0,0,0,0,0,0,0,0,0,0,0,0,0,0,0,0,0,0,0,0,0,0,0,0,0,0,0,0,0,0,0,0,0,0,0,0,0,0,0,0,0,0,0,0,0,0,0,0,0,0,0,0,0,0,0,0,0,0,0,0,0,0,0,0,0,0,0,0,0,0,0,0,0,0,0,0,0,0,0,0,0,0,0,0,0,0,0,0,0,0,0,0,0,0,0,0,0,0,0,0,0,0,0,0,0,0,0,0,0,0,0,0,0,0,0,0,0,0,0,0,0,0,0,0,0,0,0,0,0,0,0,0,0,0,0,0,0,0,0,0,0,0,0,0,0,0,0,0,0,0,0,0,0,0,0,0,0,0,0,0,0,0,0,0,0,0,0,0,0,0,0,0,0,0,0,0,0,0,0,0,0,0,0,0,0,0,0,0,0,0,0,0,0,0,0,0,0,0,0,0,0,0,0,0,0,0,0,0,0,0,0,0,0,0,0,0,0,0,0,0,0,0,0,0,0,0,0,0,0,0,0,0,0,0,0,0,0,0,0,0,0,0,0,0,0,0,0,0,0,0,0,0,0,0,0,0,0,0,0,0,0,0,0,0,0,0,0,0,0,0,0,0,0,0,0,0,0,0,0,0,0,0,0,0,0,0,0,0,0,0,0,0,0,0,0,0,0,0,0,0,0,0,0,0,0,0,0,0,0,0,0,0,0,0,0,0,0,0,0,0,0,0,0,0,0,0,0,0,0,0,0,0,0,0,0,0,0,0,0,0,0,0,0,0,0,0,0,0,0,0,0,0,0,0,0,0,0,0,0,0,0,0,0,0,0,0,0,0,0,0,0,0,0,0,0,0,0,0,0,0,0,0,0,0,0,0,0,0,0,0,0,0,0,0,0,0,0,0,0,0,0,0,0,0,0,0,0,0,0,0,0,0,0,0,0,0,0,0,0,0,0,0,0,0,0,0,0,0,0,0,0,0,0,0,0,0,0,0,0,0,0,0,0,0,0,0,0,0,0,0,0,0,0,0,0,0,0,0,0,0,0,0,0,0,0,0,0,0,0,0,0,0,0,0,0,0,0,0,0,0,0,0,0,0,0,0,0,0,0,0,0,0,0,0,0,0,0,0,0,0,0,0,0,0,0,0,0,0,0,0,0,0,0,0,0,0,0,0,0,0,0,0,0,0,0,0,0,0,0,0,0,0,0,0,0,0,0,0,0,0,0,0,0,0,0,0,0,0,0,0,0,0,0,0,0,0,0,0,0,0,0,0,0,0,0,0,0,0,0,0,0,0,0,0,0,0,0,0,0,0,0,0,0,0,0,0,0,0,0,0,0,0,0,0,0,0,0,0,0,0,0,0,0,0,0,0,0,0,0,0,0,0,0,0,0,0,0,0,0,0,0,0,0,0,0,0,0,0,0,0,0,0,0,0,0,0,0,0,0,0,0,0,0,0,0,0,0,0,0,0,0,0,0,0,0,0,0,0,0,0,0,0,0,0,0,0,0,0,0,0,0,0,0,0,0,0,0,0,0,0,0,0,0,0,0,0,0,0,0,0,0,0,0,0,0,0,0,0,0,0,0,0,0,0,0,0,0,0,0,0,0,0,0,0,0,0,0,0,0,0,0,0,0,0,0,0,0,0,0,0,0,0,0,0,0,0,0,0,0,0,0,0,0,0,0,0,0,0,0,0,0,0,0,0,0,0,0,0,0,0,0,0,0,0,0,0,0,0,0,0,0,0,0,0,0,0,0,0,0,0,0,0,0,0,0,0,0,0,0,0,0,0,0,0,0,0,0,0,0,0,0,0,0,0,0,0,0,0,0,0,0,0,0,0,0,0,0,0,0,0,0,0,0,0,0,0,0,0,0,0,0,0,0,0,0,0,0,0,0,0,0,0,0,0,0,0,0,0,0,0,0,0,0,0,0,0,0,0,0,0,0,0,0,0,0,0,0,0,0,0,0,0,0,0,0,0,0,0,0,0,0,0,0,0,0,0,0,0,0,0,0,0,0,0,0,0,0,0,0,0,0,0,0,0,0,0,0,0,0,0,0,0,0,0,0,0,0,0,0,0,0,0,0,0,0,0,0,0,0,0,0,0,0,0,0,0,0,0,0,0,0,0,0,0,0,0,0,0,0,0,0,0,0,0,0,0,0,0,0,0,0,0,0,0,0,0,0,0,0,0,0,0,0,0,0,0,0,0,0,0,0,0,0,0,0,0,0,0,0,0,0,0,0,0,0,0,0,0,0,0,0,0,0,0,0,0,0,0,0,0,0,0,0,0,0,0,0,0,0,0,0,0,0,0,0,0,0,0,0,0,0,0,0,0,0,0,0,0,0]},{"id":14,"name":"luliang","type":"tilelayer","x":0,"y":0,"opacity":1,"visible":true,"width":144,"height":96,"data":[0,0,0,0,0,0,0,0,0,0,0,0,0,0,0,0,0,0,0,0,0,0,0,0,0,0,0,0,0,0,0,0,0,0,0,0,0,0,0,0,0,0,0,0,0,0,0,0,0,0,0,0,0,0,0,0,0,0,0,0,0,0,0,0,0,0,0,0,0,0,0,0,0,0,0,0,0,0,0,0,0,0,0,0,0,0,0,0,0,0,0,0,0,0,0,0,0,0,0,0,0,0,0,0,0,0,0,0,0,0,0,0,0,0,0,0,0,0,0,0,0,0,0,0,0,0,0,0,0,0,0,0,0,0,0,0,0,0,0,0,0,0,0,0,0,0,0,0,0,0,0,0,0,0,0,0,0,0,0,0,0,0,0,0,0,0,0,0,0,0,0,0,0,0,0,0,0,0,0,0,0,0,0,0,0,0,0,0,0,0,0,0,0,0,0,0,0,0,0,0,0,0,0,0,0,0,0,0,0,0,0,0,0,0,0,0,0,0,0,0,0,0,0,0,0,0,0,0,0,0,0,0,0,0,0,0,0,0,0,0,0,0,0,0,0,0,0,0,0,0,0,0,0,0,0,0,0,0,0,0,0,0,0,0,0,0,0,0,0,0,0,0,0,0,0,0,0,0,0,0,0,0,0,0,0,0,0,0,0,0,0,0,0,0,0,0,0,0,0,0,0,0,0,0,0,0,0,0,0,0,0,0,0,0,0,0,0,0,0,0,0,0,0,0,0,0,0,0,0,0,0,0,0,0,0,0,0,0,0,0,0,0,0,0,0,0,0,0,0,0,0,0,0,0,0,0,0,0,0,0,0,0,0,0,0,0,0,0,0,0,0,0,0,0,0,0,0,0,0,0,0,0,0,0,0,0,0,0,0,0,0,0,0,0,0,0,0,0,0,0,0,0,0,0,0,0,0,0,0,0,0,0,0,0,0,0,0,0,0,0,0,0,0,0,0,0,0,0,0,0,0,0,0,0,0,0,0,0,0,0,0,0,0,0,0,0,0,0,0,0,0,0,0,0,0,0,0,0,0,0,0,0,0,0,0,0,0,0,0,0,0,0,0,0,0,0,0,0,0,0,0,0,0,0,0,0,0,0,0,0,0,0,0,0,0,0,0,0,0,0,0,0,0,0,0,0,0,0,0,0,0,0,0,0,0,0,0,0,0,0,0,0,0,0,0,0,0,0,0,0,0,0,0,0,0,0,0,0,0,0,0,0,0,0,0,0,0,0,0,0,0,0,0,0,0,0,0,0,0,0,0,0,0,0,0,0,0,0,0,0,0,0,0,0,0,0,0,0,0,0,0,0,0,0,0,0,0,0,0,0,0,0,0,0,0,0,0,0,0,0,0,0,0,0,0,0,0,0,0,0,0,0,0,0,0,0,0,0,0,0,0,0,0,0,0,0,0,0,0,0,0,0,0,0,0,0,0,0,0,0,0,0,0,0,0,0,0,0,0,0,0,0,0,0,0,0,0,0,0,0,0,0,0,0,0,0,0,0,0,0,0,0,0,0,0,0,0,0,0,0,0,0,0,0,0,0,0,0,0,0,0,0,0,0,0,0,0,0,0,0,0,0,0,0,0,0,0,0,0,0,0,0,0,0,0,0,0,0,0,0,0,0,0,0,0,0,0,0,0,0,0,0,0,0,0,0,0,0,0,0,0,0,0,0,0,0,0,0,0,0,0,0,0,0,0,0,0,0,0,0,0,0,0,0,0,0,0,0,0,0,0,0,0,0,0,0,0,0,0,0,0,0,0,0,0,0,0,0,0,0,0,0,0,0,0,0,0,0,0,0,0,0,0,0,0,0,0,0,0,0,0,0,0,0,0,0,0,0,0,0,0,0,0,0,0,0,0,0,0,0,0,0,0,0,0,0,0,0,0,0,0,0,0,0,0,0,0,0,0,0,0,0,0,0,0,0,0,0,0,0,0,0,0,0,0,0,0,0,0,0,0,0,0,0,0,0,0,0,0,0,0,0,0,0,0,0,0,0,0,0,0,0,0,0,0,0,0,0,0,0,0,0,0,0,0,0,0,0,0,0,0,0,0,0,0,0,0,0,0,0,0,0,0,0,0,0,0,0,0,0,0,0,0,0,0,0,0,0,0,0,0,0,0,0,0,0,0,0,0,0,0,0,0,0,0,0,0,0,0,0,0,0,0,0,0,0,0,0,0,0,0,0,0,0,0,0,0,0,0,0,0,0,0,0,0,0,0,0,0,0,0,0,0,0,0,0,0,0,0,0,0,0,0,0,0,0,0,0,0,0,0,0,0,0,0,0,0,0,0,0,0,0,0,0,0,0,0,0,0,0,0,0,0,0,0,0,0,0,0,0,0,0,0,0,0,0,0,0,0,0,0,0,0,0,0,0,0,0,0,0,0,0,0,0,0,0,0,0,0,0,0,0,0,0,0,0,0,0,0,0,0,0,0,0,0,0,0,0,0,0,0,0,0,0,0,0,0,0,0,0,0,0,0,0,0,0,0,0,0,0,0,0,0,0,0,0,0,0,0,0,0,0,0,0,0,0,0,0,0,0,0,0,0,0,0,0,0,0,0,0,0,0,0,0,0,0,0,0,0,0,0,0,0,0,0,0,0,0,0,0,0,0,0,0,0,0,0,0,0,0,0,0,0,0,0,0,0,0,0,0,0,0,0,0,0,0,0,0,0,0,0,0,0,0,0,0,0,0,0,0,0,0,0,0,0,0,0,0,0,0,0,0,0,0,0,0,0,0,0,0,0,0,0,0,0,0,0,0,0,0,0,0,0,0,0,0,0,0,0,0,0,0,0,0,0,0,0,0,0,0,0,0,0,0,0,0,0,0,0,0,0,0,0,0,0,0,0,0,0,0,0,0,0,0,0,0,0,0,0,0,0,0,0,0,0,0,0,0,0,0,0,0,0,0,0,0,0,0,0,0,0,0,0,0,0,0,0,0,0,0,0,0,0,0,0,0,0,0,0,0,0,0,0,0,0,0,0,0,0,0,0,0,0,0,0,0,0,0,0,0,0,0,0,0,0,0,0,0,0,0,0,0,0,0,0,0,0,0,0,0,0,0,0,0,0,0,0,0,0,0,0,0,0,0,0,0,0,0,0,0,0,0,0,0,0,0,0,0,0,0,0,0,0,0,0,0,0,0,0,0,0,0,0,0,0,0,0,0,0,0,0,0,0,0,0,0,0,0,0,0,0,0,0,0,0,0,0,0,0,0,0,0,0,0,0,0,0,0,0,0,0,0,0,0,0,0,0,0,0,0,0,0,0,0,0,0,0,0,0,0,0,0,0,0,0,0,0,0,0,0,0,0,0,0,0,0,0,0,0,0,0,0,0,0,0,0,0,0,0,0,0,0,0,0,0,0,0,0,0,0,0,0,0,0,0,0,0,0,0,0,0,0,0,0,0,0,0,0,0,0,0,0,0,0,0,0,0,0,0,0,0,0,0,0,0,0,0,0,0,0,0,0,0,0,0,0,0,0,0,0,0,0,0,0,0,0,0,0,0,0,0,0,0,0,0,0,0,0,0,0,0,0,0,0,0,0,0,0,0,0,0,0,0,0,0,0,0,0,0,0,0,0,0,0,0,0,0,0,0,0,0,0,0,0,0,0,0,0,0,0,0,0,0,0,0,0,0,0,0,0,0,0,0,0,0,0,0,0,0,0,0,0,0,0,0,0,0,0,0,0,0,0,0,0,0,0,0,0,0,0,0,0,0,0,0,0,0,0,0,0,0,0,0,0,0,0,0,0,0,0,0,0,0,0,0,0,0,0,0,0,0,0,0,0,0,0,0,0,0,0,0,0,0,0,0,0,0,0,0,0,0,0,0,0,0,0,0,0,0,0,0,0,0,0,0,0,0,0,0,0,0,0,0,0,0,0,0,0,0,0,0,0,0,0,0,0,0,0,0,0,0,0,0,0,0,0,0,0,0,0,0,0,0,0,0,0,0,0,0,0,0,0,0,0,0,0,0,0,0,0,0,0,0,0,0,0,0,0,0,0,0,0,0,0,0,0,0,0,0,0,0,0,0,0,0,0,0,0,0,0,0,0,0,0,0,0,0,0,0,0,0,0,0,0,0,0,0,0,0,0,0,0,0,0,0,0,0,0,0,0,0,0,0,0,0,0,0,0,0,0,0,0,0,0,0,0,0,0,0,0,0,0,0,0,0,0,0,0,0,0,0,0,0,0,0,0,0,0,0,0,0,0,0,0,0,0,0,0,0,0,0,0,0,0,0,0,0,0,0,0,0,0,0,0,0,0,0,0,0,0,0,0,0,0,0,0,0,0,0,0,0,0,0,0,0,0,0,0,0,0,0,0,0,0,2694,0,0,0,0,0,0,0,0,0,0,0,0,0,0,0,0,0,0,0,0,0,0,0,0,0,0,0,0,0,0,0,0,0,0,0,0,0,0,0,0,0,0,0,0,0,0,0,0,0,0,0,0,0,0,0,0,0,0,0,0,0,0,0,0,0,0,0,0,0,0,0,0,0,0,0,0,0,0,0,0,0,0,0,0,0,0,0,0,0,0,0,0,0,0,0,0,0,0,0,0,0,0,0,0,0,0,0,0,0,0,0,0,0,0,0,0,0,0,0,0,0,0,0,0,0,0,0,0,0,0,0,0,0,0,0,0,0,0,0,0,0,0,2699,2721,2715,0,0,0,0,0,0,0,0,0,0,0,0,0,0,0,0,0,0,0,0,0,0,0,0,0,0,0,0,0,0,0,0,0,0,0,0,0,0,0,0,0,0,0,0,0,0,0,0,0,0,0,0,0,0,0,0,0,0,0,0,0,0,0,0,0,0,0,0,0,0,0,0,0,0,0,0,0,0,0,0,0,0,0,0,0,0,0,0,0,0,0,0,0,0,0,0,0,0,0,0,0,0,0,0,0,0,0,0,0,0,0,0,0,0,0,0,0,0,0,0,0,0,0,0,0,0,0,0,0,0,0,0,0,0,0,0,0,0,0,0,2720,2722,2783,2734,2715,0,0,0,0,0,0,0,0,0,0,0,0,0,0,0,0,0,0,0,0,0,0,0,0,0,0,0,0,0,0,0,0,0,0,0,0,0,0,0,0,0,0,0,0,0,0,0,0,0,0,0,0,0,0,0,0,0,0,0,0,0,0,0,0,0,0,0,0,0,0,0,0,0,0,0,0,0,0,0,0,0,0,0,0,0,0,0,0,0,0,0,0,0,0,0,0,0,0,0,0,0,0,0,0,0,0,0,0,0,0,0,0,0,0,0,0,0,0,0,0,0,0,0,0,0,0,0,0,0,0,0,0,0,0,0,0,0,0,0,2879,2147486383,2147486479,2147486527,2731,0,0,0,0,0,0,0,0,0,0,0,0,0,0,0,0,0,0,0,0,0,0,0,0,0,0,0,0,0,0,0,0,0,0,0,0,0,0,0,0,0,0,0,0,0,0,0,0,0,0,0,0,0,0,0,0,0,0,0,0,0,0,0,0,0,0,0,0,0,0,0,0,0,0,0,0,0,0,0,0,0,0,0,0,0,0,0,0,0,0,0,0,0,0,0,0,0,0,0,0,0,0,0,0,0,0,0,0,0,0,0,0,0,0,0,0,0,0,0,0,0,0,0,0,0,0,0,0,0,0,0,0,0,0,0,0,0,0,0,2879,2783,2783,2783,2731,0,0,0,0,0,0,0,0,0,0,0,0,0,0,0,0,0,0,0,0,0,0,0,0,0,0,0,0,0,0,0,0,0,0,0,0,0,0,0,0,0,0,0,0,0,0,0,0,0,0,0,0,0,0,0,0,0,0,0,0,0,0,0,0,0,0,0,0,0,0,0,0,0,0,0,0,0,0,0,0,0,0,0,0,0,0,0,0,0,0,0,0,0,0,0,0,0,0,0,0,0,0,0,0,0,0,0,0,0,0,0,0,0,0,0,0,0,0,0,0,0,0,0,0,0,0,0,0,0,0,0,0,0,0,0,0,0,0,0,2147486479,2879,2147486479,2783,2731,0,0,0,0,0,0,0,0,0,0,0,0,0,0,0,0,0,0,0,0,0,0,0,0,0,0,0,0,0,0,0,0,0,0,0,0,0,0,0,0,0,0,0,0,0,0,0,0,0,0,0,0,0,0,0,0,0,0,0,0,0,0,0,0,0,0,0,0,0,0,0,0,0,0,0,0,0,0,0,0,0,0,0,0,0,0,0,0,0,0,0,0,0,0,0,0,0,0,0,0,0,0,0,0,0,0,0,0,0,0,0,0,0,0,0,0,0,0,0,0,0,0,0,0,0,0,0,0,0,0,0,0,0,0,0,0,0,0,0,0,2147486431,2147486479,2735,2731,0,0,0,0,0,0,0,0,0,0,0,0,0,0,0,0,0,0,0,0,0,0,0,0,0,0,0,0,0,0,0,0,0,0,0,0,0,0,0,0,0,0,0,0,0,0,0,0,0,0,0,0,0,0,0,0,0,0,0,0,0,0,0,0,0,0,0,0,0,0,0,0,0,0,0,0,0,0,0,0,0,0,0,0,0,0,0,0,0,0,0,0,0,0,0,0,0,0,0,0,0,0,0,0,0,0,0,0,0,0,0,0,0,0,0,0,0,0,0,0,0,0,0,0,0,0,0,0,0,0,0,0,0,0,0,0,0,0,0,0,2831,2735,2735,2734,0,0,0,0,0,0,0,0,0,0,0,0,0,0,0,0,0,0,0,0,0,0,0,0,0,0,0,0,0,0,0,0,0,0,0,0,0,0,0,0,0,0,0,0,0,0,0,0,0,0,0,0,0,0,0,0,0,0,0,0,0,0,0,0,0,0,0,0,0,0,0,0,0,0,0,0,0,0,0,0,0,0,0,0,0,0,0,0,0,0,0,0,0,0,0,0,0,0,0,0,0,0,0,0,0,0,0,0,0,0,0,0,0,0,0,0,0,0,0,0,0,0,0,0,0,0,0,0,0,0,0,0,0,0,0,0,0,0,0,0,2879,2147486431,2147486383,2831,0,0,0,0,0,0,0,0,0,0,0,0,0,0,0,0,0,0,0,0,0,0,0,0,0,0,0,0,0,0,0,0,0,0,0,0,0,0,0,0,0,0,0,0,0,0,0,0,0,0,0,0,0,0,0,0,0,0,0,0,0,0,0,0,0,0,0,0,0,0,0,0,0,0,0,0,0,0,0,0,0,0,0,0,0,0,0,0,0,0,0,0,0,0,0,0,0,0,0,0,0,0,0,0,0,0,0,0,0,0,0,0,0,0,0,0,0,0,0,0,0,0,0,0,0,0,0,0,0,0,0,0,0,0,0,0,0,0,0,0,2783,2147486383,2735,2733,0,0,0,0,0,0,0,0,0,0,0,0,0,0,0,0,0,0,0,0,0,0,0,0,0,0,0,0,0,0,0,0,0,0,0,0,0,0,0,0,0,0,0,0,0,0,0,0,0,0,0,0,0,0,0,0,0,0,0,0,0,0,0,0,0,0,0,0,0,0,0,0,0,0,0,0,0,0,0,0,0,0,0,0,0,0,0,0,0,0,0,0,0,0,0,0,0,0,0,0,0,0,0,0,0,0,0,0,0,0,0,0,0,0,0,0,0,0,0,0,0,0,0,0,0,0,0,0,0,0,0,0,0,0,0,0,0,0,0,0,2879,2147486383,2147486527,2731,0,0,0,0,0,0,0,0,0,0,0,0,0,0,0,0,0,0,0,0,0,0,0,0,0,0,0,0,0,0,0,0,0,0,0,0,0,0,0,0,0,0,0,0,0,0,0,0,0,0,0,0,0,0,0,0,0,0,0,0,0,0,0,0,0,0,0,0,0,0,0,0,0,0,0,0,0,0,0,0,0,0,0,0,0,0,0,0,0,0,0,0,0,0,0,0,0,0,0,0,0,0,0,0,0,0,0,0,0,0,0,0,0,0,0,0,0,0,0,0,0,0,0,0,0,0,0,0,0,0,0,0,0,0,0,0,0,0,0,0,0,2147486479,2831,0,0,0,0,0,0,0,0,0,0,0,0,0,0,0,0,0,0,0,0,0,0,0,0,0,0,0,0,0,0,0,0,0,0,0,0,0,0,0,0,0,0,0,0,0,0,0,0,0,0,0,0,0,0,0,0,0,0,0,0,0,0,0,0,0,0,0,0,0,0,0,0,0,0,0,0,0,0,0,0,0,0,0,0,0,0,0,0,0,0,0,0,0,0,0,0,0,0,0,0,0,0,0,0,0,0,0,0,0,0,0,0,0,0,0,0,0,0,0,0,0,0,0,0,0,0,0,0,0,0,0,0,0,0,0,0,0,0,0,0,0,0,2725,2728,0,0,0,0,0,0,0,0,0,0,0,0,0,0,0,0,0,0,0,0,0,0,0,0,0,0,0,0,0,0,0,0,0,0,0,0,0,0,0,0,0,0,0,0,0,0,0,0,0,0,0,0,0,0,0,0,0,0,0,0,0,0,0,0,0,0,0,0,0,0,0,0,0,0,0,0,0,0,0,0,0,0,0,0,0,0,0,0,0,0,0,0,0,0,0,0,0,0,0,0,0,0,0,0,0,0,0,0,0,0,0,0,0,0,0,0,0,0,0,0,0,0,0,0,0,0,0,0,0,0,0,0,0,0,0,0,0,0,0,0,0,0,0,2690,0,0,0,0,0,0,0,0,0,0,0,0,0,0,0,0,0,0,0,0,0,0,0,0,0,0,0,0,0,0,0,0,0,0,0,0,0,0,0,0,0,0,0,0,0,0,0,0,0,0,0,0,0,0,0,0,0,0,0,0,0,0,0,0,0,0,0,0,0,0,0,0,0,0,0,0,0,0,0,0,0,0,0,0,0,0,0,0,0,0,0,0,0,0,0,0,0,0,0,0,0,0,0,0,0,0,0,0,0,0,0,0,0,0,0,0,0,0,0,0,0,0,0,0,0,0,0,0,0,0,0,0,0,0,0,0,0,0,0,0,0,0,0,0,0,0,0,0,0,0,0,0,0,0,0,0,0,0,0,0,0,0,0,0,0,0,0,0,0,0,0,0,0,0,0,0,0,0,0,0,0,0,0,0,0,0,0,0,0,0,0,0,0,0,0,0,0,0,0,0,0,0,0,0,0,0,0,0,0,0,0,0,0,0,0,0,0,0,0,0,0,0,0,0,0,0,0,0,0,0,0,0,0,0,0,0,0,0,0,0,0,0,0,0,0,0,0,0,0,0,0,0,0,0,0,0,0,0,0,0,0,0,0,0,0,0,0,0,0,0,0,0,0,0,0,0,0,0,0,0,0,0,0,0,0,0,0,0,0,0,0,0,0,0,0,0,0,0,0,0,0,0,0,0,0,0,0,0,0,0,0,0,0,0,0,0,0,0,0,0,0,0,0,0,0,0,0,0,0,0,0,0,0,0,0,0,0,0,0,0,0,0,0,0,0,0,0,0,0,0,0,0,0,0,0,0,0,0,0,0,0,0,0,0,0,0,0,0,0,0,0,0,0,0,0,0,0,0,0,0,0,0,0,0,0,0,0,0,0,0,0,0,0,0,0,0,0,0,0,0,0,0,0,0,0,0,0,0,0,0,0,0,0,0,0,0,0,0,0,0,0,0,0,0,0,0,0,0,0,0,0,0,0,0,0,0,0,0,0,0,0,0,0,0,0,0,0,0,0,0,0,0,0,0,0,0,0,0,0,0,0,0,0,0,0,0,0,0,0,0,0,0,0,0,0,0,0,0,0,0,0,0,0,0,0,0,0,0,0,0,0,0,0,0,0,0,0,0,0,0,0,0,0,0,0,0,0,0,0,0,0,0,0,0,0,0,0,0,0,0,0,0,0,0,0,0,0,0,0,0,0,0,0,0,0,0,0,0,0,0,0,0,0,0,0,0,0,0,0,0,0,0,0,0,0,0,0,0,0,0,0,0,0,0,0,0,0,0,0,0,0,0,0,0,0,0,0,0,0,0,0,0,0,0,0,0,0,0,0,0,0,0,0,0,0,0,0,0,0,0,0,0,0,0,0,0,0,0,0,0,0,0,0,0,0,0,0,0,0,0,0,0,0,0,0,0,0,0,0,0,0,0,0,0,0,0,0,0,0,0,0,0,0,0,0,0,0,0,0,0,0,0,0,0,0,0,0,0,0,0,0,0,0,0,0,0,0,0,0,0,0,0,0,0,0,0,0,0,0,0,0,0,0,0,0,0,0,0,0,0,0,0,0,0,0,0,0,0,0,0,0,0,0,0,0,0,0,0,0,0,0,0,0,0,0,0,0,0,0,0,0,0,0,0,0,0,0,0,0,0,0,0,0,0,0,0,0,0,0,0,0,0,0,0,0,0,0,0,0,0,0,0,0,0,0,0,0,0,0,0,0,0,0,0,0,0,0,0,0,0,0,0,0,0,0,0,0,0,0,0,0,0,0,0,0,0,0,0,0,0,0,0,0,0,0,0,0,0,0,0,0,0,0,0,0,0,0,0,0,0,0,0,0,0,0,0,0,0,0,0,0,0,0,0,0,0,0,0,0,0,0,0,0,0,0,0,0,0,0,0,0,0,0,0,0,0,0,0,0,0,0,0,0,0,0,0,0,0,0,0,0,0,0,0,0,0,0,0,0,0,0,0,0,0,0,0,0,0,0,0,0,0,0,0,0,0,0,0,0,0,0,0,0,0,0,0,0,0,0,0,0,0,0,0,0,0,0,0,0,0,0,0,0,0,0,0,0,0,0,0,0,0,0,0,0,0,0,0,0,0,0,0,0,0,0,0,0,0,0,0,0,0,0,0,0,0,0,0,0,0,0,0,0,0,0,0,0,0,0,0,0,0,0,0,0,0,0,0,0,0,0,0,0,0,0,0,0,0,0,0,0,0,0,0,0,0,0,0,0,0,0,0,0,0,0,0,0,0,0,0,0,0,0,0,0,0,0,0,0,0,0,0,0,0,0,0,0,0,0,0,0,0,0,0,0,0,0,0,0,0,0,0,0,0,0,0,0,0,0,0,0,0,0,0,0,0,0,0,0,0,0,0,0,0,0,0,0,0,0,0,0,0,0,0,0,0,0,0,0,0,0,0,0,0,0,0,0,0,0,0,0,0,0,0,0,0,0,0,0,0,0,0,0,0,0,0,0,0,0,0,0,0,0,0,0,0,0,0,0,0,0,0,0,0,0,0,0,0,0,0,0,0,0,0,0,0,0,0,0,0,0,0,0,0,0,0,0,0,0,0,0,0,0,0,0,0,0,0,0,0,0,0,0,0,0,0,0,0,0,0,0,0,0,0,0,0,0,0,0,0,0,0,0,0,0,0,0,0,0,0,0,0,0,0,0,0,0,0,0,0,0,0,0,0,0,0,0,0,0,0,0,0,0,0,0,0,0,0,0,0,0,0,0,0,0,0,0,0,0,0,0,0,0,0,0,0,0,0,0,0,0,0,0,0,0,0,0,0,0,0,0,0,0,0,0,0,0,0,0,0,0,0,0,0,0,0,0,0,0,0,0,0,0,0,0,0,0,0,0,0,0,0,0,0,0,0,0,0,0,0,0,0,0,0,0,0,0,0,0,0,0,0,0,0,0,0,0,0,0,0,0,0,0,0,0,0,0,0,0,0,0,0,0,0,0,0,0,0,0,0,0,0,0,0,0,0,0,0,0,0,0,0,0,0,0,0,0,0,0,0,0,0,0,0,0,0,0,0,0,0,0,0,0,0,0,0,0,0,0,0,0,0,0,0,0,0,0,0,0,0,0,0,0,0,0,0,0,0,0,0,0,0,0,0,0,0,0,0,0,0,0,0,0,0,0,0,0,0,0,0,0,0,0,0,0,0,0,0,0,0,0,0,0,0,0,0,0,0,0,0,0,0,0,0,0,0,0,0,0,0,0,0,0,0,0,0,0,0,0,0,0,0,0,0,0,0,0,0,0,0,0,0,0,0,0,0,0,0,0,0,0,0,0,0,0,0,0,0,0,0,0,0,0,0,0,0,0,0,0,0,0,0,0,0,0,0,0,0,0,0,0,0,0,0,0,0,0,0,0,0,0,0,0,0,0,0,0,0,0,0,0,0,0,0,0,0,0,0,0,0,0,0,0,0,0,0,0,0,0,0,0,0,0,0,0,0,0,0,0,0,0,0,0,0,0,0,0,0,0,0,0,0,0,0,0,0,0,0,0,0,0,0,0,0,0,0,0,0,0,0,0,0,0,0,0,0,0,0,0,0,0,0,0,0,0,0,0,0,0,0,0,0,0,0,0,0,0,0,0,0,0,0,0,0,0,0,0,0,0,0,0,0,0,0,0,0,0,0,0,0,0,0,0,0,0,0,0,0,0,0,0,0,0,0,0,0,0,0,0,0,0,0,0,0,0,0,0,0,0,0,0,0,0,0,0,0,0,0,0,0,0,0,0,0,0,0,0,0,0,0,0,0,0,0,0,0,0,0,0,0,0,0,0,0,0,0,0,0,0,0,0,0,0,0,0,0,0,0,0,0,0,0,0,0,0,0,0,0,0,0,0,0,0,0,0,0,0,0,0,0,0,0,0,0,0,0,0,0,0,0,0,0,0,0,0,0,0,0,0,0,0,0,0,0,0,0,0,0,0,0,0,0,0,0,0,0,0,0,0,0,0,0,0,0,0,0,0,0,0,0,0,0,0,0,0,0,0,0,0,0,0,0,0,0,0,0,0,0,0,0,0,0,0,0,0,0,0,0,0,0,0,0,0,0,0,0,0,0,0,0,0,0,0,0,0,0,0,0,0,0,0,0,0,0,0,0,0,0,0,0,0,0,0,0,0,0,0,0,0,0,0,0,0,0,0,0,0,0,0,0,0,0,0,0,0,0,0,0,0,0,0,0,0,0,0,0,0,0,0,0,0,0,0,0,0,0,0,0,0,0,0,0,0,0,0,0,0,0,0,0,0,0,0,0,0,0,0,0,0,0,0,0,0,0,0,0,0,0,0,0,0,0,0,0,0,0,0,0,0,0,0,0,0,0,0,0,0,0,0,0,0,0,0,0,0,0,0,0,0,0,0,0,0,0,0,0,0,0,0,0,0,0,0,0,0,0,0,0,0,0,0,0,0,0,0,0,0,0,0,0,0,0,0,0,0,0,0,0,0,0,0,0,0,0,0,0,0,0,0,0,0,0,0,0,0,0,0,0,0,0,0,0,0,0,0,0,0,0,0,0,0,0,0,0,0,0,0,0,0,0,0,0,0,0,0,0,0,0,0,0,0,0,0,0,0,0,0,0,0,0,0,0,0,0,0,0,0,0,0,0,0,0,0,0,0,0,0,0,0,0,0,0,0,0,0,0,0,0,0,0,0,0,0,0,0,0,0,0,0,0,0,0,0,0,0,0,0,0,0,0,0,0,0,0,0,0,0,0,0,0,0,0,0,0,0,0,0,0,0,0,0,0,0,0,0,0,0,0,0,0,0,0,0,0,0,0,0,0,0,0,0,0,0,0,0,0,0,0,0,0,0,0,0,0,0,0,0,0,0,0,0,0,0,0,0,0,0,0,0,0,0,0,0,0,0,0,0,0,0,0,0,0,0,0,0,0,0,0,0,0,0,0,0,0,0,0,0,0,0,0,0,0,0,0,0,0,0,0,0,0,0,0,0,0,0,0,0,0,0,0,0,0,0,0,0,0,0,0,0,0,0,0,0,0,0,0,0,0,0,0,0,0,0,0,0,0,0,0,0,0,0,0,0,0,0,0,0,0,0,0,0,0,0,0,0,0,0,0,0,0,0,0,0,0,0,0,0,0,0,0,0,0,0,0,0,0,0,0,0,0,0,0,0,0,0,0,0,0,0,0,0,0,0,0,0,0,0,0,0,0,0,0,0,0,0,0,0,0,0,0,0,0,0,0,0,0,0,0,0,0,0,0,0,0,0,0,0,0,0,0,0,0,0,0,0,0,0,0,0,0,0,0,0,0,0,0,0,0,0,0,0,0,0,0,0,0,0,0,0,0,0,0,0,0,0,0,0,0,0,0,0,0,0,0,0,0,0,0,0,0,0,0,0,0,0,0,0,0,0,0,0,0,0,0,0,0,0,0,0,0,0,0,0,0,0,0,0,0,0,0,0,0,0,0,0,0,0,0,0,0,0,0,0,0,0,0,0,0,0,0,0,0,0,0,0,0,0,0,0,0,0,0,0,0,0,0,0,0,0,0,0,0,0,0,0,0,0,0,0,0,0,0,0,0,0,0,0,0,0,0,0,0,0,0,0,0,0,0,0,0,0,0,0,0,0,0,0,0,0,0,0,0,0,0,0,0,0,0,0,0,0,0,0,0,0,0,0,0,0,0,0,0,0,0,0,0,0,0,0,0,0,0,0,0,0,0,0,0,0,0,0,0,0,0,0,0,0,0,0,0,0,0,0,0,0,0,0,0,0,0,0,0,0,0,0,0,0,0,0,0,0,0,0,0,0,0,0,0,0,0,0,0,0,0,0,0,0,0,0,0,0,0,0,0,0,0,0,0,0,0,0,0,0,0,0,0,0,0,0,0,0,0,0,0,0,0,0,0,0,0,0,0,0,0,0,0,0,0,0,0,0,0,0,0,0,0,0,0,0,0,0,0,0,0,0,0,0,0,0,0,0,0,0,0,0,0,0,0,0,0,0,0,0,0,0,0,0,0,0,0,0,0,0,0,0,0,0,0,0,0,0,0,0,0,0,0,0,0,0,0,0,0,0,0,0,0,0,0,0,0,0,0,0,0,0,0,0,0,0,0,0,0,0,0,0,0,0,0,0,0,0,0,0,0,0,0,0,0,0,0,0,0,0,0,0,0,0,0,0,0,0,0,0,0,0,0,0,0,0,0,0,0,0,0,0,0,0,0,0,0,0,0,0,0,0,0,0,0,0,0,0,0,0,0,0,0,0,0,0,0,0,0,0,0,0,0,0,0,0,0,0,0,0,0,0,0,0,0,0,0,0,0,0,0,0,0,0,0,0,0,0,0,0,0,0,0,0,0,0,0,0,0,0,0,0,0,0,0,0,0,0,0,0,0,0,0,0,0,0,0,0,0,0,0,0,0,0,0,0,0,0,0,0,0,0,0,0,0,0,0,0,0,0,0,0,0,0,0,0,0,0,0,0,0,0,0,0,0,0,0,0,0,0,0,0,0,0,0,0,0,0,0,0,0,0,0,0,0,0,0,0,0,0,0,0,0,0,0,0,0,0,0,0,0,0,0,0,0,0,0,0,0,0,0,0,0,0,0,0,0,0,0,0,0,0,0,0,0,0,0,0,0,0,0,0,0,0,0,0,0,0,0,0,0,0,0,0,0,0,0,0,0,0,0,0,0,0,0,0,0,0,0,0,0,0,0,0,0,0,0,0,0,0,0,0,0,0,0,0,0,0,0,0,0,0,0,0,0,0,0,0,0,0,0,0,0,0,0,0,0,0,0,0,0,0,0,0,0,0,0,0,0,0,0,0,0,0,0,0,0,0,0,0,0,0,0,0,0,0,0,0,0,0,0,0,0,0,0,0,0,0,0,0,0,0,0,0,0,0,0,0,0,0,0,0,0,0,0,0,0,0,0,0,0,0,0,0,0,0,0,0,0,0,0,0,0,0,0,0,0,0,0,0,0,0,0,0,0,0,0,0,0,0,0,0,0,0,0,0,0,0,0,0,0,0,0,0,0,0,0,0,0,0,0,0,0,0,0,0,0,0,0,0,0,0,0,0,0,0,0,0,0,0,0,0,0,0,0,0,0,0,0,0,0,0,0,0,0,0,0,0,0,0,0,0,0,0,0,0,0,0,0,0,0,0,0,0,0,0,0,0,0,0,0,0,0,0,0,0,0,0,0,0,0,0,0,0,0,0,0,0,0,0,0,0,0,0,0,0,0,0,0,0,0,0,0,0,0,0,0,0,0,0,0,0,0,0,0,0,0,0,0,0,0,0,0,0,0,0,0,0,0,0,0,0,0,0,0,0,0,0,0,0,0,0,0,0,0,0,0,0,0,0,0,0,0,0,0,0,0,0,0,0,0,0,0,0,0,0,0,0,0,0,0,0,0,0,0,0,0,0,0,0,0,0,0,0,0,0,0,0,0,0,0,0,0,0,0,0,0,0,0,0,0,0,0,0,0,0,0,0,0,0,0,0,0,0,0,0,0,0,0,0,0,0,0,0,0,0,0,0,0,0,0,0,0,0,0,0,0,0,0,0,0,0,0,0,0,0,0,0,0,0,0,0,0,0,0,0,0,0,0,0,0,0,0,0,0,0,0,0,0,0,0,0,0,0,0,0,0,0,0,0,0,0,0,0,0,0,0,0,0,0,0,0,0,0,0,0,0,0,0,0,0,0,0,0,0,0,0,0,0,0,0,0,0,0,0,0,0,0,0,0,0,0,0,0,0,0,0,0,0,0,0,0,0,0,0,0,0,0,0,0,0,0,0,0,0,0,0,0,0,0,0,0,0,0,0,0,0,0,0,0,0,0,0,0,0,0,0,0,0,0,0,0,0,0,0,0,0,0,0,0,0,0,0,0,0,0,0,0,0,0,0,0,0,0,0,0,0,0,0,0,0,0,0,0,0,0,0,0,0,0,0,0,0,0,0,0,0,0,0,0,0,0,0,0,0,0,0,0,0,0,0,0,0,0,0,0,0,0,0,0,0,0,0,0,0,0,0,0,0,0,0,0,0,0,0,0,0,0,0,0,0,0,0,0,0,0,0,0,0,0,0,0,0,0,0,0,0,0,0,0,0,0,0,0,0,0,0,0,0,0,0,0,0,0,0,0,0,0,0,0,0,0,0,0,0,0,0,0,0,0,0,0,0,0,0,0,0,0,0,0,0,0,0,0,0,0,0,0,0,0,0,0,0,0,0,0,0,0,0,0,0,0,0,0,0,0,0,0,0,0,0,0,0,0,0,0,0,0,0,0,0,0,0,0,0,0,0,0,0,0,0,0,0,0,0,0,0,0,0,0,0,0,0,0,0,0,0,0,0,0,0,0,0,0,0,0,0,0,0,0,0,0,0,0,0,0,0,0,0,0,0,0,0,0,0,0,0,0,0,0,0,0,0,0,0,0,0,0,0,0,0,0,0,0,0,0,0,0,0,0,0,0,0,0,0,0,0,0,0,0,0,0,0,0,0,0,0,0,0,0,0,0,0,0,0,0,0,0,0,0,0,0,0,0,0,0,0,0,0,0,0,0,0,0,0,0,0,0,0,0,0,0,0,0,0,0,0,0,0,0,0,0,0,0,0,0,0,0,0,0,0,0,0,0,0,0,0,0,0,0,0,0,0,0,0,0,0,0,0,0,0,0,0,0,0,0,0,0,0,0,0,0,0,0,0,0,0,0,0,0,0,0,0,0,0,0,0,0,0,0,0,0,0,0,0,0,0,0,0,0,0,0,0,0,0,0,0,0,0,0,0,0,0,0,0,0,0,0,0,0,0,0,0,0,0,0,0,0,0,0,0,0,0,0,0,0,0,0,0,0,0,0,0,0,0,0,0,0,0,0,0,0,0,0,0,0,0,0,0,0,0,0,0,0,0,0,0,0,0,0,0,0,0,0,0,0,0,0,0,0,0,0,0,0,0,0,0,0,0,0,0,0,0,0,0,0,0,0,0,0,0,0,0,0,0,0,0,0,0,0,0,0,0,0,0,0,0,0,0,0,0,0,0,0,0,0,0,0,0,0,0,0,0,0,0,0,0,0,0,0,0,0,0,0,0,0,0,0,0,0,0,0,0,0,0,0,0,0,0,0,0,0,0,0,0,0,0,0,0,0,0,0,0,0,0,0,0,0,0,0,0,0,0,0,0,0,0,0,0,0,0,0,0,0,0,0,0,0,0,0,0,0,0,0,0,0,0,0,0,0,0,0,0,0,0,0,0,0,0,0,0,0,0,0,0,0,0,0,0,0,0,0,0,0,0,0,0,0,0,0,0,0,0,0,0,0,0,0,0,0,0,0,0,0,0,0,0,0,0,0,0,0,0,0,0,0,0,0,0,0,0,0,0,0,0,0,0,0,0,0,0,0,0,0,0,0,0,0,0,0,0,0,0,0,0,0,0,0,0,0,0,0,0,0,0,0,0,0,0,0,0,0,0,0,0,0,0,0,0,0,0,0,0,0,0,0,0,0,0,0,0,0,0,0,0,0,0,0,0,0,0,0,0,0,0,0,0,0,0,0,0,0,0,0,0,0,0,0,0,0,0,0,0,0,0,0,0,0,0,0,0,0,0,0,0,0,0,0,0,0,0,0,0,0,0,0,0,0,0,0,0,0,0,0,0,0,0,0,0,0,0,0,0,0,0,0,0,0,0,0,0,0,0,0,0,0,0,0,0,0,0,0,0,0,0,0,0,0,0,0,0,0,0,0,0,0,0,0,0,0,0,0,0,0,0,0,0,0,0,0,0,0,0,0,0,0,0,0,0,0,0,0,0,0,0,0,0,0,0,0,0,0,0,0,0,0,0,0,0,0,0,0,0,0,0,0,0,0,0,0,0,0,0,0,0,0,0,0,0,0,0,0,0,0,0,0,0,0,0,0,0,0,0,0,0,0,0,0,0,0,0,0,0,0,0,0,0,0,0,0,0,0,0,0,0,0,0,0,0,0,0,0,0,0,0,0,0,0,0,0,0,0,0,0,0,0,0,0,0,0,0,0,0,0,0,0,0,0,0,0,0,0,0,0,0,0,0,0,0,0,0,0,0,0,0,0,0,0,0,0,0,0,0,0,0,0,0,0,0,0,0,0,0,0,0,0,0,0,0,0,0,0,0,0,0,0,0,0,0,0,0,0,0,0,0,0,0,0,0,0,0,0,0,0,0,0,0,0,0,0,0,0,0,0,0,0,0,0,0,0,0,0,0,0,0,0,0,0,0,0,0,0,0,0,0,0,0,0,0,0,0,0,0,0,0,0,0,0,0,0,0,0,0,0,0,0,0,0,0,0,0,0,0,0,0,0,0,0,0,0,0,0,0,0,0,0,0,0,0,0,0,0,0,0,0,0,0,0,0,0,0,0,0,0,0,0,0,0,0,0,0,0,0,0,0,0,0,0,0,0,0,0,0,0,0,0,0,0,0,0,0,0,0,0,0,0,0,0,0,0,0,0,0,0,0,0,0,0,0,0,0,0,0,0,0,0,0,0,0,0,0,0,0,0,0,0,0,0,0,0,0,0,0,0,0,0,0,0,0,0,0,0,0,0,0,0,0,0,0,0,0,0,0,0,0,0,0,0,0,0,0,0,0,0,0,0,0,0,0,0,0,0,0,0,0,0,0,0,0,0,0,0,0,0,0,0,0,0,0,0,0,0,0,0,0,0,0,0,0,0,0,0,0,0,0,0,0,0,0,0,0,0,0,0,0,0,0,0,0,0,0,0,0,0,0,0,0,0,0,0,0,0,0,0,0,0,0,0,0,0,0,0,0,0,0,0,0,0,0,0,0,0,0,0,0,0,0,0,0,0,0,0,0,0,0,0,0,0,0,0,0,0,0,0,0,0,0,0,0,0,0,0,0,0,0,0,0,0,0,0,0,0,0,0,0,0,0,0,0,0,0,0,0,0,0,0,0,0,0,0,0,0,0,0,0,0,0,0,0,0,0,0,0,0,0,0,0,0,0,0,0,0,0,0,0,0,0,0,0,0,0,0,0,0,0,0,0,0,0,0,0,0,0,0,0,0,0,0,0,0,0,0,0,0,0,0,0,0,0,0,0,0,0,0,0,0,0,0,0,0,0,0,0,0,0,0,0,0,0,0,0,0,0,0,0,0,0,0,0,0,0,0,0,0,0,0,0,0,0,0,0,0,0,0,0,0,0,0,0,0,0,0,0,0,0,0,0,0,0,0,0,0,0,0,0,0,0,0,0,0,0,0,0,0,0,0,0,0,0,0,0,0,0,0,0,0,0,0,0,0,0,0,0,0,0,0,0,0,0,0,0,0,0,0,0,0,0,0,0,0,0,0,0,0,0,0,0,0,0,0,0,0,0,0,0,0,0,0,0,0,0,0,0,0,0,0,0,0,0,0,0,0,0,0,0,0,0,0,0,0,0,0,0,0,0,0,0,0,0,0,0,0,0,0,0,0,0,0,0,0,0,0,0,0,0,0,0,0,0,0,0,0,0,0,0,0,0,0,0,0,0,0,0,0,0,0,0,0,0,0,0,0,0,0,0,0,0,0,0,0,0,0,0,0,0,0,0,0,0,0,0,0,0,0,0,0,0,0,0,0,0,0,0,0,0,0,0,0,0,0,0,0,0,0,0,0,0,0,0,0,0,0,0,0,0,0,0,0,0,0,0,0,0,0,0,0,0,0,0,0,0,0,0,0,0,0,0,0,0,0,0,0,0,0,0,0,0,0,0,0,0,0,0,0,0,0,0,0,0,0,0,0,0,0,0,0,0,0,0,0,0,0,0,0,0,0,0,0,0,0,0,0,0,0,0,0,0,0,0,0,0,0,0,0,0,0,0,0,0,0,0,0,0,0,0,0,0,0,0,0,0,0,0,0,0,0,0,0,0,0,0,0,0,0,0,0,0,0,0,0,0,0,0,0,0,0,0,0,0,0,0,0,0,0,0,0,0,0,0,0,0,0,0,0,0,0,0,0,0,0,0,0,0,0,0,0,0,0,0,0,0,0,0,0,0,0,0,0,0,0,0,0,0,0,0,0,0,0,0,0,0,0,0,0,0,0,0,0,0,0,0,0,0,0,0,0,0,0,0,0,0,0,0,0,0,0,0,0,0,0,0,0,0,0,0,0,0,0,0,0,0,0,0,0,0,0,0,0,0,0,0,0,0,0,0,0,0,0,0,0,0,0,0,0,0,0,0,0,0,0,0,0,0,0,0,0,0,0,0,0,0,0,0,0,0,0,0,0,0,0,0,0,0,0,0,0,0,0,0,0,0,0,0,0,0,0,0,0,0,0,0,0,0,0,0,0,0,0,0,0,0,0,0,0,0,0,0,0,0,0,0,0,0,0,0,0,0,0,0,0,0,0,0,0,0,0,0,0,0,0,0,0,0,0,0,0,0,0,0,0,0,0,0,0,0,0,0,0,0,0,0,0,0,0,0,0,0,0,0,0,0,0,0,0,0,0,0,0,0,0,0,0,0,0,0,0,0,0,0,0,0,0,0,0,0,0,0,0,0,0,0,0,0,0,0,0,0,0,0,0,0,0,0,0,0,0,0,0,0,0,0,0,0,0,0,0,0,0,0,0,0,0,0,0,0,0,0,0,0,0,0,0,0,0,0,0,0,0,0,0,0,0,0,0,0,0,0,0,0,0,0,0,0,0,0,0,0,0,0,0,0,0,0,0,0,0,0,0,0,0,0,0,0,0,0,0,0,0,0,0,0,0,0,0,0,0,0,0,0,0,0,0,0,0,0,0,0,0,0,0,0,0,0,0,0,0,0,0,0,0,0,0,0,0,0,0,0,0,0,0,0,0,0,0,0,0,0,0,0,0,0,0,0,0,0,0,0,0,0,0,0,0,0,0,0,0,0,0,0,0,0,0,0,0,0,0,0,0,0,0,0,0,0,0,0,0,0,0,0,0,0,0,0,0,0,0,0,0,0,0,0,0,0,0,0,0,0,0,0,0,0,0,0,0,0,0,0,0,0,0,0,0,0,0,0,0,0,0,0,0,0,0,0,0,0,0,0,0,0,0,0,0,0,0,0,0,0,0,0,0,0,0,0,0,0,0,0,0,0,0,0,0,0,0,0,0,0,0,0,0,0,0,0,0,0,0,0,0,0,0,0,0,0,0,0,0,0,0,0,0,0,0,0,0,0,0,0,0,0,0,0,0,0,0,0,0,0,0,0,0,0,0,0,0,0,0,0,0,0,0,0,0,0,0,0,0,0,0,0,0,0,0,0,0,0,0,0,0,0,0,0,0,0,0,0,0,0,0,0,0,0,0,0,0,0,0,0,0,0,0,0,0,0,0,0,0,0,0,0,0,0,0,0,0,0,0,0,0,0,0,0,0,0,0,0,0,0,0,0,0,0,0,0,0,0,0,0,0,0,0,0,0,0,0,0,0,0,0,0,0,0,0,0,0,0,0,0,0,0,0,0,0,0,0,0,0,0,0,0,0,0,0,0,0,0,0,0,0,0,0,0,0,0,0,0,0,0,0,0,0,0,0,0,0,0,0,0,0,0,0,0,0,0,0,0,0,0,0,0,0,0,0,0,0,0,0,0,0,0,0,0,0,0,0,0,0,0,0,0,0,0,0,0,0,0,0,0,0,0,0,0,0,0,0,0,0,0,0,0,0,0,0,0,0,0,0,0,0,0,0,0,0,0,0,0,0,0,0,0,0,0,0,0,0,0,0,0,0,0,0,0,0,0,0,0,0,0,0,0,0,0,0,0,0,0,0,0,0,0,0,0,0,0,0,0,0,0,0,0,0,0,0,0,0,0,0,0,0,0,0,0,0,0,0,0,0,0,0,0,0,0,0,0,0,0,0,0,0,0,0,0,0,0,0,0,0,0,0,0,0,0,0,0,0,0,0,0,0,0,0,0,0,0,0,0,0,0,0,0,0,0,0,0,0,0,0,0,0,0,0,0,0,0,0,0,0,0,0,0,0,0,0,0,0,0,0,0,0,0,0,0,0,0,0,0,0,0,0,0,0,0,0,0,0,0,0,0,0,0,0,0,0,0,0,0,0,0,0,0,0,0,0,0,0,0,0,0,0,0,0,0,0,0,0,0,0,0,0,0,0,0,0,0,0,0,0,0,0,0,0,0,0,0,0,0,0,0,0,0,0,0,0,0,0,0,0,0,0,0,0,0,0,0,0,0,0,0,0,0,0,0,0,0,0,0,0,0,0,0,0,0,0,0,0,0,0,0,0,0,0,0,0,0,0,0,0,0,0,0,0,0,0,0,0,0,0,0,0,0,0,0,0,0,0,0,0,0,0,0,0,0,0,0,0,0,0,0,0,0,0,0,0,0,0,0,0,0,0,0,0,0,0,0,0,0,0,0,0,0,0,0,0,0,0,0,0,0,0,0,0,0,0,0,0,0,0,0,0,0,0,0,0,0,0,0,0,0,0,0,0,0,0,0,0,0,0,0,0,0,0,0,0,0,0,0,0,0,0,0,0,0,0,0,0,0,0,0,0,0,0,0,0,0,0,0,0,0,0,0,0,0,0,0,0,0,0,0,0,0,0,0,0,0,0,0,0,0,0,0,0,0,0,0,0,0,0,0,0,0,0,0,0,0,0,0,0,0,0,0,0,0,0,0,0,0,0,0,0,0,0,0,0,0,0,0,0,0,0,0,0,0,0,0,0,0,0,0,0,0,0,0,0,0,0,0,0,0,0,0,0,0,0,0,0,0,0,0,0,0,0,0,0,0,0,0,0,0,0,0,0,0,0,0,0,0,0,0,0,0,0,0,0,0,0,0,0,0,0,0,0,0,0,0,0,0,0,0,0,0,0,0,0,0,0,0,0,0,0,0,0,0,0,0,0,0,0,0,0,0,0,0,0,0,0,0,0,0,0,0,0,0,0,0,0,0,0,0,0,0,0,0,0,0,0,0,0,0,0,0,0,0,0,0,0,0,0,0,0,0,0,0,0,0,0,0,0,0,0,0,0,0,0,0,0,0,0,0,0,0,0,0,0,0,0,0,0,0,0,0,0,0,0,0,0,0,0,0,0,0,0,0,0,0,0,0,0,0,0,0,0,0,0,0,0,0,0,0,0,0,0,0,0,0,0,0,0,0,0,0,0,0,0,0,0,0,0,0,0,0,0,0,0,0,0,0,0,0,0,0,0,0,0,0,0,0,0,0,0,0,0,0,0,0,0,0,0,0,0,0,0,0,0,0,0,0,0,0,0,0,0,0,0,0,0,0,0,0,0,0,0,0,0,0,0,0,0,0,0,0,0,0,0,0,0,0,0,0,0,0,0,0,0,0,0,0,0,0,0,0,0,0,0,0,0,0,0,0,0,0,0,0,0,0,0,0,0,0,0,0,0,0,0,0,0,0,0,0,0,0,0,0,0,0,0,0,0,0,0,0,0,0,0,0,0,0,0,0,0,0,0,0,0,0,0,0,0,0,0,0,0,0,0,0,0,0,0,0,0,0,0,0,0,0,0,0,0,0,0,0,0,0,0,0,0,0,0,0,0,0,0,0,0,0,0,0,0,0,0,0,0,0,0,0,0,0,0,0,0,0,0,0,0,0,0,0,0,0,0,0,0,0,0,0,0,0,0,0,0,0,0,0,0,0,0,0,0,0,0,0,0,0,0,0,0,0,0,0,0,0,0,0,0,0,0,0,0,0,0,0,0,0,0,0,0,0,0,0,0,0,0,0,0,0,0,0,0,0,0,0,0,0,0,0,0,0,0,0,0,0,0,0,0,0,0,0,0,0,0,0,0,0,0,0,0,0,0,0,0,0,0,0,0,0,0,0,0,0,0,0,0,0,0,0,0,0,0,0,0,0,0,0,0,0,0,0,0,0,0,0,0,0,0,0,0,0,0,0,0,0,0,0,0,0,0,0,0,0,0,0,0,0,0,0,0,0,0,0,0,0,0,0,0,0,0,0,0,0,0,0,0,0,0,0,0,0,0,0,0,0,0,0,0,0,0,0,0,0,0,0,0,0,0,0,0,0,0,0,0,0,0,0,0,0,0,0,0,0,0,0,0,0,0,0,0,0,0,0,0,0,0,0,0,0,0,0,0,0,0,0,0,0,0,0,0,0,0,0,0,0,0,0,0,0,0,0,0,0,0,0,0,0,0,0,0,0,0,0,0,0,0,0,0,0,0,0,0,0,0,0,0,0,0,0,0,0,0,0,0,0,0,0,0,0,0,0,0,0,0,0,0,0,0,0,0,0,0,0,0,0,0,0,0,0,0,0,0,0,0,0,0,0,0,0,0,0,0,0,0,0,0,0,0,0,0,0,0,0,0,0,0,0,0,0,0,0,0,0,0,0,0,0,0,0,0,0,0,0,0,0,0,0,0,0,0,0,0,0,0,0,0,0,0,0,0,0,0,0,0,0,0,0,0,0,0,0,0,0,0,0,0,0,0,0,0,0,0,0,0,0,0,0,0,0,0,0,0,0,0,0,0,0,0,0,0,0,0,0,0,0,0,0,0,0,0,0,0,0,0,0,0,0,0,0,0,0,0,0,0,0,0,0,0,0,0,0,0,0,0,0,0,0,0,0,0,0,0,0,0,0,0,0,0,0,0,0,0,0,0,0,0,0,0,0,0,0,0,0,0,0,0,0,0,0,0,0,0,0,0,0,0,0,0,0,0,0,0,0,0,0,0,0,0,0,0,0,0,0,0,0,0,0,0,0,0,0,0,0,0,0,0,0,0,0,0,0,0,0,0,0,0,0,0,0,0,0,0,0,0,0,0,0,0,0,0,0,0,0,0,0,0,0,0,0,0,0,0,0,0,0,0,0,0,0,0,0,0,0,0,0,0,0,0,0,0,0,0,0,0,0,0,0,0,0,0,0,0,0,0,0,0,0,0,0,0,0,0,0,0,0,0,0,0,0,0,0,0,0,0,0,0,0,0,0,0,0,0,0,0,0,0,0,0,0,0,0,0,0,0,0,0,0,0,0,0,0,0,0,0,0,0,0,0,0,0,0,0,0,0,0,0,0,0,0,0,0,0,0,0,0,0,0,0,0,0,0,0,0,0,0,0,0,0,0,0,0,0,0,0,0,0,0,0,0,0,0,0,0,0,0,0,0,0,0,0,0,0,0,0,0,0,0,0,0,0,0,0,0,0,0,0,0,0,0,0,0,0,0,0,0,0,0,0,0,0,0,0,0,0,0,0,0,0,0,0,0,0,0,0,0,0,0,0,0,0,0,0,0,0,0,0,0,0,0,0,0,0,0,0,0,0,0,0,0,0,0,0,0,0,0,0,0,0,0,0,0,0,0,0,0,0,0,0,0,0,0,0,0,0,0,0,0,0,0,0,0,0,0,0,0,0,0,0,0,0,0,0,0,0,0,0,0,0,0,0,0,0,0,0,0,0,0,0,0,0,0,0,0,0,0,0,0,0,0,0,0,0,0,0,0,0,0,0,0,0,0,0,0,0,0,0,0,0,0,0,0,0,0,0,0,0,0,0,0,0,0,0,0,0,0,0,0,0,0,0,0,0,0,0,0,0,0,0,0,0,0,0,0,0,0,0,0,0,0,0,0,0,0,0,0,0,0,0,0,0,0,0,0,0,0,0,0,0,0,0,0,0,0,0,0,0,0,0,0,0,0,0,0,0,0,0,0,0,0,0,0,0,0,0,0,0,0,0,0,0,0,0,0,0,0,0,0,0,0,0,0,0,0,0,0,0,0,0,0,0,0,0,0,0,0,0,0,0,0,0,0,0,0,0,0,0,0,0,0,0,0,0,0,0,0,0,0,0,0,0,0,0,0,0,0,0,0,0,0,0,0,0,0,0,0,0,0,0,0,0,0,0,0,0,0,0,0,0,0,0,0,0,0,0,0,0,0,0,0,0,0,0,0,0,0,0,0,0,0,0,0,0,0,0,0,0,0,0,0,0,0,0,0,0,0,0,0,0,0,0,0,0,0,0,0,0,0,0,0,0,0,0,0,0,0,0,0,0,0,0,0,0,0,0,0,0,0,0,0,0,0,0,0,0,0,0,0,0,0,0,0,0,0,0,0,0,0,0,0,0,0,0,0,0,0,0,0,0,0,0,0,0,0,0,0,0,0,0,0,0,0,0,0,0,0,0,0,0,0,0,0,0,0,0,0,0,0,0,0,0,0,0,0,0,0,0,0,0,0,0,0,0,0,0,0,0,0,0,0,0,0,0,0,0,0,0,0,0,0,0,0,0,0,0,0,0,0,0,0,0,0,0,0,0,0,0,0,0,0,0,0,0,0,0,0,0,0,0,0,0,0,0,0,0,0,0,0,0,0,0,0,0,0,0,0,0,0,0,0,0,0,0,0,0,0,0,0,0,0,0,0,0,0,0,0,0,0,0,0,0,0,0,0,0,0,0,0,0,0,0,0,0,0,0,0,0,0,0,0,0,0,0,0,0,0,0,0,0,0,0,0,0,0,0,0,0,0,0,0,0,0,0,0,0,0,0,0,0,0,0,0,0,0,0,0,0,0,0,0,0,0,0,0,0,0,0,0,0,0,0,0,0,0,0,0,0,0,0,0,0,0,0,0,0,0,0,0,0,0,0,0,0,0,0,0,0,0,0,0,0,0,0,0,0,0,0,0,0,0,0,0,0,0,0,0,0,0,0,0,0,0,0,0,0,0,0,0,0,0,0,0,0,0,0,0,0,0,0,0,0,0,0,0,0,0,0,0,0,0,0,0,0,0,0,0,0,0,0,0,0,0,0,0,0,0,0,0,0,0,0,0,0,0,0,0,0,0,0,0,0,0,0,0,0,0,0,0,0,0,0,0,0,0,0,0,0,0,0,0,0,0,0,0,0,0,0,0,0,0,0,0,0,0,0,0,0,0,0,0,0,0,0,0,0,0,0,0,0,0,0,0,0,0,0,0,0,0,0,0,0,0,0,0,0,0,0,0,0,0,0,0,0,0,0,0,0,0,0,0,0,0,0,0,0,0,0,0,0,0,0,0,0,0,0,0,0,0,0,0,0,0,0,0,0,0,0,0,0,0,0,0,0,0,0,0,0,0,0,0,0,0,0,0,0,0,0,0,0,0,0,0,0,0,0,0,0,0,0,0,0,0,0,0,0,0,0,0,0,0,0,0,0,0,0,0,0,0,0,0,0,0,0,0,0,0,0,0,0,0,0,0,0,0,0,0,0,0,0,0,0,0,0,0,0,0,0,0,0,0,0,0,0,0,0,0,0,0,0,0,0,0,0,0,0,0,0,0,0,0,0,0,0,0,0,0,0,0,0,0,0,0,0,0,0,0,0,0,0,0,0,0,0,0,0,0,0,0,0,0,0,0,0,0,0,0,0,0,0,0,0,0,0,0,0,0,0,0,0,0,0,0,0,0,0,0,0,0,0,0,0,0,0,0,0,0,0,0,0,0,0,0,0,0,0,0,0,0,0,0,0,0,0,0,0,0,0,0,0,0,0,0,0,0,0,0,0,0,0,0,0,0,0,0,0,0,0,0,0,0,0,0,0,0,0,0,0,0,0,0,0,0,0,0,0,0,0,0,0,0,0,0,0,0,0,0,0,0,0,0,0,0,0,0,0,0,0,0,0,0,0,0,0,0,0,0,0,0,0,0,0,0,0,0,0,0,0,0,0,0,0,0,0,0,0,0,0,0,0,0,0,0,0,0,0,0,0,0,0,0,0,0,0,0,0,0,0,0,0,0,0,0,0,0,0,0,0,0,0,0,0,0,0,0,0,0,0,0,0,0,0,0,0,0,0,0,0,0,0,0,0,0,0,0,0,0,0,0,0,0,0,0,0,0,0,0,0,0,0,0,0,0,0,0,0,0,0,0,0,0,0,0,0,0,0,0,0,0,0,0,0,0,0,0,0,0,0,0,0,0,0,0,0,0,0,0,0,0,0,0,0,0,0,0,0,0,0,0,0,0,0,0,0,0,0,0,0,0,0,0,0,0,0,0,0,0,0,0,0,0,0,0,0,0,0,0,0,0,0,0,0,0,0,0,0,0,0,0,0,0,0,0,0,0,0,0,0,0,0,0,0,0,0,0,0,0,0,0,0,0,0,0,0,0,0,0,0,0,0,0,0,0,0,0,0,0,0,0,0,0,0,0,0,0,0,0,0,0,0,0,0,0,0,0,0,0,0,0,0,0,0,0,0,0,0,0,0,0,0,0,0,0,0,0,0,0,0,0,0,0,0,0,0,0,0,0,0,0,0,0,0,0,0,0,0,0,0,0,0,0,0,0,0,0,0,0,0,0,0,0,0,0,0,0,0,0,0,0,0,0,0,0,0,0,0,0,0,0,0,0,0,0,0,0,0,0,0,0,0,0,0,0,0,0,0,0,0,0,0,0,0,0,0,0,0,0,0,0,0,0,0,0,0,0,0,0,0,0,0,0,0,0,0,0,0,0,0,0,0,0,0,0,0,0,0,0,0,0,0,0,0,0,0,0,0,0,0,0,0,0,0,0,0,0,0,0,0,0,0,0,0,0,0,0,0,0,0,0,0,0,0,0,0,0,0,0,0,0,0,0,0,0,0,0,0,0,0,0,0,0,0,0,0,0,0,0,0,0,0,0,0,0,0,0,0,0,0,0,0,0,0,0,0,0,0,0,0,0,0,0,0,0,0,0,0,0,0,0,0,0,0,0,0,0,0,0,0,0,0,0,0,0,0,0,0,0,0,0,0,0,0,0,0,0,0,0,0,0,0,0,0,0,0,0,0,0,0,0,0,0,0,0,0,0,0,0,0,0,0,0,0,0,0,0,0,0,0,0,0,0,0,0,0,0,0,0,0,0,0,0,0,0,0,0,0,0,0,0,0,0,0,0,0,0,0,0,0,0,0,0,0,0,0,0,0,0,0,0,0,0,0,0,0,0,0,0,0,0,0,0,0,0,0,0,0,0,0,0,0,0,0,0,0,0,0,0,0,0,0,0,0,0,0,0,0,0,0,0,0,0,0,0,0,0,0,0,0,0,0,0,0,0,0,0,0,0,0,0,0,0,0,0,0,0,0,0,0,0,0,0,0,0,0,0,0,0,0,0,0,0,0,0,0,0,0,0,0,0,0,0,0,0,0,0,0,0,0,0,0,0,0,0,0,0,0,0,0,0,0,0,0,0,0,0,0,0,0,0,0,0,0,0,0,0,0,0,0,0,0,0,0,0,0,0,0,0,0,0,0,0,0,0,0,0,0,0,0,0,0,0,0,0,0,0,0,0,0,0,0,0,0,0,0,0,0,0,0,0,0,0,0,0,0,0,0,0,0,0,0,0,0,0,0,0,0,0,0,0,0,0,0,0,0,0,0,0,0,0,0,0,0,0,0,0,0,0,0,0,0,0,0,0,0,0,0,0,0,0,0,0,0,0,0,0,0,0,0,0,0,0,0,0,0,0,0,0,0,0,0,0,0,0,0,0,0,0,0,0,0,0,0,0,0,0,0,0,0,0,0,0,0,0,0,0,0,0,0,0,0,0,0,0,0,0,0,0,0,0,0,0,0,0,0,0,0,0,0,0,0,0,0,0,0,0,0,0,0,0,0,0,0,0,0,0,0,0,0,0,0,0,0,0,0,0,0,0,0,0,0,0,0,0,0,0,0,0,0,0,0,0,0,0,0,0,0,0,0,0,0,0,0,0,0,0,0,0,0,0,0,0,0,0,0,0,0,0,0,0,0,0,0,0,0,0,0,0,0,0,0,0,0,0,0,0,0,0,0,0,0,0,0,0,0,0,0,0,0,0,0,0,0,0,0,0,0,0,0,0,0,0,0,0,0,0,0,0,0,0,0,0,0,0,0,0,0,0,0,0,0,0,0,0,0,0,0,0,0,0,0,0,0,0,0,0,0,0,0,0,0,0,0,0,0,0,0,0,0,0,0,0,0,0,0,0,0,0,0,0,0,0,0,0,0,0,0,0,0,0,0,0,0,0,0,0,0,0,0,0,0,0,0,0,0,0,0,0,0,0,0,0,0,0,0,0,0,0,0,0,0,0,0,0,0,0,0,0,0,0,0,0,0,0,0,0,0,0,0,0,0,0,0,0,0,0,0,0,0,0,0,0,0,0,0,0,0,0,0,0,0,0,0,0,0,0,0,0,0,0,0,0,0,0,0,0,0,0,0,0,0,0,0,0,0,0,0,0,0,0,0,0,0,0,0,0,0,0,0,0,0,0,0,0,0,0,0,0,0,0,0,0,0,0,0,0,0,0,0,0,0,0,0,0,0,0,0,0,0,0,0,0,0,0,0,0,0,0,0,0,0,0,0,0,0,0,0,0,0,0,0,0,0,0,0,0,0,0,0,0,0,0,0,0,0,0,0,0,0,0,0,0,0,0,0,0,0,0,0,0,0,0,0,0,0,0,0,0,0,0,0,0,0,0,0,0,0,0,0,0,0,0,0,0,0,0,0,0,0,0,0,0,0,0,0,0,0,0,0,0,0,0,0,0,0,0,0,0,0,0,0,0,0,0,0,0,0,0,0,0,0,0,0,0,0,0,0,0,0,0,0,0,0,0,0,0,0,0,0,0,0,0,0,0,0,0,0,0,0,0,0,0,0,0,0,0,0,0,0,0,0,0,0,0,0,0,0,0,0,0,0,0,0,0,0,0,0,0,0,0,0,0]},{"id":15,"name":"shu","type":"tilelayer","x":0,"y":0,"opacity":1,"visible":true,"width":144,"height":96,"data":[0,0,0,0,0,0,0,0,0,0,0,0,0,0,0,0,0,0,0,0,0,0,0,0,0,0,0,0,0,0,0,0,0,0,0,0,0,0,0,0,0,0,0,0,0,0,0,0,0,0,0,0,0,0,0,0,0,0,0,0,0,0,0,0,0,0,0,0,0,0,0,0,0,0,0,0,0,0,0,0,0,0,0,0,0,0,0,0,0,0,0,0,0,0,0,0,0,0,0,0,0,0,0,0,0,0,0,0,0,0,0,0,0,0,0,0,0,0,0,0,0,0,0,0,0,0,0,0,0,0,0,0,0,0,0,0,0,0,0,0,0,0,0,0,0,0,0,0,0,0,0,0,0,0,0,0,0,0,0,0,0,0,0,0,0,0,0,0,0,0,0,0,0,0,0,0,0,0,0,0,0,0,0,0,0,0,0,0,0,0,0,0,0,0,0,0,0,0,0,0,0,0,0,0,0,0,0,0,0,0,0,0,0,0,0,0,0,0,0,0,0,0,0,0,0,0,0,0,0,0,0,0,0,0,0,0,0,0,0,0,0,0,0,0,0,0,0,0,0,0,0,0,0,0,0,0,0,0,0,0,0,0,0,0,0,0,0,0,0,0,0,0,0,0,0,0,0,0,0,0,0,0,0,0,0,0,0,0,0,0,0,0,0,0,0,0,0,0,0,0,0,0,0,0,0,0,0,0,0,0,0,0,0,0,0,0,0,0,0,0,0,0,0,0,0,0,0,0,0,0,0,0,0,0,0,0,0,0,0,0,0,0,0,0,0,0,0,0,0,0,0,0,0,0,0,0,0,0,0,0,0,0,0,0,0,0,0,0,0,0,0,0,0,0,0,0,0,0,0,0,0,0,0,0,0,0,0,0,0,0,0,0,0,0,0,0,0,0,0,0,0,0,0,0,0,0,0,0,0,0,0,0,0,0,0,0,0,0,0,0,0,0,0,0,0,0,0,0,0,0,0,0,0,0,0,0,0,0,0,0,0,0,0,0,0,0,0,0,0,0,0,0,0,0,0,0,0,0,0,0,0,0,0,0,0,0,0,0,0,0,0,0,0,0,0,0,0,0,0,0,0,0,0,0,0,0,0,0,0,0,0,0,0,0,0,0,0,0,0,0,0,0,0,0,0,0,0,0,0,0,0,0,0,0,0,0,0,0,0,0,0,0,0,0,0,0,0,0,0,0,0,0,0,0,0,0,0,0,0,0,0,0,0,0,0,0,0,0,0,0,0,0,0,0,0,0,0,0,0,0,0,0,0,0,0,0,0,0,0,0,0,0,0,0,0,0,0,0,0,0,0,0,0,0,0,0,0,0,0,0,0,0,0,0,0,0,0,0,0,0,0,0,0,0,0,0,0,0,0,0,0,0,0,0,0,0,0,0,0,0,0,0,0,0,0,0,0,0,0,0,0,0,0,0,0,0,0,0,0,0,0,0,0,0,0,0,0,0,0,0,0,0,0,0,0,0,0,0,0,0,0,0,0,0,0,0,0,0,0,0,0,0,0,0,0,0,0,0,0,0,0,0,0,0,0,0,0,0,0,0,0,0,0,0,0,0,0,0,0,0,0,0,0,0,0,0,0,0,0,0,0,0,0,0,0,0,0,0,0,0,0,0,0,0,0,0,0,0,0,0,0,0,0,0,0,0,0,0,0,0,0,0,0,0,0,0,0,0,0,0,0,0,0,0,0,0,0,0,0,0,0,0,0,0,0,0,0,0,0,0,0,0,0,0,0,0,0,0,0,0,0,0,0,0,0,0,0,0,0,0,0,0,0,0,0,0,0,0,0,0,0,0,0,0,0,0,0,0,0,0,0,0,0,0,0,0,0,0,0,0,0,0,0,0,0,0,0,0,0,0,0,0,0,0,0,0,0,0,0,0,0,0,0,0,0,0,0,0,0,0,0,0,0,0,0,0,0,0,0,0,0,0,0,0,0,0,0,0,0,0,0,0,0,0,0,0,0,0,0,0,0,0,0,0,0,0,0,0,0,0,0,0,0,0,0,0,0,0,0,0,0,0,0,0,0,0,0,0,0,0,0,0,0,0,0,0,0,0,0,0,0,0,0,0,0,0,0,0,0,0,0,0,0,0,0,0,0,0,0,0,0,0,0,0,0,0,0,0,0,0,0,0,0,0,0,0,0,0,0,0,0,0,0,0,0,0,0,0,0,0,0,0,0,0,0,0,0,0,0,0,0,0,0,0,0,0,0,0,0,0,0,0,0,0,0,0,0,0,0,0,0,0,0,0,0,0,0,0,0,0,0,0,0,0,0,0,0,0,0,0,0,0,0,0,0,0,0,0,0,0,0,0,0,0,0,0,0,0,0,0,0,0,0,0,0,0,0,0,0,0,0,0,0,0,0,0,0,0,0,0,0,0,0,0,0,0,0,0,0,0,0,0,0,0,0,0,0,0,0,0,0,0,0,0,0,0,0,0,0,0,0,0,0,0,0,0,0,0,0,0,0,0,0,0,0,0,0,0,0,0,0,0,0,0,0,0,0,0,0,0,0,0,0,0,0,0,0,0,0,0,0,0,0,0,0,0,0,0,0,0,0,0,0,0,0,0,0,0,0,0,0,0,0,0,0,0,0,0,0,0,0,0,0,0,0,0,0,0,0,0,0,0,0,0,0,0,0,0,0,0,0,0,0,0,0,0,0,0,0,0,0,0,0,0,0,0,0,0,0,0,0,0,0,0,0,0,0,0,0,0,0,0,0,0,0,0,0,0,0,0,0,0,0,0,0,0,0,0,0,0,0,0,0,0,0,0,0,0,0,0,0,0,0,0,0,0,0,0,0,0,0,0,0,0,0,0,0,0,0,0,0,0,0,0,0,0,0,0,0,0,0,0,0,0,0,0,0,0,0,0,0,0,0,0,0,0,0,0,0,0,0,0,0,0,0,0,0,0,0,0,0,0,0,0,0,0,0,0,0,0,0,0,0,0,0,0,0,0,0,0,0,0,0,0,0,0,0,0,0,0,0,0,0,0,0,0,0,0,0,0,0,0,0,0,0,0,0,0,0,0,0,0,0,0,0,0,0,0,0,0,0,0,0,0,0,0,0,0,0,0,0,0,0,0,0,0,0,0,0,0,0,0,0,0,0,0,0,0,0,0,0,0,0,0,0,0,0,0,0,0,0,0,0,0,0,0,0,0,0,0,0,0,0,0,0,0,0,0,0,0,0,0,0,0,0,0,0,0,0,0,0,0,0,0,0,0,0,0,0,0,0,0,0,0,0,0,0,0,0,0,0,0,0,0,0,0,0,0,0,0,0,0,0,0,0,0,0,0,0,0,0,0,0,0,0,0,0,0,0,0,0,0,0,0,0,0,0,0,0,0,0,0,0,0,0,0,0,0,0,0,0,0,0,0,0,0,0,0,0,0,0,0,0,0,0,0,0,0,0,0,0,0,0,0,0,0,0,0,0,0,0,0,0,0,0,0,0,0,0,0,0,0,0,0,0,0,0,0,0,0,0,0,0,0,0,0,0,0,0,0,0,0,0,0,0,0,0,0,0,0,0,0,0,0,0,0,0,0,0,0,0,0,0,0,0,0,0,0,0,0,0,0,0,0,0,0,0,0,0,0,0,0,0,0,0,0,0,0,0,0,0,0,0,0,0,0,0,0,0,0,0,0,0,0,0,0,0,0,0,0,0,0,0,0,0,0,0,0,0,0,0,0,0,0,0,0,0,0,0,0,0,0,0,0,0,0,0,0,0,0,0,0,0,0,0,0,0,0,0,0,0,0,0,0,0,0,0,0,0,0,0,0,0,0,0,0,0,0,0,0,0,0,0,0,0,0,0,0,0,0,0,0,0,0,0,0,0,0,0,0,0,0,0,0,0,0,0,0,0,0,0,0,0,0,0,0,0,0,0,0,0,0,0,0,0,0,0,0,0,0,0,0,0,0,0,0,0,0,0,0,0,0,0,0,0,0,0,0,0,0,0,0,0,0,0,0,0,0,0,0,0,0,0,0,0,0,0,0,0,0,0,0,0,0,0,0,0,0,0,0,0,0,0,0,0,0,0,0,0,0,0,0,0,0,0,0,0,0,0,0,0,0,0,0,0,0,0,0,0,0,0,0,0,0,0,0,0,0,0,0,0,0,0,0,0,0,0,0,0,0,0,0,0,0,0,0,0,0,0,0,0,0,0,0,0,0,0,0,0,0,0,0,0,0,0,0,0,0,0,0,0,0,0,0,0,0,0,0,0,0,0,0,0,0,0,0,0,0,0,0,0,0,0,0,0,0,0,0,0,0,0,0,0,0,0,0,0,0,0,0,0,0,0,0,0,0,0,0,0,0,0,0,0,0,0,0,0,0,0,0,0,0,0,0,0,0,0,0,0,0,0,0,0,0,0,0,0,0,0,0,0,0,0,0,0,0,0,0,0,0,0,0,0,0,0,0,0,0,0,0,0,0,0,0,0,0,0,0,0,0,0,0,0,0,0,0,0,0,0,0,0,0,0,0,0,0,0,0,0,0,0,0,0,0,0,0,0,0,0,0,0,0,0,0,0,0,0,0,0,0,0,0,0,0,0,0,0,0,0,0,0,0,0,0,0,0,0,0,0,0,0,0,0,0,0,0,0,0,0,0,0,0,0,0,0,0,0,0,0,0,0,0,0,0,0,0,0,0,0,0,0,0,0,0,0,0,0,0,0,0,0,0,0,0,0,0,0,0,0,0,0,0,0,0,0,0,0,0,0,0,0,0,0,0,0,0,0,0,0,0,0,0,0,0,0,0,0,0,0,0,0,0,0,0,0,0,0,0,0,0,0,0,0,0,0,0,0,0,0,0,0,0,0,0,0,0,0,0,0,0,0,0,0,0,0,0,0,0,0,0,0,0,0,0,0,0,0,0,0,0,0,0,0,0,0,0,0,0,0,0,0,0,0,0,0,0,0,0,0,0,0,0,0,0,0,0,0,0,0,0,0,0,0,0,0,0,0,0,0,0,0,0,0,0,0,0,0,0,0,0,0,0,0,0,0,0,0,0,0,0,0,0,0,0,0,0,0,0,0,0,0,0,0,0,0,0,0,0,0,0,0,0,0,0,0,0,0,0,0,0,0,0,0,0,0,0,0,0,0,0,0,0,0,0,0,0,0,0,0,0,0,0,0,0,0,0,0,0,0,0,0,0,0,0,0,0,0,0,0,0,0,0,0,0,0,0,0,0,0,0,0,0,0,0,0,0,0,0,0,0,0,0,0,0,0,0,0,0,0,0,0,0,0,0,0,0,0,0,0,0,0,0,0,0,0,0,0,0,0,0,0,0,0,0,0,0,0,0,0,0,0,0,0,0,0,0,0,0,0,0,0,0,0,0,0,0,0,0,0,0,0,0,0,0,0,0,0,0,0,0,0,0,0,0,0,0,0,0,0,0,0,0,0,0,0,0,0,0,0,0,0,0,0,0,0,0,0,0,0,0,0,0,0,0,0,0,0,0,0,0,0,0,0,0,0,0,0,0,0,0,0,0,0,0,0,0,0,0,0,0,0,0,0,0,0,0,0,0,0,0,0,0,0,0,0,0,0,0,0,0,0,0,0,0,0,0,0,0,0,0,0,0,0,0,0,0,0,0,0,0,0,0,0,0,0,0,0,0,0,0,0,0,0,0,0,0,0,0,0,0,0,0,0,0,0,0,0,0,0,0,0,0,0,0,0,0,0,0,0,0,0,0,0,0,0,0,0,0,0,0,0,0,0,0,0,0,0,0,0,0,0,0,0,0,0,0,0,0,0,0,0,0,0,0,0,0,0,0,0,0,0,0,0,0,0,0,0,0,0,0,0,0,0,0,0,0,0,0,0,0,0,0,0,0,0,0,0,0,0,0,0,0,0,0,0,0,0,0,0,0,0,0,0,0,0,0,0,0,0,0,0,0,0,0,0,0,0,0,0,0,0,0,0,0,0,0,0,0,0,0,0,0,0,0,0,0,0,0,0,0,0,0,0,0,0,0,0,0,0,0,0,0,0,0,0,0,0,0,0,0,0,0,0,0,0,0,0,0,0,0,0,0,0,0,0,0,0,0,0,0,0,0,0,0,0,0,0,0,0,0,0,0,0,0,0,0,0,0,0,0,0,0,0,0,0,0,0,0,0,0,0,0,0,0,0,0,0,0,0,0,0,0,0,0,0,0,0,0,0,0,0,0,0,0,0,0,0,0,0,0,0,0,0,0,0,0,0,0,0,0,0,0,0,0,0,0,0,0,0,0,0,0,0,0,0,0,0,0,0,0,0,0,0,0,0,0,0,0,0,0,0,0,0,0,0,0,0,0,0,0,0,0,0,0,0,0,0,0,0,0,0,0,0,0,0,0,0,0,0,0,0,0,0,0,0,0,0,0,0,0,0,0,0,0,0,0,0,0,0,0,0,0,0,0,0,0,0,0,0,0,0,0,0,0,0,0,0,0,0,0,0,0,0,0,0,0,0,0,0,0,0,0,0,0,0,0,0,0,0,0,0,0,0,0,0,0,0,0,0,0,0,0,0,0,0,0,0,0,0,0,0,0,0,0,0,0,0,0,0,0,0,0,0,0,0,0,0,0,0,0,0,0,0,0,0,0,0,0,0,0,0,0,0,0,0,0,0,0,0,0,0,0,0,0,0,0,0,0,0,0,0,0,0,0,0,0,0,0,0,0,0,0,0,0,0,0,0,0,0,0,0,0,0,0,0,0,0,0,0,0,0,0,0,0,0,0,0,0,0,0,0,0,0,0,0,0,0,0,0,0,0,0,0,0,0,0,0,0,0,0,0,0,0,0,0,0,0,0,0,0,0,0,0,0,0,0,0,0,0,0,0,0,0,0,0,0,0,0,0,0,0,0,0,0,0,0,0,0,0,0,0,0,0,0,0,0,0,0,0,0,0,0,0,0,0,0,0,0,0,0,0,0,0,0,0,0,0,0,0,0,0,0,0,0,0,0,0,0,0,0,0,0,0,0,0,0,0,0,0,0,0,0,0,0,0,0,0,0,0,0,0,0,0,0,0,0,0,0,0,0,0,0,0,0,0,0,0,0,0,0,0,0,0,0,0,0,0,0,0,0,0,0,0,0,0,0,0,0,0,0,0,0,0,0,0,0,0,0,0,0,0,0,0,0,0,0,0,0,0,0,0,0,0,0,0,0,0,0,0,0,0,0,0,0,0,0,0,0,0,0,0,0,0,0,0,0,0,0,0,0,0,0,0,0,0,0,0,0,0,0,0,0,0,0,0,0,0,0,0,0,0,0,0,0,0,0,0,0,0,0,0,0,0,0,0,0,0,0,0,0,0,0,0,0,0,0,0,0,0,0,0,0,0,0,0,0,0,0,0,0,0,0,0,0,0,0,0,0,0,0,0,0,0,0,0,0,0,0,0,0,0,0,0,0,0,0,0,0,0,0,0,0,0,0,0,0,0,0,0,0,0,0,0,0,0,0,0,0,0,0,0,0,0,0,0,0,0,0,0,0,0,0,0,0,0,0,0,0,0,0,0,0,0,0,0,0,0,0,0,0,0,0,0,0,0,0,0,0,0,0,0,0,0,0,0,0,0,0,0,0,0,0,0,0,0,0,0,0,0,0,0,0,0,0,0,0,0,0,0,0,0,0,0,0,0,0,0,0,0,0,0,0,0,0,0,0,0,0,0,0,0,0,0,0,0,0,0,0,0,0,0,0,0,0,0,0,0,0,0,0,0,0,0,0,0,0,0,0,0,0,0,0,0,0,0,0,0,0,0,0,0,0,0,0,0,0,0,0,0,0,0,0,0,0,0,0,0,0,0,0,0,0,0,0,0,0,0,0,0,0,0,0,0,0,0,0,0,0,0,0,0,0,0,0,0,0,0,0,0,0,0,0,0,0,0,0,0,0,0,0,0,0,0,0,0,0,0,0,0,0,0,0,0,0,0,0,0,0,0,0,0,0,0,0,0,0,0,0,0,0,0,0,0,0,0,0,0,0,0,0,0,0,0,0,0,0,0,0,0,0,0,0,0,0,0,0,0,0,0,0,0,0,0,0,0,0,0,0,0,0,0,0,0,0,0,0,0,0,0,0,0,0,0,0,0,0,0,0,0,0,0,0,0,0,0,0,0,0,0,0,0,0,0,0,0,0,0,0,0,0,0,0,0,0,0,0,0,0,0,0,0,0,0,0,0,0,0,0,0,0,0,0,0,0,0,0,0,0,0,0,0,0,0,0,0,0,0,0,0,0,0,0,0,0,0,0,0,0,0,0,0,0,0,0,0,0,0,0,0,0,0,0,0,0,0,0,0,0,0,0,0,0,0,0,0,0,0,0,0,0,0,0,0,0,0,0,0,0,0,0,0,0,0,0,0,0,0,0,0,0,0,0,0,0,0,0,0,0,0,0,0,0,0,0,0,0,0,0,0,0,0,0,0,0,0,0,0,0,0,0,0,0,0,0,0,0,0,0,0,0,0,0,0,0,0,0,0,0,0,0,0,0,0,0,0,0,0,0,0,0,0,0,0,0,0,0,0,0,0,0,0,0,0,0,0,0,0,0,0,0,0,0,0,0,0,0,0,0,0,0,0,0,0,0,0,0,0,0,0,0,0,0,0,0,0,0,0,0,0,0,0,0,0,0,0,0,0,0,0,0,0,0,0,0,0,0,0,0,0,0,0,0,0,0,0,0,0,0,0,0,0,0,0,0,0,0,0,0,0,0,0,0,0,0,0,0,0,0,0,0,0,0,0,0,0,0,0,0,0,0,0,0,0,0,0,0,0,0,0,0,0,0,0,0,0,0,0,0,0,0,0,0,0,0,0,0,0,0,0,0,0,0,0,0,0,0,0,0,0,0,0,0,0,0,0,0,0,0,0,0,0,0,0,0,0,0,0,0,0,0,0,0,0,0,0,0,0,0,0,0,0,0,0,0,0,0,0,0,0,0,0,0,0,0,0,0,0,0,0,0,0,0,0,0,0,0,0,0,0,0,0,0,0,0,0,0,0,0,0,0,0,0,0,0,0,0,0,0,0,0,0,0,0,0,0,0,0,0,0,0,0,0,0,0,0,0,0,0,0,0,0,0,0,0,0,0,0,0,0,0,0,0,0,0,0,0,0,0,0,0,0,0,0,0,0,0,0,0,0,0,0,0,0,0,0,0,0,0,0,0,0,0,0,0,0,0,0,0,0,0,0,0,0,0,0,0,0,0,0,0,0,0,0,0,0,0,0,0,0,0,0,0,0,0,0,0,0,0,0,0,0,0,0,0,0,0,0,0,0,0,0,0,0,0,0,0,0,0,0,0,0,0,0,0,0,0,0,0,0,0,0,0,0,0,0,0,0,0,0,0,0,0,0,0,0,0,0,0,0,0,0,0,0,0,0,0,0,0,0,0,0,0,0,0,0,0,0,0,0,0,0,0,0,0,0,0,0,0,0,0,0,0,0,0,0,0,0,0,0,0,0,0,0,0,0,0,0,0,0,0,0,0,0,0,0,0,0,0,0,0,0,0,0,0,0,0,0,0,0,0,0,0,0,0,0,0,0,0,0,0,0,0,0,0,0,0,0,0,0,0,0,0,0,0,0,0,0,0,0,0,0,0,0,0,0,0,0,0,0,0,0,0,0,0,0,0,0,0,0,0,0,0,0,0,0,0,0,0,0,0,0,0,0,0,0,0,0,0,0,0,0,0,0,0,0,0,0,0,0,0,0,0,0,0,0,0,0,0,0,0,0,0,0,0,0,0,0,0,0,0,0,0,0,0,0,0,0,0,0,0,0,0,0,0,0,0,0,0,0,0,0,0,0,0,0,0,0,0,0,0,0,0,0,0,0,0,0,0,0,0,0,0,0,0,0,0,0,0,0,0,0,0,0,0,0,0,0,0,0,0,0,0,0,0,0,0,0,0,0,0,0,0,0,0,0,0,0,0,0,0,0,0,0,0,0,0,0,0,0,0,0,0,0,0,0,0,0,0,0,0,0,0,0,0,0,0,0,0,0,0,0,0,0,0,0,0,0,0,0,0,0,0,0,0,0,0,0,0,0,0,0,0,0,0,0,0,0,0,0,0,0,0,0,0,0,0,0,0,0,0,0,0,0,0,0,0,0,0,0,0,0,0,0,0,0,0,0,0,0,0,0,0,0,0,0,0,0,0,0,0,0,0,0,0,0,0,0,0,0,0,0,0,0,0,0,0,0,0,0,0,0,0,0,0,0,0,0,0,0,0,0,0,0,0,0,0,0,0,0,0,0,0,0,0,0,0,0,0,0,0,0,0,0,0,0,0,0,0,0,0,0,0,0,0,0,0,0,0,0,0,0,0,0,0,0,0,0,0,0,0,0,0,0,0,0,0,0,0,0,0,0,0,0,0,0,0,0,0,0,0,0,0,0,0,0,0,0,0,0,0,0,0,0,0,0,0,0,0,0,0,0,0,0,0,0,0,0,0,0,0,0,0,0,0,0,0,0,0,0,0,0,0,0,0,0,0,0,0,0,0,0,0,0,0,0,0,0,0,0,0,0,0,0,0,0,0,0,0,0,0,0,0,0,0,0,0,0,0,0,0,0,0,0,0,0,0,0,0,0,0,0,0,0,0,0,0,0,0,0,0,0,0,0,0,0,0,0,0,0,0,0,0,0,0,0,0,0,0,0,0,0,0,0,0,0,0,0,0,0,0,0,0,0,0,0,0,0,0,0,0,0,0,0,0,0,0,0,0,0,0,0,0,0,0,0,0,0,0,0,0,0,0,0,0,0,0,0,0,0,0,0,0,0,0,0,0,0,0,0,0,0,0,0,0,0,0,0,0,0,0,0,0,0,0,0,0,0,0,0,0,0,0,0,0,0,0,0,0,0,0,0,0,0,0,0,0,0,0,0,0,0,0,0,0,0,0,0,0,0,0,0,0,0,0,0,0,0,0,0,0,0,0,0,0,0,0,0,0,0,0,0,0,0,0,0,0,0,0,0,0,0,0,0,0,0,0,0,0,0,0,0,0,0,0,0,0,0,0,0,0,0,0,0,0,0,0,0,0,0,0,0,0,0,0,0,0,0,0,0,0,0,0,0,0,0,0,0,0,0,0,0,0,0,0,0,0,0,0,0,0,0,0,0,0,0,0,0,0,0,0,0,0,0,0,0,0,0,0,0,0,0,0,0,0,0,0,0,0,0,0,0,0,0,0,0,0,0,0,0,0,0,0,0,0,0,0,0,0,0,0,0,0,0,0,0,0,0,0,0,0,0,0,0,0,0,0,0,0,0,0,0,0,0,0,0,0,0,0,0,0,0,0,0,0,0,0,0,0,0,0,0,0,0,0,0,0,0,0,0,0,0,0,0,0,0,0,0,0,0,0,0,0,0,0,0,0,0,0,0,0,0,0,0,0,0,0,0,0,0,0,0,0,0,0,0,0,0,0,0,0,0,0,0,0,0,0,0,0,0,0,0,0,0,0,0,0,0,0,0,0,0,0,0,0,0,0,0,0,0,0,0,0,0,0,0,0,0,0,0,0,0,0,0,0,0,0,0,0,0,0,0,0,0,0,0,0,0,0,0,0,0,0,0,0,0,0,0,0,0,0,0,0,0,0,0,0,0,0,0,0,0,0,0,0,0,0,0,0,0,0,0,0,0,0,0,0,0,0,0,0,0,0,0,0,0,0,0,0,0,0,0,0,0,0,0,0,0,0,0,0,0,0,0,0,0,0,0,0,0,0,0,0,0,0,0,0,0,0,0,0,0,0,0,0,0,0,0,0,0,0,0,0,0,0,0,0,0,0,0,0,0,0,0,0,0,0,0,0,0,0,0,0,0,0,0,0,0,0,0,0,0,0,0,0,0,0,0,0,0,0,0,0,0,0,0,0,0,0,0,0,0,0,0,0,0,0,0,0,0,0,0,0,0,0,0,0,0,0,0,0,0,0,0,0,0,0,0,0,0,0,0,0,0,0,0,0,0,0,0,0,0,0,0,0,0,0,0,0,0,0,0,0,0,0,0,0,0,0,0,0,0,0,0,0,0,0,0,0,0,0,0,0,0,0,0,0,0,0,0,0,0,0,0,0,0,0,0,0,0,0,0,0,0,0,0,0,0,0,0,0,0,0,0,0,0,0,0,0,0,0,0,0,0,0,0,0,0,0,0,0,0,0,0,0,0,0,0,0,0,0,0,0,0,0,0,0,0,0,0,0,0,0,0,0,0,0,0,0,0,0,0,0,0,0,0,0,0,0,0,0,0,0,0,0,0,0,0,0,0,0,0,0,0,0,0,0,0,0,0,0,0,0,0,0,0,0,0,0,0,0,0,0,0,0,0,0,0,0,0,0,0,0,0,0,0,0,0,0,0,0,0,0,0,0,0,0,0,0,0,0,0,0,0,0,0,0,0,0,0,0,0,0,0,0,0,0,0,0,0,0,0,0,0,0,0,0,0,0,0,0,0,0,0,0,0,0,0,0,0,0,0,0,0,0,0,0,0,0,0,0,0,0,0,0,0,0,0,0,0,0,0,0,0,0,0,0,0,0,0,0,0,0,0,0,0,0,0,0,0,0,0,0,0,0,0,0,0,0,0,0,0,0,0,0,0,0,0,0,0,0,0,0,0,0,0,0,0,0,0,0,0,0,0,0,0,0,0,0,0,0,0,0,0,0,0,0,0,0,0,0,0,0,0,0,0,0,0,0,0,0,0,0,0,0,0,0,0,0,0,0,0,0,0,0,0,0,0,0,0,0,0,0,0,0,0,0,0,0,0,0,0,0,0,0,0,0,0,0,0,0,0,0,0,0,0,0,0,0,0,0,0,0,0,0,0,0,0,0,0,0,0,0,0,0,0,0,0,0,0,0,0,0,0,0,0,0,0,0,0,0,0,0,0,0,0,0,0,0,0,0,0,0,0,0,0,0,0,0,0,0,0,0,0,0,0,0,0,0,0,0,0,0,0,0,0,0,0,0,0,0,0,0,0,0,0,0,0,0,0,0,0,0,0,0,0,0,0,0,0,0,0,0,0,0,0,0,0,0,0,0,0,0,0,0,0,0,0,0,0,0,0,0,0,0,0,0,0,0,0,0,0,0,0,0,0,0,0,0,0,0,0,0,0,0,0,0,0,0,0,0,0,0,0,0,0,0,0,0,0,0,0,0,0,0,0,0,0,0,0,0,0,0,0,0,0,0,0,0,0,0,0,0,0,0,0,0,0,0,0,0,0,0,0,0,0,0,0,0,0,0,0,0,0,0,0,0,0,0,0,0,0,0,0,0,0,0,0,0,0,0,0,0,0,0,0,0,0,0,0,0,0,0,0,0,0,0,0,0,0,0,0,0,0,0,0,0,0,0,0,0,0,0,0,0,0,0,0,0,0,0,0,0,0,0,0,0,0,0,0,0,0,0,0,0,0,0,0,0,0,0,0,0,0,0,0,0,0,0,0,0,0,0,0,0,0,0,0,0,0,0,0,0,0,0,0,0,0,0,0,0,0,0,0,0,0,0,0,0,0,0,0,0,0,0,0,0,0,0,0,0,0,0,0,0,0,0,0,0,0,0,0,0,0,0,0,0,0,0,0,0,0,0,0,0,0,0,0,0,0,0,0,0,0,0,0,0,0,0,0,0,0,0,0,0,0,0,0,0,0,0,0,0,0,0,0,0,0,0,0,0,0,0,0,0,0,0,0,0,0,0,0,0,0,0,0,0,0,0,0,0,0,0,0,0,0,0,0,0,0,0,0,0,0,0,0,0,0,0,0,0,0,0,0,0,0,0,0,0,0,0,0,0,0,0,0,0,0,0,0,0,0,0,0,0,0,0,0,0,0,0,0,0,0,0,0,0,0,0,0,0,0,0,0,0,0,0,0,0,0,0,0,0,0,0,0,0,0,0,0,0,0,0,0,0,0,0,0,0,0,0,0,0,0,0,0,0,0,0,0,0,0,0,0,0,0,0,0,0,0,0,0,0,0,0,0,0,0,0,0,0,0,0,0,0,0,0,0,0,0,0,0,0,0,0,0,0,0,0,0,0,0,0,0,0,0,0,0,0,0,0,0,0,0,0,0,0,0,0,0,0,0,0,0,0,0,0,0,0,0,0,0,0,0,0,0,0,0,0,0,0,0,0,0,0,0,0,0,0,0,0,0,0,0,0,0,0,0,0,0,0,0,0,0,0,0,0,0,0,0,0,0,0,0,0,0,0,0,0,0,0,0,0,0,0,0,0,0,0,0,0,0,0,0,0,0,0,0,0,0,0,0,0,0,0,0,0,0,0,0,0,0,0,0,0,0,0,0,0,0,0,0,0,0,0,0,0,0,0,0,0,0,0,0,0,0,0,0,0,0,0,0,0,0,0,0,0,0,0,0,0,0,0,0,0,0,0,0,0,0,0,0,0,0,0,0,0,0,0,0,0,0,0,0,0,0,0,0,0,0,0,0,0,0,0,0,0,0,0,0,0,0,0,0,0,0,0,0,0,0,0,0,0,0,0,0,0,0,0,0,0,0,0,0,0,0,0,0,0,0,0,0,0,0,0,0,0,0,0,0,0,0,0,0,0,0,0,0,0,0,0,0,0,0,0,0,0,0,0,0,0,0,0,0,0,0,0,0,0,0,0,0,0,0,0,0,0,0,0,0,0,0,0,0,0,0,0,0,0,0,0,0,0,0,0,0,0,0,0,0,0,0,0,0,0,0,0,0,0,0,0,0,0,0,0,0,0,0,0,0,0,0,0,0,0,0,0,0,0,0,0,0,0,0,0,0,0,0,0,0,0,0,0,0,0,0,0,0,0,0,0,0,0,0,0,0,0,0,0,0,0,0,0,0,0,0,0,0,0,0,0,0,0,0,0,0,0,0,0,0,0,0,0,0,0,0,0,0,0,0,0,0,0,0,0,0,0,0,0,0,0,0,0,0,0,0,0,0,0,0,0,0,0,0,0,0,0,0,0,0,0,0,0,0,0,0,0,0,0,0,0,0,0,0,0,0,0,0,0,0,0,0,0,0,0,0,0,0,0,0,0,0,0,0,0,0,0,0,0,0,0,0,0,0,0,0,0,0,0,0,0,0,0,0,0,0,0,0,0,0,0,0,0,0,0,0,0,0,0,0,0,0,0,0,0,0,0,0,0,0,0,0,0,0,0,0,0,0,0,0,0,0,0,0,0,0,0,0,0,0,0,0,0,0,0,0,0,0,0,0,0,0,0,0,0,0,0,0,0,0,0,0,0,0,0,0,0,0,0,0,0,0,0,0,0,0,0,0,0,0,0,0,0,0,0,0,0,0,0,0,0,0,0,0,0,0,0,0,0,0,0,0,0,0,0,0,0,0,0,0,0,0,0,0,0,0,0,0,0,0,0,0,0,0,0,0,0,0,0,0,0,0,0,0,0,0,0,0,0,0,0,0,0,0,0,0,0,0,0,0,0,0,0,0,0,0,0,0,0,0,0,0,0,0,0,0,0,0,0,0,0,0,0,0,0,0,0,0,0,0,0,0,0,0,0,0,0,0,0,0,0,0,0,0,0,0,0,0,0,0,0,0,0,0,0,0,0,0,0,0,0,0,0,0,0,0,0,0,0,0,0,0,0,0,0,0,0,0,0,0,0,0,0,0,0,0,0,0,0,0,0,0,0,0,0,0,0,0,0,0,0,0,0,0,0,0,0,0,0,0,0,0,0,0,0,0,0,0,0,0,0,0,0,0,0,0,0,0,0,0,0,0,0,0,0,0,0,0,0,0,0,0,0,0,0,0,0,0,0,0,0,0,0,0,0,0,0,0,0,0,0,0,0,0,0,0,0,0,0,0,0,0,0,0,0,0,0,0,0,0,0,0,0,0,0,0,0,0,0,0,0,0,0,0,0,0,0,0,0,0,0,0,0,0,0,0,0,0,0,0,0,0,0,0,0,0,0,0,0,0,0,0,0,0,0,0,0,0,0,0,0,0,0,0,0,0,0,0,0,0,0,0,0,0,0,0,0,0,0,0,0,0,0,0,0,0,0,0,0,0,0,0,0,0,0,0,0,0,0,0,0,0,0,0,0,0,0,0,0,0,0,0,0,0,0,0,0,0,0,0,0,0,0,0,0,0,0,0,0,0,0,0,0,0,0,0,0,0,0,0,0,0,0,0,0,0,0,0,0,0,0,0,0,0,0,0,0,0,0,0,0,0,0,0,0,0,0,0,0,0,0,0,0,0,0,0,0,0,0,0,0,0,0,0,0,0,0,0,0,0,0,0,0,0,0,0,0,0,0,0,0,0,0,0,0,0,0,0,0,0,0,0,0,0,0,0,0,0,0,0,0,0,0,0,0,0,0,0,0,0,0,0,0,0,0,0,0,0,0,0,0,0,0,0,0,0,0,0,0,0,0,0,0,0,0,0,0,0,0,0,0,0,0,0,0,0,0,0,0,0,0,0,0,0,0,0,0,0,0,0,0,0,0,0,0,0,0,0,0,0,0,0,0,0,0,0,0,0,0,0,0,0,0,0,0,0,0,0,0,0,0,0,0,0,0,0,0,0,0,0,0,0,0,0,0,0,0,0,0,0,0,0,0,0,0,0,0,0,0,0,0,0,0,0,0,0,0,0,0,0,0,0,0,0,0,0,0,0,0,0,0,0,0,0,0,0,0,0,0,0,0,0,0,0,0,0,0,0,0,0,0,0,0,0,0,0,0,0,0,0,0,0,0,0,0,0,0,0,0,0,0,0,0,0,0,0,0,0,0,0,0,0,0,0,0,0,0,0,0,0,0,0,0,0,0,0,0,0,0,0,0,0,0,0,0,0,0,0,0,0,0,0,0,0,0,0,0,0,0,0,0,0,0,0,0,0,0,0,0,0,0,0,0,0,0,0,0,0,0,0,0,0,0,0,0,0,0,0,0,0,0,0,0,0,0,0,0,0,0,0,0,0,0,0,0,0,0,0,0,0,0,0,0,0,0,0,0,0,0,0,0,0,0,0,0,0,0,0,0,0,0,0,0,0,0,0,0,0,0,0,0,0,0,0,0,0,0,0,0,0,0,0,0,0,0,0,0,0,0,0,0,0,0,0,0,0,0,0,0,0,0,0,0,0,0,0,0,0,0,0,0,0,0,0,0,0,0,0,0,0,0,0,0,0,0,0,0,0,0,0,0,0,0,0,0,0,0,0,0,0,0,0,0,0,0,0,0,0,0,0,0,0,0,0,0,0,0,0,0,0,0,0,0,0,0,0,0,0,0,0,0,0,0,0,0,0,0,0,0,0,0,0,0,0,0,0,0,0,0,0,0,0,0,0,0,0,0,0,0,0,0,0,0,0,0,0,0,0,0,0,0,0,0,0,0,0,0,0,0,0,0,0,0,0,0,0,0,0,0,0,0,0,0,0,0,0,0,0,0,0,0,0,0,0,0,0,0,0,0,0,0,0,0,0,0,0,0,0,0,0,0,0,0,0,0,0,0,0,0,0,0,0,0,0,0,0,0,0,0,0,0,0,0,0,0,0,0,0,0,0,0,0,0,0,0,0,0,0,0,0,0,0,0,0,0,0,0,0,0,0,0,0,0,0,0,0,0,0,0,0,0,0,0,0,0,0,0,0,0,0,0,0,0,0,0,0,0,0,0,0,0,0,0,0,0,0,0,0,0,0,0,0,0,0,0,0,0,0,0,0,0,0,0,0,0,0,0,0,0,0,0,0,0,0,0,0,0,0,0,0,0,0,0,0,0,0,0,0,0,0,0,0,0,0,0,0,0,0,0,0,0,0,0,0,0,0,0,0,0,0,0,0,0,0,0,0,0,0,0,0,0,0,0,0,0,0,0,0,0,0,0,0,0,0,0,0,0,0,0,0,0,0,0,0,0,0,0,0,0,0,0,0,0,0,0,0,0,0,0,0,0,0,0,0,0,0,0,0,0,0,0,0,0,0,0,0,0,0,0,0,0,0,0,0,0,0,0,0,0,0,0,0,0,0,0,0,0,0,0,0,0,0,0,0,0,0,0,0,0,0,0,0,0,0,0,0,0,0,0,0,0,0,0,0,0,0,0,0,0,0,0,0,0,0,0,0,0,0,0,0,0,0,0,0,0,0,0,0,0,0,0,0,0,0,0,0,0,0,0,0,0,0,0,0,0,0,0,0,0,0,0,0,0,0,0,0,0,0,0,0,0,0,0,0,0,0,0,0,0,0,0,0,0,0,0,0,0,0,0,0,0,0,0,0,0,0,0,0,0,0,0,0,0,0,0,0,0,0,0,0,0,0,0,0,0,0,0,0,0,0,0,0,0,0,0,0,0,0,0,0,0,0,0,0,0,0,0,0,0,0,0,0,0,0,0,0,0,0,0,0,0,0,0,0,0,0,0,0,0,0,0,0,0,0,0,0,0,0,0,0,0,0,0,0,0,0,0,0,0,0,0,0,0,0,0,0,0,0,0,0,0,0,0,0,0,0,0,0,0,0,0,0,0,0,0,0,0,0,0,0,0,0,0,0,0,0,0,0,0,0,0,0,0,0,0,0,0,0,0,0,0,0,0,0,0,0,0,0,0,0,0,0,0,0,0,0,2891,2912,2912,2907,0,0,0,0,0,0,0,0,0,0,0,0,0,0,0,0,0,0,0,0,0,0,0,0,0,0,0,0,0,0,0,0,0,0,0,0,0,0,0,0,0,0,0,0,0,0,0,0,0,0,0,0,0,0,0,0,0,0,0,0,0,0,0,0,0,0,0,0,0,0,0,0,0,0,0,0,0,0,0,0,0,0,0,0,0,0,0,0,0,0,0,0,0,0,0,0,0,0,0,0,0,0,0,0,0,0,0,0,0,0,0,0,0,0,0,0,0,0,0,0,0,0,0,0,0,0,0,0,0,0,0,0,0,0,0,0,0,0,0,0,2893,2147486575,2147486575,2926,2912,2912,2912,2907,0,0,0,0,0,0,0,0,0,0,0,0,0,0,0,0,0,0,0,0,0,0,0,0,0,0,0,0,0,0,0,0,0,0,0,0,0,0,0,0,0,0,0,0,0,0,0,0,0,0,0,0,0,0,0,0,0,0,0,0,0,0,0,0,0,0,0,0,0,0,0,0,0,0,0,0,0,0,0,0,0,0,0,0,0,0,0,0,0,0,0,0,0,0,0,0,0,0,0,0,0,0,0,0,0,0,0,0,0,0,0,0,0,0,0,0,0,0,0,0,0,0,0,0,0,0,0,0,0,0,0,0,0,0,0,0,2885,2917,2917,2922,3023,2147486671,3071,2926,2912,2912,2912,2907,0,0,0,0,0,0,0,0,0,0,0,0,0,0,0,0,0,0,0,0,0,0,0,0,0,0,0,0,0,0,0,0,0,0,0,0,0,0,0,0,0,0,0,0,0,0,0,0,0,0,0,0,0,0,0,0,0,0,0,0,0,0,0,0,0,0,0,0,0,0,0,0,0,0,0,0,0,0,0,0,0,0,0,0,0,0,0,0,0,0,0,0,0,0,0,0,0,0,0,0,0,0,0,0,0,0,0,0,0,0,0,0,0,0,0,0,0,0,0,0,0,0,0,0,0,0,0,0,0,0,0,0,0,0,0,2885,2917,2917,2917,2922,2147486671,2975,2927,2926,2912,2912,2912,2907,0,0,0,0,0,0,0,0,0,0,0,0,0,0,0,0,0,0,0,0,0,0,0,0,0,0,0,0,0,0,0,0,0,0,0,0,0,0,0,0,0,0,0,0,0,0,0,0,0,0,0,0,0,0,0,0,0,0,0,0,0,0,0,0,0,0,0,0,0,0,0,0,0,0,0,0,0,0,0,0,0,0,0,0,0,0,0,0,0,0,0,0,0,0,0,0,0,0,0,0,0,0,0,0,0,0,0,0,0,0,0,0,0,0,0,0,0,0,0,0,0,0,0,0,0,0,0,0,0,0,0,0,0,0,0,2885,2917,2917,2917,2922,2975,2147486623,2927,2926,2912,2907,0,0,0,0,0,0,0,0,0,0,0,0,0,0,0,0,0,0,0,0,0,0,0,0,0,0,0,0,0,0,0,0,0,0,0,0,0,0,0,0,0,0,0,0,0,0,0,0,0,0,0,0,0,0,0,0,0,0,0,0,0,0,0,0,0,0,0,0,0,0,0,0,0,0,0,0,0,0,0,0,0,0,0,0,0,0,0,0,0,0,0,0,0,0,0,0,0,0,0,0,0,0,0,0,0,0,0,0,0,0,0,0,0,0,0,0,0,0,0,0,0,0,0,0,0,0,0,0,0,0,0,0,0,0,0,0,0,2885,2917,2917,2917,2922,2147486575,0,2907,0,0,0,0,0,0,0,0,0,0,0,0,0,0,0,0,0,0,0,0,0,0,0,0,0,0,0,0,0,0,0,0,0,0,0,0,0,0,0,0,0,0,0,0,0,0,0,0,0,0,0,0,0,0,0,0,0,0,0,0,0,0,0,0,0,0,0,0,0,0,0,0,0,0,0,0,0,0,0,0,0,0,0,0,0,0,0,0,0,0,0,0,0,0,0,0,0,0,0,0,0,0,0,0,0,0,0,0,0,0,0,0,0,0,0,0,0,0,0,0,0,0,0,2891,2912,2907,0,0,0,0,0,0,0,0,0,0,0,0,0,0,2885,0,2917,4691,0,0,0,0,0,0,0,0,0,0,0,0,0,0,0,0,0,0,0,0,0,0,0,0,0,0,0,0,0,0,0,0,0,0,0,0,0,0,0,0,0,0,0,0,0,0,0,0,0,0,0,0,0,0,0,0,0,0,0,0,0,0,0,0,0,0,0,0,0,0,0,0,0,0,0,0,0,0,0,0,0,0,0,0,0,0,0,0,0,0,0,0,0,0,0,0,0,0,0,0,0,0,0,0,0,0,0,0,0,0,0,0,0,0,0,0,0,0,0,0,0,0,0,2893,2975,2923,0,0,0,0,0,0,0,0,0,0,0,0,0,0,0,0,0,0,0,0,0,0,0,0,0,0,0,0,0,0,0,0,0,0,0,0,0,0,0,0,0,0,0,0,0,0,0,0,0,0,0,0,0,0,0,0,0,0,0,0,0,0,0,0,0,0,0,0,0,0,0,0,0,0,0,0,0,0,0,0,0,0,0,0,0,0,0,0,0,0,0,0,0,0,0,0,0,0,0,0,0,0,0,0,0,0,0,0,0,0,0,0,0,0,0,0,0,0,0,0,0,0,0,0,0,0,0,0,0,0,0,0,0,0,0,0,0,0,0,0,0,2893,2147486575,2923,0,0,0,0,0,0,0,0,0,0,0,0,0,0,0,0,0,0,0,0,0,0,0,0,0,0,0,0,0,0,0,0,0,0,0,0,0,0,0,0,0,0,0,0,0,0,0,0,0,0,0,0,0,0,0,0,0,0,0,0,0,0,0,0,0,0,0,0,0,0,0,0,0,0,0,0,0,0,0,0,0,0,0,0,0,0,0,0,0,0,0,0,0,0,0,0,0,0,0,0,0,0,0,0,0,0,0,0,0,0,0,0,0,0,0,0,0,0,0,0,0,0,0,0,0,0,0,0,0,0,0,0,0,0,0,0,0,0,0,0,0,2893,2147486575,2923,0,0,0,0,0,0,0,0,0,0,0,0,0,0,0,0,0,0,0,0,0,0,0,0,0,0,0,0,0,0,0,0,0,0,0,0,0,0,0,0,0,0,0,0,0,0,0,0,0,0,0,0,0,0,0,0,0,0,0,0,0,0,0,0,0,0,0,0,0,0,0,0,0,0,0,0,0,0,0,0,0,0,0,0,0,0,0,0,0,0,0,0,0,0,0,0,0,0,0,0,0,0,0,0,0,0,0,0,0,0,0,0,0,0,0,0,0,0,0,0,0,0,0,0,0,0,0,0,0,0,0,0,0,0,0,0,0,0,0,0,0,2893,2147486575,2923,0,0,0,0,0,0,0,0,0,0,0,0,0,0,0,0,0,0,0,0,2886,0,0,0,0,0,0,0,0,0,0,0,0,0,0,0,0,0,0,0,0,0,0,0,0,0,0,0,0,0,0,0,0,0,0,0,0,0,0,0,0,0,0,0,0,0,0,0,0,0,0,0,0,0,0,0,0,0,0,0,0,0,0,0,0,0,0,0,0,0,0,0,0,0,0,0,0,0,0,0,0,0,0,0,0,0,0,0,0,0,0,0,0,0,0,0,0,0,0,0,0,0,0,0,0,0,0,0,0,0,0,0,0,0,0,0,0,0,0,0,0,2893,2927,2923,0,0,0,0,0,0,0,0,0,0,0,0,0,0,0,0,0,0,0,2883,2905,2907,0,0,0,0,0,0,0,0,0,0,0,0,0,0,0,0,0,0,0,0,0,0,0,0,0,0,0,0,0,0,0,0,0,0,0,0,0,0,0,0,0,0,0,0,0,0,0,0,0,0,0,0,0,0,0,0,0,0,0,0,0,0,0,0,0,0,0,0,0,0,0,0,0,0,0,0,0,0,0,0,0,0,0,0,0,0,0,0,0,0,0,0,0,0,0,0,0,0,0,0,0,0,0,0,0,0,0,0,0,0,0,0,0,0,0,0,0,0,0,2893,3071,2923,0,0,0,0,0,0,0,0,0,0,0,0,0,0,0,0,0,0,0,0,4621,2923,0,0,0,0,0,0,0,0,0,0,0,0,0,0,0,0,0,0,0,0,0,0,0,0,0,0,0,0,0,0,0,0,0,0,0,0,0,0,0,0,0,0,0,0,0,0,0,0,0,0,0,0,0,0,0,0,0,0,0,0,0,0,0,0,0,0,0,0,0,0,0,0,0,0,0,0,0,0,0,0,0,0,0,0,0,0,0,0,0,0,0,0,0,0,0,0,0,0,0,0,0,0,0,0,0,0,0,0,0,0,0,0,0,0,0,0,0,0,0,2893,2927,2923,0,0,0,0,0,0,0,0,0,0,0,0,0,0,0,0,0,0,0,0,4613,4649,4635,0,0,0,0,0,0,0,0,0,0,0,0,0,0,0,0,0,0,0,0,0,0,0,0,0,0,0,0,0,0,0,0,0,0,0,0,0,0,0,0,0,0,0,0,0,0,0,0,0,0,0,0,0,0,0,0,0,0,0,0,0,0,0,0,0,0,0,0,0,0,0,0,0,0,0,0,0,0,0,0,0,0,0,0,0,0,0,0,0,0,0,0,0,0,0,0,0,0,0,0,0,0,0,0,0,0,0,0,0,0,0,0,0,0,0,0,0,0,2893,2147486719,2923,0,0,0,0,0,0,0,0,0,0,0,0,0,0,0,0,0,0,0,0,0,4621,4651,0,0,0,0,0,0,0,0,0,0,0,0,0,0,0,0,0,0,0,0,0,0,0,0,0,0,0,0,0,0,0,0,0,0,0,0,0,0,0,0,0,0,0,0,0,0,0,0,0,0,0,0,0,0,0,0,0,0,0,0,0,0,0,0,0,0,0,0,0,0,0,0,0,0,0,0,0,0,0,0,0,0,0,0,0,0,0,0,0,0,0,0,0,0,0,0,0,0,0,0,0,0,0,0,0,0,0,0,0,0,0,0,0,0,0,0,0,0,2893,2147486575,2923,0,0,0,0,0,0,0,0,0,0,0,0,0,0,0,0,0,0,0,0,0,4613,4649,4635,0,0,0,0,0,0,0,0,0,0,0,0,0,0,0,0,0,0,0,0,0,0,0,0,0,0,0,0,0,0,0,0,0,0,0,0,0,0,0,0,0,0,0,0,0,0,0,0,0,0,0,0,0,0,0,0,0,0,0,0,0,0,0,0,0,0,0,0,0,0,0,0,0,0,0,0,0,0,0,0,0,0,0,0,0,0,0,0,0,0,0,0,0,0,0,0,0,0,0,0,0,0,0,0,0,0,0,0,0,0,0,0,0,0,0,0,0,2893,2975,2923,0,0,0,0,0,0,0,0,0,0,0,0,0,0,0,0,0,0,0,0,0,0,4621,4651,0,0,0,0,0,0,0,0,0,0,0,0,0,0,0,0,0,0,0,0,0,0,0,0,0,0,0,0,0,0,0,0,0,0,0,0,0,0,0,0,0,0,0,0,0,0,0,0,0,0,0,0,0,0,0,0,0,0,0,0,0,0,0,0,0,0,0,0,0,0,0,0,0,0,0,0,0,0,0,0,0,0,0,0,0,0,0,0,0,0,0,0,0,0,0,0,0,0,0,0,0,0,0,0,0,0,0,0,0,0,0,0,0,0,0,0,0,2893,2147486575,0,0,0,0,0,0,0,0,0,0,0,0,0,0,0,0,0,0,0,0,0,0,0,4613,4647,4622,0,0,0,0,0,0,0,0,0,0,0,0,0,0,0,0,0,0,0,0,0,0,0,0,0,0,0,0,0,0,0,0,0,0,0,0,0,0,0,0,0,0,0,0,0,0,0,0,0,0,0,0,0,0,0,0,0,0,0,0,0,0,0,0,0,0,0,0,0,0,0,0,0,0,0,0,0,0,0,0,0,0,0,0,0,0,0,0,0,0,0,0,0,0,0,0,0,0,0,0,0,0,0,0,0,0,0,0,0,0,0,0,0,0,0,0,2893,3071,2925,0,0,0,0,0,0,0,0,0,0,0,0,0,0,0,0,0,0,0,0,0,0,0,4610,0,0,0,0,0,0,0,0,0,0,0,0,0,0,0,0,0,0,0,0,0,0,0,0,0,0,0,0,0,0,0,0,0,0,0,0,0,0,0,0,0,0,0,0,0,0,0,0,0,0,0,0,0,0,0,0,0,0,0,0,0,0,0,0,0,0,0,0,0,0,0,0,0,0,0,0,0,0,0,0,0,0,0,0,0,0,0,0,0,0,0,0,0,0,0,0,0,0,0,0,0,0,0,0,0,0,0,0,0,0,0,0,0,0,0,0,0,2893,2147486671,2923,0,0,0,0,0,0,0,0,0,0,0,0,0,0,0,0,0,0,0,0,0,0,0,0,0,0,0,0,0,0,0,0,0,0,0,0,0,0,0,0,0,0,0,0,0,0,0,0,0,0,0,0,0,0,0,0,0,0,0,0,0,0,0,0,0,0,0,0,0,0,0,0,0,0,0,0,0,0,0,0,0,0,0,0,0,0,0,0,0,0,0,0,0,0,0,0,0,0,0,0,0,0,0,0,0,0,0,0,0,0,0,0,0,0,0,0,0,0,0,0,0,0,0,0,0,0,0,0,0,0,0,0,0,0,0,0,0,0,0,0,0,2885,2917,2915,0,0,0,0,0,0,0,0,0,0,0,0,0,0,0,0,0,0,0,0,0,0,0,0,0,0,0,0,0,0,0,0,0,0,0,0,0,0,0,0,0,0,0,0,0,0,0,0,0,0,0,0,0,0,0,0,0,0,0,0,0,0,0,0,0,0,0,0,0,0,0,0,0,0,0,0,0,0,0,0,0,0,0,0,0,0,0,0,0,0,0,0,0,0,0,0,0,0,0,0,0,0,0,0,0,0,0,0,0,0,0,0,0,0,0,0,0,0,0,0,0,0,0,0,0,0,0,0,0,0,0,0,0,0,0,0,0,0,0,0,0,0,0,0,0,0,0,0,0,0,0,0,0,0,0,0,0,0,0,0,0,0,0,0,0,0,0,0,0,0,0,0,0,0,0,0,0,0,0,0,0,0,0,0,0,0,0,0,0,0,0,0,0,0,0,0,0,0,0,0,0,0,0,0,0,0,0,0,0,0,0,0,0,0,0,0,0,0,0,0,0,0,0,0,0,0,0,0,0,0,0,0,0,0,0,0,0,0,0,0,0,0,0,0,0,0,0,0,0,0,0,0,0,0,0,0,0,0,0,0,0,0,0,0,0,0,0,0,0,0,0,0,0,0,0,0,0,0,0,0,0,0,0,0,0,0,0,0,0,0,0,0,0,0,0,0,0,0,0,0,0,0,0,0,0,0,0,0,0,0,0,0,0,0,0,0,0,0,0,0,0,0,0,0,0,0,0,0,0,0,0,0,0,0,0,0,0,0,0,0,0,0,0,0,0,0,0,0,0,0,0,0,0,0,0,0,0,0,0,0,0,0,0,0,0,0,0,0,0,0,0,0,0,0,0,0,0,0,0,0,0,0,0,0,0,0,0,0,0,0,0,0,0,0,0,0,0,0,0,0,0,0,0,0,0,0,0,0,0,0,0,0,0,0,0,0,0,0,0,0,0,0,0,0,0,0,0,0,0,0,0,0,0,0,0,0,0,0,0,0,0,0,0,0,0,0,0,0,0,0,0,0,0,0,0,0,0,0,0,0,0,0,0,0,0,0,0,0,0,0,0,0,0,0,0,0,0,0,0,0,0,0,0,0,0,0,0,0,0,0,0,0,0,0,0,0,0,0,0,0,0,0,0,0,0,0,0,0,0,0,0,0,0,0,0,0,0,0,0,0,0,0,0,0,0,0,0,0,0,0,0,0,0,0,0,0,0,0,0,0,0,0,0,0,0,0,0,0,0,0,0,0,0,0,0,0,0,0,0,0,0,0,0,0,0,0,0,0,0,0,0,0,0,0,0,0,0,0,0,0,0,0,0,0,0,0,0,0,0,0,0,0,0,0,0,0,0,0,0,0,0,0,0,0,0,0,0,0,0,0,0,0,0,0,0,0,0,0,0,0,0,0,0,0,0,0,0,0,0,0,0,0,0,0,0,0,0,0,0,0,0,0,0,0,0,0,0,0,0,0,0,0,0,0,0,0,0,0,0,0,0,0,0,0,0,0,0,0,0,0,0,0,0,0,0,0,0,0,0,0,0,0,0,0,0,0,0,0,0,0,0,0,0,0,0,0,0,0,0,0,0,0,0,0,0,0,0,0,0,0,0,0,0,0,0,0,0,0,0,0,0,0,0,0,0,0,0,0,0,0,0,0,0,0,0,0,0,0,0,0,0,0,0,0,0,0,0,0,0,0,0,0,0,0,0,0,0,0,0,0,0,0,0,0,0,0,0,0,0,0,0,0,0,0,0,0,0,0,0,0,0,0,0,0,0,0,0,0,0,0,0,0,0,0,0,0,0,0,0,0,0,0,0,0,0,0,0,0,0,0,0,0,0,0,0,0,0,0,0,0,0,0,0,0,0,0,0,0,0,0,0,0,0,0,0,0,0,0,0,0,0,0,0,0,0,0,0,0,0,0,0,0,0,0,0,0,0,0,0,0,0,0,0,0,0,2891,2912,2912,2907,0,0,0,0,0,0,0,0,0,0,0,0,0,0,0,0,0,0,0,0,0,0,0,0,0,0,0,0,0,0,0,0,0,0,0,0,0,0,0,0,0,0,0,0,0,0,0,0,0,0,0,0,0,0,0,0,0,0,0,0,0,0,0,0,0,0,0,0,0,0,0,0,0,0,0,0,0,0,0,0,0,0,0,0,0,0,0,0,0,0,0,0,0,0,0,0,0,0,0,0,0,0,0,0,0,0,0,0,0,0,0,0,0,0,0,0,0,0,0,0,0,0,0,0,0,0,0,0,0,0,0,0,0,0,0,0,0,0,0,0,2893,2927,2147486575,2926,2912,2912,2912,2912,2907,0,0,0,0,0,0,0,0,0,0,0,0,0,0,0,0,0,0,0,0,0,0,0,0,0,0,0,0,0,0,0,0,0,0,0,0,0,0,0,0,0,0,0,0,0,0,0,0,0,0,0,0,0,0,0,0,0,0,0,0,0,0,0,0,0,0,0,0,0,0,0,0,0,0,0,0,0,0,0,0,0,0,0,0,0,0,0,0,0,0,0,0,0,0,0,0,0,0,0,0,0,0,0,0,0,0,0,0,0,0,0,0,0,0,0,0,0,0,0,0,0,0,0,0,0,0,0,0,0,0,0,0,0,0,0,2885,2917,2917,2917,2922,2147486623,2147486671,2147486575,2926,2912,2912,2912,2912,2912,2912,2912,2912,2912,2912,2912,2912,2912,4683,0,0,0,0,0,0,0,0,0,0,0,0,0,0,0,0,0,0,0,0,0,0,0,0,0,0,0,0,0,0,0,0,0,0,0,0,0,0,0,0,0,0,0,0,0,0,0,0,0,0,0,0,0,0,0,0,0,0,0,0,0,0,0,0,0,0,0,0,0,0,0,0,0,0,0,0,0,0,0,0,0,0,0,0,0,0,0,0,0,0,0,0,0,0,0,0,0,0,0,0,0,0,0,0,0,0,0,0,0,0,0,0,0,0,0,0,0,0,0,0,0,0,0,0,0,2885,2917,2917,2917,2917,2922,2975,2147486671,3023,2147486575,2147486719,3071,2975,2147486719,2147486719,2147486623,2975,3023,2923,0,0,0,0,0,0,0,0,0,0,0,0,0,0,0,0,0,0,0,0,0,0,0,0,0,0,0,0,0,0,0,0,0,0,0,0,0,0,0,0,0,0,0,0,0,0,0,0,0,0,0,0,0,0,0,0,0,0,0,0,0,0,0,0,0,0,0,0,0,0,0,0,0,0,0,0,0,0,0,0,0,0,0,0,0,0,0,0,0,0,0,0,0,0,0,0,0,0,0,0,0,0,0,0,0,0,0,0,0,0,0,0,0,0,0,0,0,0,0,0,0,0,0,0,0,0,0,0,0,0,2885,2917,2917,2917,2917,2917,2917,2917,2917,2917,2917,2917,2917,2915,0,0,0,0,0,0,0,0,0,0,0,0,0,0,0,0,0,0,0,0,0,0,0,0,0,0,0,0,0,0,0,0,0,0,0,0,0,0,0,0,0,0,0,0,0,0,0,0,0,0,0,0,0,0,0,0,0,0,0,0,0,0,0,0,0,0,0,0,0,0,0,0,0,0,0,0,0,0,0,0,0,0,0,0,0,0,0,0,0,0,0,0,0,0,0,0,0,0,0,0,0,0,0,0,0,0,0,0,0,0,0,0,0,0,0,0,0,0,0,0,0,0,0,0,0,0,0,0,0,0,0,0,0,0,0,0,0,0,0,0,0,0,0,0,0,0,0,0,0,0,0,0,0,0,0,0,0,0,0,0,0,0,0,0,0,0,0,0,0,0,0,0,0,0,0,0,0,0,0,0,0,0,0,0,0,0,0,0,0,0,0,0,0,0,0,0,0,0,0,0,0,0,0,0,0,0,0,0,0,0,0,0,0,0,0,0,0,0,0,0,0,0,0,0,0,0,0,0,0,0,0,0,0,0,0,0,0,0,0,0,0,0,0,0,0,0,0,0,0,0,0,0,0,0,0,0,0,0,0,0,0,0,0,0,0,0,0,0,0,0,0,0,0,0,0,0,0,0,0,0,0,0,0,0,0,0,0,0,0,0,0,0,0,0,0,0,0,0,0,0,0,0,0,0,0,0,0,0,0,0,0,0,0,0,0,0,0,0,0,0,0,0,0,0,0,0,0,0,0,0,0,0,0,0,0,0,0,0,0,0,0,0,0,0,0,0,0,0,0,0,0,0,0,0,0,0,0,0,0,0,0,0,0,0,0,0,0,0,0,0,0,0,0,0,0,0,0,0,0,0,0,0,0,0,0,0,0,0,0,0,0,0,0,0,0,0,0,0,0,0,0,0,0,0,0,0,0,0,0,0,0,0,0,0,0,0,0,0,0,0,0,0,0,0,0,0,0,0,0,0,0,0,0,0,0,0,0,0,0,0,0,0,0,0,0,0,0,0,0,0,0,0,0,0,0,0,0,0,0,0,0,0,0,0,0,0,0,0,0,0,0,0,0,0,0,0,0,0,0,0,0,0,0,0,0,0,0,0,0,0,0,0,0,0,0,0,0,0,0,0,0,0,0,0,0,0,0,0,0,0,0,0,0,0,0,0,0,0,0,0,0,0,0,0,0,0,0,0,0,0,0,0,0,0,0,0,0,0,0,0,0,0,0,0,0,0,0,0,0,0,0,0,0,0,0,0,0,0,0,0,0,0,0,0,0,0,0,0,0,0,0,0,0,0,0,0,0,0,0,0,0,0,0,0,0,0,0,0,0,0,0,0,0,0,0,0,0,0,0,0,0,0,0,0,0,0,0,0,0,0,0,0,0,0,0,0,0,0,0,0,0,0,0,0,0,0,0,0,0,0,0,0,0,0,0,0,0,0,0,0,0,0,0,0,0,0,0,0,0,0,0,0,0,0,0,0,0,0,0,0,0,0,0,0,0,0,0,0,0,0,0,0,0,0,0,0,0,0,0,0,0,0,0,0,0,0,0,0,0,0,0,0,0,0,0,0,0,0,0,0,0,0,0,0,0,0,0,0,0,0,0,0,0,0,0,0,0,0,0,0,0,0,0,0,0,0,0,0,0,0,0,0,0,0,0,0,0,0,0,0,0,0,0,0,0,0,0,0,0,0,0,0,0,0,0,0,0,0,0,0,0,0,0,0,0,0,0,0,0,0,0,0,0,0,0,0,0,0,0,0,0,0,0,0,0,0,0,0,0,0,0,0,0,0,0,0,0,0,0,0,0,0,0,0,0,0,0,0,0,0,0,0,0,0,0,0,0,0,0,0,0,0,0,0,0,0,0,0,0,0,0,0,0,0,0,0,0,0,0,0,0,0,0,0,0,0,0,0,0,0,0,0,0,0,0,0,0,0,0,0,0,0,0,0,0,0,0,0,0,0,0,0,0,0,0,0,0,0,0,0,0,0,0,0,0,0,0,0,0,0,0,0,0,0,0,0,0,0,0,0,0,0,0,0,0,0,0,0,0,0,0,0,0,0,0,0,0,0,0,0,0,0,0,0,0,0,0,0,0,0,0,0,0,0,0,0,0,0,0,0,0,0,0,0,0,0,0,0,0,0,0,0,0,0,0,0,0,0,0,0,0,0,0,0,0,0,0,0,0,0,0,0,0,0,0,0,0,0,0,0,0,0,0,0,0,0,0,0,0,0,0,0,0,0,0,0,0,0,0,0,0,0,0,0,0,0,0,0,0,0,0,0,0,0,0,0,0,0,0,0,0,0,0,0,0,0,0,0,0,0,0,0,0,0,0,0,0,0,0,0,0,0,0,0,0,0,0,0,0,0,0,0,0,0,0,0,0,0,0,0,0,0,0,0,0,0,0,0,0,0,0,0,0,0,0,0,0,0,0,0,0,0,0,0,0,0,0,0,0,0,0,0,0,0,0,0,0,0,0,0,0,0,0,0,0,0,0,0,0,0,0,0,0,0,0,0,0,0,0,0,0,0,0,0,0,0,0,0,0,0,0,0,0,0,0,0,0,0,0,0,0,0,0,0,0,0,0,0,0,0,0,0,0,0,0,0,0,0,0,0,0,0,0,0,0,0,0,0,0,0,0,0,0,0,0,0,0,0,0,0,0,0,0,0,0,0,0,0,0,0,0,0,0,0,0,0,0,0,0,0,0,0,0,0,0,0,0,0,0,0,0,0,0,0,0,0,0,0,0,0,0,0,0,0,0,0,0,0,0,0,0,0,0,0,0,0,0,0,0,0,0,0,0,0,0,0,0,0,0,0,0,0,0,0,0,0,0,0,0,0,0,0,0,0]},{"id":16,"name":"road","type":"tilelayer","x":0,"y":0,"opacity":1,"visible":true,"width":144,"height":96,"data":[0,0,0,0,0,0,0,0,0,0,0,0,0,0,0,0,0,0,0,0,0,0,0,0,0,0,0,0,0,0,0,0,0,0,0,0,0,0,0,0,0,0,0,0,0,0,0,0,0,0,0,0,0,0,0,0,0,0,0,0,0,0,0,0,0,0,0,0,0,0,0,0,0,0,0,0,0,0,0,0,0,0,0,0,0,0,0,0,0,0,0,0,0,0,0,0,0,0,0,0,0,0,0,0,0,0,0,0,0,0,0,0,0,0,0,0,0,0,0,0,0,0,0,0,0,0,0,0,0,0,0,0,0,0,0,0,0,0,0,0,0,0,0,0,0,0,0,0,0,0,0,0,0,0,0,0,0,0,0,0,0,0,0,0,0,0,0,0,0,0,0,0,0,0,0,0,0,0,0,0,0,0,0,0,0,0,0,0,0,0,0,0,0,0,0,0,0,0,0,0,0,0,0,0,0,0,0,0,0,0,0,0,0,0,0,0,0,0,0,0,0,0,0,0,0,0,0,0,0,0,0,0,0,0,0,0,0,0,0,0,0,0,0,0,0,0,0,0,0,0,0,0,0,0,0,0,0,0,0,0,0,0,0,0,0,0,0,0,0,0,0,0,0,0,0,0,0,0,0,0,0,0,0,0,0,0,0,0,0,0,0,0,0,0,0,0,0,0,0,0,0,0,0,0,0,0,0,0,0,0,0,0,0,0,0,0,0,0,0,0,0,0,0,0,0,0,0,0,0,0,0,0,0,0,0,0,0,0,0,0,0,0,0,0,0,0,0,0,0,0,0,0,0,0,0,0,0,0,0,0,0,0,0,0,0,0,0,0,0,0,0,0,0,0,0,0,0,0,0,0,0,0,0,0,0,0,0,0,0,0,0,0,0,0,0,0,0,0,0,0,0,0,0,0,0,0,0,0,0,0,0,0,0,0,0,0,0,0,0,0,0,0,0,0,0,0,0,0,0,0,0,0,0,0,0,0,0,0,0,0,0,0,0,0,0,0,0,0,0,0,0,0,0,0,0,0,0,0,0,0,0,0,0,0,0,0,0,0,0,0,0,0,0,0,0,0,0,0,0,0,0,0,0,0,0,0,0,0,0,0,0,0,0,0,0,0,0,0,0,0,0,0,0,0,0,0,0,0,0,0,0,0,0,0,0,0,0,0,0,0,0,0,0,0,0,0,0,0,0,0,0,0,0,0,0,0,0,0,0,0,0,0,0,0,0,0,0,0,0,0,0,0,0,0,0,0,0,0,0,0,0,0,0,0,0,0,0,0,0,0,0,0,0,0,0,0,0,0,0,0,0,0,0,0,0,0,0,0,0,0,0,0,0,0,0,0,0,0,0,0,0,0,0,0,0,0,0,0,0,0,0,0,0,0,0,0,0,0,0,0,0,0,0,0,0,0,0,0,0,0,0,0,0,0,0,0,0,0,0,0,0,0,0,0,0,0,0,0,0,0,0,0,0,0,0,0,0,0,0,0,0,0,0,0,0,0,0,0,0,0,0,0,0,0,0,0,0,0,0,0,0,0,0,0,0,0,0,0,0,0,0,0,0,0,0,0,0,0,0,0,0,0,0,0,0,0,0,0,0,0,0,0,0,0,0,0,0,0,0,0,0,0,0,0,0,0,0,0,0,0,0,0,0,0,0,0,0,0,0,0,0,0,0,0,0,0,0,0,0,0,0,0,0,0,0,0,0,0,0,0,0,0,0,0,0,0,0,0,0,0,0,0,0,0,0,0,0,0,0,0,0,0,0,0,0,0,0,0,0,0,0,0,0,0,0,0,0,0,0,0,0,0,0,0,0,0,0,0,0,0,0,0,0,0,0,0,0,0,0,0,0,0,0,0,0,0,0,0,0,0,0,0,0,0,0,0,0,0,0,0,0,0,0,0,0,0,0,0,0,0,0,0,0,0,0,0,0,0,0,0,0,0,0,0,0,0,0,0,0,0,0,0,0,0,0,0,0,0,0,0,0,0,0,0,0,0,0,0,0,0,0,0,0,0,0,0,0,0,0,0,0,0,0,0,0,0,0,0,0,0,0,0,0,0,0,0,0,0,0,0,0,0,0,0,0,0,0,0,0,0,0,0,0,0,0,0,0,0,0,0,0,0,0,0,0,0,0,0,0,0,0,0,0,0,0,0,0,0,0,0,0,0,0,0,0,0,0,0,0,0,0,0,0,0,0,0,0,0,0,0,0,0,0,0,0,0,0,0,0,0,0,0,0,0,0,0,0,0,0,0,0,0,0,0,0,0,0,0,0,0,0,0,0,0,0,0,0,0,0,0,0,0,0,0,0,0,0,0,0,0,0,0,0,0,0,0,0,0,0,0,0,0,0,0,0,0,0,0,0,0,0,0,0,0,0,0,0,0,0,0,0,0,0,0,0,0,0,0,0,0,0,0,0,0,0,0,0,0,0,0,0,0,0,0,0,0,0,0,0,0,0,0,0,0,0,0,0,0,0,0,0,0,0,0,0,0,0,0,0,0,0,0,0,0,0,0,0,0,0,0,0,0,0,0,0,0,0,0,0,0,0,0,0,0,0,0,0,0,0,0,0,0,0,0,0,0,0,0,0,0,0,0,0,0,0,0,0,0,0,0,0,0,0,0,0,0,0,0,0,0,0,0,0,0,0,0,0,0,0,0,0,0,0,0,0,0,0,0,0,0,0,0,0,0,0,0,0,0,0,0,0,0,0,0,0,0,0,0,0,0,0,0,0,0,0,0,0,0,0,0,0,0,0,0,0,0,0,0,0,0,0,0,0,0,0,0,0,0,0,0,0,0,0,0,0,0,0,0,0,0,0,0,0,0,0,0,0,0,0,0,0,0,0,0,0,0,0,0,0,0,0,0,0,0,0,0,0,0,0,0,0,0,0,0,0,0,0,0,0,0,0,0,0,0,0,0,0,0,0,0,0,0,0,0,0,0,0,0,0,0,0,0,0,0,0,0,0,0,0,0,0,0,0,0,0,0,0,0,0,0,0,0,0,0,0,0,0,0,0,0,0,0,0,0,0,0,0,0,0,0,0,0,0,0,0,0,0,0,0,0,0,0,0,0,0,0,0,0,0,0,0,0,0,0,0,0,0,0,0,0,0,0,0,0,0,0,0,0,0,0,0,0,0,0,0,0,0,0,0,0,0,0,0,0,0,0,0,0,0,0,0,0,0,0,0,0,0,0,0,0,0,0,0,0,0,0,0,0,0,0,0,0,0,0,0,0,0,0,0,0,0,0,0,0,0,0,0,0,0,0,0,0,0,0,0,0,0,0,0,0,0,0,0,0,0,0,0,0,0,0,0,0,0,0,0,0,0,0,0,0,0,0,0,0,0,0,0,0,0,0,0,0,0,0,0,0,0,0,0,0,0,0,0,0,0,0,0,0,0,0,0,0,0,0,0,0,0,0,0,0,0,0,0,0,0,0,0,0,0,0,961,0,0,0,0,0,0,0,0,0,0,0,0,0,0,0,0,0,0,0,0,0,0,0,0,0,0,0,0,0,0,0,0,0,0,0,0,0,0,0,0,0,0,0,0,0,0,0,0,0,0,0,0,0,0,0,0,0,0,0,0,0,0,0,0,0,0,0,0,0,0,0,0,0,0,0,0,0,0,0,0,0,0,0,0,0,0,0,0,0,0,0,0,0,0,0,0,0,0,0,0,0,0,0,0,0,0,0,0,0,0,0,0,0,0,0,0,0,0,0,0,0,0,0,0,0,0,0,0,0,0,0,0,0,0,0,0,0,0,0,0,0,0,961,0,0,0,0,0,0,0,0,0,0,0,0,0,0,0,0,0,0,0,0,0,0,0,0,0,0,0,0,0,0,0,0,0,0,0,0,0,0,0,0,0,0,0,0,0,0,0,0,0,0,0,0,0,0,0,0,0,0,0,0,0,0,0,0,0,0,0,0,0,0,0,0,0,0,0,0,0,0,0,0,0,0,0,0,0,0,0,0,0,0,0,0,0,0,0,0,0,0,0,0,0,0,0,0,0,0,0,0,0,0,0,0,0,0,0,0,0,0,0,0,0,0,0,0,0,0,0,0,0,0,0,0,0,0,0,0,0,0,0,0,0,0,0,0,0,0,0,0,0,0,0,0,0,0,0,0,0,0,0,0,0,0,0,0,0,0,0,0,0,0,0,0,0,0,0,0,0,0,0,0,0,0,0,0,0,0,0,0,0,0,0,0,0,0,0,0,0,0,0,0,0,0,0,0,0,0,0,0,0,0,0,0,0,0,0,0,0,0,0,0,0,0,0,0,0,0,0,0,0,0,0,0,0,0,0,0,0,0,0,0,0,0,0,0,0,0,0,0,0,0,0,0,0,0,0,0,0,0,0,0,0,0,0,0,0,0,0,0,0,0,0,0,0,0,0,0,0,0,0,0,0,0,0,0,0,961,0,0,0,0,0,0,0,0,0,0,0,0,0,0,0,0,0,0,0,0,0,0,0,0,0,0,0,0,0,0,0,0,0,0,0,0,0,0,0,0,0,0,0,0,0,0,0,0,0,0,0,0,0,0,0,0,0,0,0,0,0,0,0,0,0,0,0,0,0,0,0,0,0,0,0,0,0,0,0,0,0,0,0,0,0,0,0,0,0,0,0,0,0,0,0,0,0,0,0,0,0,0,0,0,0,0,0,0,0,0,0,0,0,0,0,0,0,0,0,0,0,0,0,0,0,0,0,0,0,0,0,0,0,0,0,0,0,0,0,0,0,0,961,0,0,0,0,0,0,0,0,0,0,0,0,0,0,0,0,0,0,0,0,0,0,0,0,0,0,0,0,0,0,0,0,0,0,0,0,0,0,0,0,0,0,0,0,0,0,0,0,0,0,0,0,0,0,0,0,0,0,0,0,0,0,0,0,0,0,0,0,0,0,0,0,0,0,0,0,0,0,0,0,0,0,0,0,0,0,0,0,0,0,0,0,0,0,0,0,0,0,0,0,0,0,0,0,0,0,0,0,0,0,0,0,0,0,0,0,0,0,0,0,0,0,0,0,0,0,0,0,0,0,0,0,0,0,0,0,0,0,0,0,0,0,961,0,0,0,0,0,0,0,0,0,0,0,0,0,0,0,0,0,0,0,0,0,0,0,0,0,0,0,0,0,0,0,0,0,0,0,0,0,0,0,0,0,0,0,0,0,0,0,0,0,0,0,0,0,0,0,0,0,0,0,0,0,0,0,0,0,0,0,0,0,0,0,0,0,0,0,0,0,0,0,0,0,0,0,0,0,0,0,0,0,0,0,0,0,0,0,0,0,0,0,0,0,0,0,0,0,0,0,0,0,0,0,0,0,0,0,0,0,0,0,0,0,0,0,0,0,0,0,0,0,0,0,0,0,0,0,0,0,0,0,0,0,0,961,0,0,0,0,0,0,0,0,0,0,0,0,0,0,0,0,0,0,0,0,0,0,0,0,0,0,0,0,0,0,0,0,0,0,0,0,0,0,0,0,0,0,0,0,0,0,0,0,0,0,0,0,0,0,0,0,0,0,0,0,0,0,0,0,0,0,0,0,0,0,0,0,0,0,0,0,0,0,0,0,0,0,0,0,0,0,0,0,0,0,0,0,0,0,0,0,0,0,0,0,0,0,0,0,0,0,0,0,0,0,0,0,0,0,0,0,0,0,0,0,0,0,0,0,0,0,0,0,0,0,0,0,0,0,0,0,0,0,0,0,0,0,961,0,0,0,0,0,0,0,0,0,0,0,0,0,0,0,0,0,0,0,0,0,0,0,0,0,0,0,0,0,0,0,0,0,0,0,0,0,0,0,0,0,0,0,0,0,0,0,0,0,0,0,0,0,0,0,0,0,0,0,0,0,0,0,0,0,0,0,0,0,0,0,0,0,0,0,0,0,0,0,0,0,0,0,0,0,0,0,0,0,0,0,0,0,0,0,0,0,0,0,0,0,0,0,0,0,0,0,0,0,0,0,0,0,0,0,0,0,0,0,0,0,0,0,0,0,0,0,0,0,0,0,0,0,0,0,0,0,0,0,0,0,0,961,0,0,0,0,0,0,0,0,0,0,0,0,0,0,0,0,0,0,0,0,0,0,0,0,0,0,0,0,0,0,0,0,0,0,0,0,0,0,0,0,0,0,0,0,0,0,0,0,0,0,0,0,0,0,0,0,0,0,0,0,0,0,0,0,0,0,0,0,0,0,0,0,0,0,0,0,0,0,0,0,0,0,0,0,0,0,0,0,0,0,0,0,0,0,0,0,0,0,0,0,0,0,0,0,0,0,0,0,0,0,0,0,0,0,0,0,0,0,0,0,0,0,0,0,0,0,0,0,0,0,0,0,0,0,0,0,0,0,0,0,0,0,961,0,0,0,0,0,0,0,0,0,0,0,0,0,0,0,0,0,0,0,0,0,0,0,0,0,0,0,0,0,0,0,0,0,0,0,0,0,0,0,0,0,0,0,0,0,0,0,0,0,0,0,0,0,0,0,0,0,0,0,0,0,0,0,0,0,0,0,0,0,0,0,0,0,0,0,0,0,0,0,0,0,0,0,0,0,0,0,0,0,0,0,0,0,0,0,0,0,0,0,0,0,0,0,0,0,0,0,0,0,0,0,0,0,0,0,0,0,0,0,0,0,0,0,0,0,0,0,0,0,0,0,0,0,0,0,0,0,0,0,0,0,0,961,0,0,0,0,0,0,0,0,0,0,0,0,0,0,0,0,0,0,0,0,0,0,0,0,0,0,0,0,0,0,0,0,0,0,0,0,0,0,0,0,0,0,0,0,0,0,0,0,0,0,0,0,0,0,0,0,0,0,0,0,0,0,0,0,0,0,0,0,0,0,0,0,0,0,0,0,0,0,0,0,0,0,0,0,0,0,0,0,0,0,0,0,0,0,0,0,0,0,0,0,0,0,0,0,0,0,0,0,0,0,0,0,0,0,0,0,0,0,0,0,0,0,0,0,0,0,0,0,0,0,0,0,0,0,0,0,0,0,0,0,0,0,961,0,0,0,0,0,0,0,0,0,0,0,0,0,0,0,0,0,0,0,0,0,0,0,0,0,0,0,0,0,0,0,0,0,0,0,0,0,0,0,0,0,0,0,0,0,0,0,0,0,0,0,0,0,0,0,0,0,0,0,0,0,0,0,0,0,0,0,0,0,0,0,0,0,0,0,0,0,0,0,0,0,0,0,0,0,0,0,0,0,0,0,0,0,0,0,0,0,0,0,0,0,0,0,0,0,0,0,0,0,0,0,0,0,0,0,0,0,0,0,0,0,0,0,0,0,0,0,0,0,0,0,0,0,0,0,0,0,0,0,0,0,0,966,0,0,0,0,0,0,0,0,0,0,0,0,0,0,0,0,0,0,0,0,0,0,0,0,0,0,0,0,0,0,0,0,0,0,0,0,0,0,0,0,0,0,0,0,0,0,0,0,0,0,0,0,0,0,0,0,0,0,0,0,0,0,0,0,0,0,0,0,0,0,0,0,0,0,0,0,0,0,0,0,0,0,0,0,0,0,0,0,0,0,0,0,0,0,0,0,0,0,0,0,0,0,0,0,0,0,0,0,0,0,0,0,0,0,0,0,0,0,0,0,0,0,0,0,0,0,0,0,0,0,0,0,0,0,0,0,0,0,0,0,0,0,968,975,0,0,0,0,0,0,0,0,0,0,0,0,0,0,0,0,0,0,0,0,0,0,0,0,0,0,0,0,0,0,0,0,0,0,0,0,0,0,0,0,0,0,0,0,0,0,0,0,0,0,0,0,0,0,0,0,0,0,0,0,0,0,0,0,0,0,0,0,0,0,0,0,0,0,0,0,0,0,0,0,0,0,0,0,0,0,0,0,0,0,0,0,0,0,0,0,0,0,0,0,0,0,0,0,0,0,0,0,0,0,0,0,0,0,0,0,0,0,0,0,0,0,0,0,0,0,0,0,0,0,0,0,0,0,0,0,0,0,0,0,0,968,975,0,0,0,0,0,0,0,0,0,0,0,0,0,0,0,0,0,0,0,0,0,0,0,0,0,0,0,0,0,0,0,0,0,0,0,0,0,0,0,0,0,0,0,0,0,0,0,0,0,0,0,0,0,0,0,0,0,0,0,0,0,0,0,0,0,0,0,0,0,0,0,0,0,0,0,0,0,0,0,0,0,0,0,0,0,0,0,0,0,0,0,0,0,0,0,0,0,0,0,0,0,0,0,0,0,0,0,0,0,0,0,0,0,0,0,0,0,0,0,0,0,0,0,0,0,0,0,0,0,0,0,0,0,0,0,0,0,0,0,0,0,0,962,0,0,0,0,0,0,0,0,0,0,0,0,0,0,0,0,0,0,0,0,0,0,0,0,0,0,0,0,0,0,0,0,0,0,0,0,0,0,0,0,0,0,0,0,0,0,0,0,0,0,0,0,0,0,0,0,0,0,0,0,0,0,0,0,0,0,0,0,0,0,0,0,0,0,0,0,0,0,0,0,0,0,0,0,0,0,0,0,0,0,0,0,0,0,0,0,0,0,0,0,0,0,0,0,0,0,0,0,0,0,0,0,0,0,0,0,0,0,0,0,0,0,0,0,0,0,0,0,0,0,0,0,0,0,0,0,0,0,0,0,0,0,961,0,0,0,0,0,0,0,0,0,0,0,0,0,0,0,0,0,0,0,0,0,0,0,0,0,0,0,0,0,0,0,0,0,0,0,0,0,0,0,0,0,0,0,0,0,0,0,0,0,0,0,0,0,0,0,0,0,0,0,0,0,0,0,0,0,0,0,0,0,0,0,0,0,0,0,0,0,0,0,0,0,0,0,0,0,0,0,0,0,0,0,0,0,0,0,0,0,0,0,0,0,0,0,0,0,0,0,0,0,0,0,0,0,0,0,0,0,0,0,0,0,0,0,0,0,0,0,0,0,0,0,0,0,0,0,0,0,0,0,0,0,0,4758,0,0,0,0,0,0,0,0,0,0,0,0,0,0,0,0,0,0,0,0,0,0,0,0,0,0,0,0,0,0,0,0,0,0,0,0,0,0,0,0,0,0,0,0,0,0,0,0,0,0,0,0,0,0,0,0,0,0,0,0,0,0,0,0,0,0,0,0,0,0,0,0,0,0,0,0,0,0,0,0,0,0,0,0,0,0,0,0,0,0,0,0,0,0,0,0,0,0,0,0,0,0,0,0,0,0,0,0,0,0,0,0,0,0,0,0,0,0,0,0,0,0,0,0,0,0,0,0,0,0,0,0,0,0,0,0,0,0,0,0,0,0,0,4759,0,0,0,0,0,0,0,0,0,0,0,0,0,0,0,0,0,0,0,0,0,0,0,0,0,0,0,0,0,0,0,0,0,0,0,0,0,0,0,0,0,0,0,0,0,0,0,0,0,0,0,0,0,0,0,0,0,0,0,0,0,0,0,0,0,0,0,0,0,0,0,0,0,0,0,0,0,0,0,0,0,0,0,0,0,0,0,0,0,0,0,0,0,0,0,0,0,0,0,0,0,0,0,0,0,0,0,0,0,0,0,0,0,0,0,0,0,0,0,0,0,0,0,0,0,0,0,0,0,0,0,0,0,0,0,0,0,0,0,0,0,0,0,4759,0,0,0,0,0,0,0,0,0,0,0,0,0,0,0,0,0,0,0,0,0,0,0,0,0,0,0,0,0,0,0,0,0,0,0,0,0,0,0,0,0,0,0,0,0,0,0,0,0,0,0,0,0,0,0,0,0,0,0,0,0,0,0,0,0,0,0,0,0,0,0,0,0,0,0,0,0,0,0,0,0,0,0,0,0,0,0,0,0,0,0,0,0,0,0,0,0,0,0,0,0,0,0,0,0,0,0,0,0,0,0,0,0,0,0,0,0,0,0,0,0,0,0,0,0,0,0,0,0,0,0,0,0,0,0,0,0,0,0,0,0,0,0,4759,0,0,0,0,0,0,0,0,0,0,0,0,0,0,0,0,0,0,0,0,0,0,0,0,0,0,0,0,0,0,0,0,0,0,0,0,0,0,0,0,0,0,0,0,0,0,0,0,0,0,0,0,0,0,0,0,0,0,0,0,0,0,0,0,0,0,0,0,0,0,0,0,0,0,0,0,0,0,0,0,0,0,0,0,0,0,0,0,0,0,0,0,0,0,0,0,0,0,0,0,0,0,0,0,0,0,0,0,0,0,0,0,0,0,0,0,0,0,0,0,0,0,0,0,0,0,0,0,0,0,0,0,0,0,0,0,0,0,0,0,0,0,0,4759,0,0,0,0,0,0,0,0,0,0,0,0,0,0,0,0,0,0,0,0,0,0,0,0,0,0,0,0,961,0,0,0,0,0,0,0,0,0,0,0,0,0,0,0,0,0,0,0,0,0,0,0,0,0,0,0,0,0,0,0,0,0,0,0,0,0,0,0,0,0,0,0,0,0,0,0,0,0,0,0,0,0,0,0,0,0,0,0,0,0,0,0,0,0,0,0,0,0,0,0,0,0,0,0,0,0,0,0,0,0,0,0,0,0,0,0,0,0,0,0,0,0,0,0,0,0,0,0,0,0,0,0,0,0,0,0,0,0,0,0,0,0,0,4759,0,0,0,0,0,0,0,0,0,0,0,0,0,0,0,0,0,0,0,0,0,0,0,0,0,0,0,966,0,0,0,0,0,0,0,0,0,0,0,0,0,0,0,0,0,0,0,0,0,0,0,0,0,0,0,0,0,0,0,0,0,0,0,0,0,0,0,0,0,0,0,0,0,0,0,0,0,0,0,0,0,0,0,0,0,0,0,0,0,0,0,0,0,0,0,0,0,0,0,0,0,0,0,0,0,0,0,0,0,0,0,0,0,0,0,0,0,0,0,0,0,0,0,0,0,0,0,0,0,0,0,0,0,0,0,0,0,0,0,0,0,0,0,967,0,0,0,0,0,0,0,0,0,0,0,0,0,0,0,0,0,0,0,0,0,0,0,0,0,0,0,4802,0,0,0,0,0,0,0,0,0,0,0,0,0,0,0,0,0,0,0,0,0,0,0,0,0,0,0,0,0,0,0,0,0,0,0,0,0,0,0,0,0,0,0,0,0,0,0,0,0,0,0,0,0,0,0,0,0,0,0,0,0,0,0,0,0,0,0,0,0,0,0,0,0,0,0,0,0,0,0,0,0,0,0,0,0,0,0,0,0,0,0,0,0,0,0,0,0,0,0,0,0,0,0,0,0,0,0,0,0,0,0,0,0,0,0,962,0,0,0,0,0,0,0,0,0,0,0,0,0,0,0,0,0,0,0,0,0,0,0,0,0,0,4806,0,0,0,0,0,0,0,0,0,0,0,0,0,0,0,0,0,0,0,0,0,0,0,0,0,0,0,0,0,0,0,0,0,0,0,0,0,0,0,0,0,0,0,0,0,0,0,0,0,0,0,0,0,0,0,0,0,0,0,0,0,0,0,0,0,0,0,0,0,0,0,0,0,0,0,0,0,0,0,0,0,0,0,0,0,0,0,0,0,0,0,0,0,0,0,0,0,0,0,0,0,0,0,0,0,0,0,0,0,0,0,0,0,0,0,966,0,0,0,0,0,0,0,0,0,0,0,0,0,0,0,0,0,0,0,0,0,0,0,0,0,0,0,4802,0,0,0,0,0,0,0,0,0,0,0,0,0,0,0,0,0,0,0,0,0,0,0,0,0,0,0,0,0,0,0,0,0,0,0,0,0,0,0,0,0,0,0,0,0,0,0,0,0,0,0,0,0,0,0,0,0,0,0,0,0,0,0,0,0,0,0,0,0,0,0,0,0,0,0,0,0,0,0,0,0,0,0,0,0,0,0,0,0,0,0,0,0,0,0,0,0,0,0,0,0,0,0,0,0,0,0,0,0,0,0,0,0,0,0,967,0,0,0,0,0,0,0,0,0,0,0,0,0,0,0,0,0,0,0,0,0,0,0,0,0,0,961,0,0,0,0,0,0,0,0,0,0,0,0,0,0,0,0,0,0,0,0,0,0,0,0,0,0,0,0,0,0,0,0,0,0,0,0,0,0,0,0,0,0,0,0,0,0,0,0,0,0,0,0,0,0,0,0,0,0,0,0,0,0,0,0,0,0,0,0,0,0,0,0,0,0,0,0,0,0,0,0,0,0,0,0,0,0,0,0,0,0,0,0,0,0,0,0,0,0,0,0,0,0,0,0,0,0,0,0,0,0,0,0,0,0,0,0,967,0,0,0,0,0,0,0,0,0,0,0,0,0,0,0,0,0,0,0,0,0,0,0,0,968,974,0,0,0,0,0,0,0,0,0,0,0,0,0,0,0,0,0,0,0,0,0,0,0,0,0,0,0,0,0,0,0,0,0,0,0,0,0,0,0,0,0,0,0,0,0,0,0,0,0,0,0,0,0,0,0,0,0,0,0,0,0,0,0,0,0,0,0,0,0,0,0,0,0,0,0,0,0,0,0,0,0,0,0,0,0,0,0,0,0,0,0,0,0,0,0,0,0,0,0,0,0,0,0,0,0,0,0,0,0,0,0,0,0,0,0,0,0,962,0,0,0,0,0,0,0,0,0,0,0,0,0,0,0,0,0,0,0,0,0,0,0,968,975,0,0,0,0,0,0,0,0,0,0,0,0,0,0,0,0,0,0,0,0,0,0,0,0,0,0,0,0,0,0,0,0,0,0,0,0,0,0,0,0,0,0,0,0,0,0,0,0,0,0,0,0,0,0,0,0,0,0,0,0,0,0,0,0,0,0,0,0,0,0,0,0,0,0,0,0,0,0,0,0,0,0,0,0,0,0,0,0,0,0,0,0,0,0,0,0,0,0,0,0,0,0,0,0,0,0,0,0,0,0,0,0,0,0,0,0,0,966,0,0,0,0,0,0,0,0,0,0,0,0,0,0,0,0,0,0,0,0,0,0,0,4755,4767,0,0,0,0,0,0,0,0,0,0,0,0,0,0,0,0,0,0,0,0,0,0,0,0,0,0,0,0,0,0,0,0,0,0,0,0,0,0,0,0,0,0,0,0,0,0,0,0,0,0,0,0,0,0,0,0,0,0,0,0,0,0,0,0,0,0,0,0,0,0,0,0,0,0,0,0,0,0,0,0,0,0,0,0,0,0,0,0,0,0,0,0,0,0,0,0,0,0,0,0,0,0,0,0,0,0,0,0,0,0,0,0,0,0,0,0,0,0,967,0,0,0,0,0,0,0,0,0,0,0,0,0,0,0,0,0,0,0,0,0,0,4753,0,0,0,0,0,0,0,0,0,0,0,0,0,0,0,0,0,0,0,0,0,0,0,0,0,0,0,0,0,0,0,0,0,0,0,0,0,0,0,0,0,0,0,0,0,0,0,0,0,0,0,0,0,0,0,0,0,0,0,0,0,0,0,0,0,0,0,0,0,0,0,0,0,0,0,0,0,0,0,0,0,0,0,0,0,0,0,0,0,0,0,0,0,0,0,0,0,0,0,0,0,0,0,0,0,0,0,0,0,0,0,0,0,0,0,0,0,0,0,0,962,0,0,0,0,0,0,0,0,0,0,0,0,0,0,0,0,0,0,0,0,4760,4766,0,0,0,0,0,0,0,0,0,0,0,0,0,0,0,0,0,0,0,0,0,0,0,0,0,0,0,0,0,0,0,0,0,0,0,0,0,0,0,0,0,0,0,0,0,0,0,0,0,0,0,0,0,0,0,0,0,0,0,0,0,0,0,0,0,0,0,0,0,0,0,0,0,0,0,0,0,0,0,968,974,0,0,0,0,0,0,0,0,0,0,0,0,0,0,0,0,0,0,0,0,0,0,0,0,0,0,0,0,0,0,0,0,0,0,0,0,0,0,0,961,0,0,0,0,0,0,0,0,0,0,0,0,0,0,0,0,0,0,0,0,4760,4767,0,0,0,0,0,0,0,0,0,0,0,0,0,0,0,0,0,0,0,0,0,0,0,0,0,0,0,0,0,0,0,0,0,0,0,0,0,0,0,0,0,0,0,0,0,0,0,0,0,0,0,0,0,0,0,0,0,0,0,0,0,0,0,0,0,0,0,0,0,0,0,0,0,0,0,0,0,0,0,0,4754,0,963,984,989,974,0,0,0,0,0,0,0,0,0,0,0,0,0,0,0,0,0,0,0,0,0,0,0,0,0,0,0,0,0,0,0,0,0,0,0,0,0,0,0,0,0,0,0,0,0,0,0,0,0,0,0,0,0,0,0,4755,975,0,0,0,0,0,0,0,0,0,0,0,0,0,0,0,0,0,0,0,0,0,0,0,0,0,0,0,0,0,0,0,0,0,0,0,0,0,0,0,0,0,0,0,0,0,0,0,0,0,0,0,0,0,0,0,0,0,0,0,0,0,0,0,0,0,0,0,0,0,0,0,0,0,0,0,0,0,0,0,0,0,0,0,0,0,0,0,0,0,0,0,0,0,0,0,0,0,0,0,0,0,0,0,0,0,0,0,0,0,0,0,0,0,0,0,0,0,0,0,0,0,0,0,0,0,0,0,0,0,0,0,0,0,0,0,0,0,0,0,963,4768,974,0,0,0,0,0,0,0,0,0,0,0,0,0,0,0,0,0,0,0,0,0,0,0,0,0,0,0,0,0,0,0,0,0,0,0,0,0,0,0,0,0,0,0,0,0,0,0,0,0,0,0,0,0,0,0,0,0,0,0,0,0,0,0,0,0,0,0,0,0,0,0,0,0,0,0,0,0,0,0,0,0,0,0,4758,0,0,0,0,0,0,0,0,963,978,996,976,976,976,979,0,0,0,0,0,0,0,0,0,0,0,0,0,0,0,0,0,0,0,0,0,0,0,0,0,4753,0,0,0,0,0,0,0,0,0,0,0,4755,4768,4768,4768,974,0,0,0,0,0,0,0,0,0,0,0,0,0,0,0,0,0,0,0,0,0,0,0,0,0,0,0,0,0,0,0,0,0,0,0,0,0,0,0,0,0,0,0,0,0,0,0,0,0,0,0,0,0,0,0,0,0,0,0,0,0,0,0,0,0,0,0,0,0,0,0,0,0,0,0,0,0,0,0,0,0,0,0,0,0,0,4759,0,0,0,0,0,0,0,0,0,0,0,0,0,0,964,976,976,976,976,976,976,976,979,0,0,0,0,0,0,0,0,0,0,0,0,0,0,0,0,4758,0,0,0,0,4763,0,4768,4768,4768,4768,4768,4766,0,0,0,0,0,0,0,0,0,0,0,0,0,0,0,0,0,0,0,0,0,0,0,0,0,0,0,0,0,0,0,0,0,0,0,0,0,0,0,0,0,0,0,0,0,0,0,0,0,0,0,0,0,0,0,0,0,0,0,0,0,0,0,0,0,0,0,0,0,0,0,0,0,0,0,0,0,0,0,0,0,0,0,0,0,0,0,0,0,0,0,967,0,0,0,0,0,0,0,0,0,0,0,0,0,0,0,0,0,0,0,0,0,0,964,976,974,0,963,984,987,0,0,0,0,0,0,4760,4768,4768,4768,4769,4768,4768,4768,4768,4770,0,0,0,0,0,0,0,0,0,0,0,0,0,0,0,0,0,0,0,0,0,0,0,0,0,0,0,0,0,0,0,0,0,0,0,0,0,0,0,0,0,0,0,0,0,0,0,0,0,0,0,0,0,0,0,0,0,0,0,0,0,0,0,0,0,0,0,0,0,0,0,0,0,0,0,0,0,0,0,0,0,0,0,0,0,0,0,0,0,0,0,0,0,0,0,0,0,0,967,0,0,0,0,0,0,0,0,0,0,0,0,0,0,0,0,0,0,0,0,0,0,0,0,0,0,0,970,996,976,976,976,4768,4768,4768,4767,0,0,0,0,0,0,0,0,0,0,0,0,0,0,0,0,0,0,0,0,0,0,0,0,0,0,0,0,0,0,0,0,0,0,0,0,0,0,0,0,0,0,0,0,0,0,0,0,0,0,0,0,0,0,0,0,0,0,0,0,0,0,0,0,0,0,0,0,0,0,0,0,0,0,0,0,0,0,0,0,0,0,0,0,0,0,0,0,0,0,0,0,0,0,0,0,0,0,0,0,0,0,0,0,0,0,0,967,0,0,0,0,0,0,0,0,0,0,0,0,0,0,0,0,0,0,0,0,0,0,0,0,0,0,0,988,0,0,0,0,0,0,0,0,0,0,0,0,0,0,0,0,0,0,0,0,0,0,0,0,0,0,0,0,0,0,0,0,0,0,0,0,0,0,0,0,0,0,0,0,0,0,0,0,0,0,0,0,0,0,0,0,0,0,0,0,0,0,0,0,0,0,0,0,0,0,0,0,0,0,0,0,0,0,0,0,0,0,0,0,0,0,0,0,0,0,0,0,0,0,0,0,0,0,0,0,0,0,0,0,0,0,0,0,0,0,0,0,0,0,0,4855,0,0,0,0,0,0,0,0,0,0,0,0,0,0,0,0,0,0,0,0,0,0,0,0,0,0,0,995,0,0,0,0,0,0,0,0,0,0,0,0,0,0,0,0,0,0,0,0,0,0,0,0,0,0,0,0,0,0,0,0,0,0,0,0,0,0,0,0,0,0,0,0,0,0,0,0,0,0,0,0,0,0,0,0,0,0,0,0,0,0,0,0,0,0,0,0,0,0,0,0,0,0,0,0,0,0,0,0,0,0,0,0,0,0,0,0,0,0,0,0,0,0,0,0,0,0,0,0,0,0,0,0,0,0,0,0,0,0,0,0,0,0,0,4855,0,0,0,0,0,0,0,0,0,0,0,0,0,0,0,0,0,0,0,0,0,0,0,0,0,0,0,0,0,0,0,0,0,0,0,0,0,0,0,0,0,0,0,0,0,0,0,0,0,0,0,0,0,0,0,0,0,0,0,0,0,0,0,0,0,0,0,0,0,0,0,0,0,0,0,0,0,0,0,0,0,0,0,0,0,0,0,0,0,0,0,0,0,0,0,0,0,0,0,0,0,0,0,0,0,0,0,0,0,0,0,0,0,0,0,0,0,0,0,0,0,0,0,0,0,0,0,0,0,0,0,0,0,0,0,0,0,0,0,0,0,0,0,4855,0,0,0,0,0,0,0,0,0,0,0,0,0,0,0,0,0,0,0,0,0,0,0,0,0,0,0,0,0,0,0,0,0,0,0,0,0,0,0,0,0,0,0,0,0,0,0,0,0,0,0,0,0,0,0,0,0,0,0,0,0,0,0,0,0,0,0,0,0,0,0,0,0,0,0,0,0,0,0,0,0,0,0,0,0,0,0,0,0,0,0,0,0,0,0,0,0,0,0,0,0,0,0,0,0,0,0,0,0,0,0,0,0,0,0,0,0,0,0,0,0,0,0,0,0,0,0,0,0,0,0,0,0,0,0,0,0,0,0,0,0,0,0,4855,0,0,0,0,0,0,0,0,0,0,0,0,0,0,0,0,0,0,0,0,0,0,0,0,0,0,0,966,0,0,0,0,0,0,0,0,0,0,0,0,0,0,0,0,0,0,0,0,0,0,0,0,0,0,0,0,0,0,0,0,0,0,0,0,0,0,0,0,0,0,0,0,0,0,0,0,0,0,0,0,0,0,0,0,0,0,0,0,0,0,0,0,0,0,0,0,0,0,0,0,0,0,0,0,0,0,0,0,0,0,0,0,0,0,0,0,0,0,0,0,0,0,0,0,0,0,0,0,0,0,0,0,0,0,0,0,0,0,0,0,0,0,0,4855,0,0,0,0,0,0,0,0,0,0,0,0,0,0,0,0,0,0,0,0,0,0,0,0,0,0,0,967,0,0,0,0,0,0,0,0,0,0,0,0,0,0,0,0,0,0,0,0,0,0,0,0,0,0,0,0,0,0,0,0,0,0,0,0,0,0,0,0,0,0,0,0,0,0,0,0,0,0,0,0,0,0,0,0,0,0,0,0,0,0,0,0,0,0,0,0,0,0,0,0,0,0,0,0,0,0,0,0,0,0,0,0,0,0,0,0,0,0,0,0,0,0,0,0,0,0,0,0,0,0,0,0,0,0,0,0,0,0,0,0,0,0,0,967,0,0,0,0,0,0,0,0,0,0,0,0,0,0,0,0,0,0,0,0,0,0,0,0,0,0,0,967,0,0,0,0,0,0,0,0,0,0,0,0,0,0,0,0,0,0,0,0,0,0,0,0,0,0,0,0,0,0,0,0,0,0,0,0,0,0,0,0,0,0,0,0,0,0,0,0,0,0,0,0,0,0,0,0,0,0,0,0,0,0,0,0,0,0,0,0,0,0,0,0,0,0,0,0,0,0,0,0,0,0,0,0,0,0,0,0,0,0,0,0,0,0,0,0,0,0,0,0,0,0,0,0,0,0,0,0,0,0,0,0,0,0,0,967,0,0,0,0,0,0,0,0,0,0,0,0,0,0,0,0,0,0,0,0,0,0,0,0,0,0,0,4711,0,0,0,0,0,0,0,0,0,0,0,0,0,0,0,0,0,0,0,0,0,0,0,0,0,0,0,0,0,0,0,0,0,0,0,0,0,0,0,0,0,0,0,0,0,0,0,0,0,0,0,0,0,0,0,0,0,0,0,0,0,0,0,0,0,0,0,0,0,0,0,0,0,0,0,0,0,0,0,0,0,0,0,0,0,0,0,0,0,0,0,0,0,0,0,0,0,0,0,0,0,0,0,0,0,0,0,0,0,0,0,0,0,0,0,962,0,0,0,0,0,0,0,0,0,0,0,0,0,0,0,0,0,0,0,0,0,0,0,0,0,0,0,4711,0,0,0,0,0,0,0,0,0,0,0,0,0,0,0,0,0,0,0,0,0,0,0,0,0,0,0,0,0,0,0,0,0,0,0,0,0,0,0,0,0,0,0,0,0,0,0,0,0,0,0,0,0,0,0,0,0,0,0,0,0,0,0,0,0,0,0,0,0,0,0,0,0,0,0,0,0,0,0,0,0,0,0,0,0,0,0,0,0,0,0,0,0,0,0,0,0,0,0,0,0,0,0,0,0,0,0,0,0,0,0,0,0,0,961,0,0,0,0,0,0,0,0,0,0,0,0,0,0,0,0,0,0,0,0,0,0,0,0,0,0,0,0,4708,4723,0,0,0,0,0,0,0,0,0,0,0,0,0,0,0,0,0,0,0,0,0,0,0,0,0,0,0,0,0,0,0,0,0,0,0,0,0,0,0,0,0,0,0,0,0,0,0,0,0,0,0,0,0,0,0,0,0,0,0,0,0,0,0,0,0,0,0,0,0,0,0,0,0,0,0,0,0,0,0,0,0,0,0,0,0,0,0,0,0,0,0,0,0,0,0,0,0,0,0,0,0,0,0,0,0,0,0,0,0,0,0,968,974,0,0,0,0,0,0,0,0,0,0,0,0,0,0,0,0,0,0,0,0,0,0,0,0,0,0,0,0,0,0,4711,0,0,0,0,0,0,0,0,0,0,0,0,0,0,0,0,0,0,0,0,0,0,0,0,0,0,0,0,0,0,0,0,0,0,0,0,0,0,0,0,0,0,0,0,0,0,0,0,0,0,0,0,0,0,0,0,0,0,0,0,0,0,0,0,0,0,0,0,0,0,0,0,0,0,0,0,0,0,0,0,0,0,0,0,0,0,0,0,0,0,0,0,0,0,0,0,0,0,0,0,0,0,0,0,0,0,0,0,0,0,963,975,0,0,0,0,0,0,0,0,0,0,0,0,0,0,0,0,0,0,0,0,0,0,0,0,0,0,0,0,0,0,0,4711,0,0,0,0,0,0,0,0,0,0,0,0,0,0,0,0,0,0,0,0,0,0,0,0,0,0,0,0,0,0,0,0,0,0,0,0,0,0,0,0,0,0,0,0,0,0,0,0,0,0,0,0,0,0,0,0,0,0,0,0,0,0,0,0,0,0,0,0,0,0,0,0,0,0,0,0,0,0,0,0,0,0,0,0,0,0,0,0,0,0,0,0,0,0,0,0,0,0,0,0,0,0,0,0,0,0,0,0,0,961,0,0,0,0,0,0,0,0,0,0,0,0,0,0,0,0,0,0,0,0,0,0,0,0,0,0,0,0,0,0,0,0,0,4711,0,0,0,0,0,0,0,0,0,0,0,0,0,0,0,0,0,0,0,0,0,0,0,0,0,0,0,0,0,0,0,0,0,0,0,0,0,0,0,0,0,0,0,0,0,0,0,0,0,0,0,0,0,0,0,0,0,0,0,0,0,0,0,0,0,0,0,0,0,0,0,0,0,0,0,0,0,0,0,0,0,0,0,0,0,0,0,0,0,0,0,0,0,0,0,0,0,0,0,0,0,0,0,0,0,0,0,0,4897,0,0,0,0,0,0,0,0,0,0,0,0,0,0,0,0,0,0,0,0,0,0,0,0,0,0,0,0,0,0,0,0,0,0,4708,4723,0,0,0,0,0,0,0,0,0,0,0,0,0,0,0,0,0,0,0,0,0,0,0,0,0,0,0,0,0,0,0,0,0,0,0,0,0,0,0,0,0,0,0,0,0,0,0,0,0,0,0,0,0,0,0,0,0,0,0,0,0,0,0,0,0,0,0,0,0,0,0,0,0,0,0,0,0,0,0,0,0,0,0,0,0,0,0,0,0,0,0,0,0,0,0,0,0,0,0,0,0,0,0,0,0,0,4897,0,0,0,0,0,0,0,0,0,0,0,0,0,0,0,0,0,0,0,0,0,0,0,0,0,0,0,0,0,0,0,0,0,0,0,0,4711,0,0,0,0,0,0,0,0,0,0,0,0,0,0,0,0,0,0,0,0,0,0,0,0,0,0,0,0,0,0,0,0,0,0,0,0,0,0,0,0,0,0,0,0,0,0,0,0,0,0,0,0,0,0,0,0,0,0,0,0,0,0,0,0,0,0,0,0,0,0,0,0,0,0,0,0,0,0,0,0,0,0,0,0,0,0,0,0,0,0,0,0,0,0,0,0,0,0,0,0,0,0,0,0,0,961,0,0,0,0,0,0,0,0,0,0,0,0,0,0,0,0,0,0,0,0,0,0,0,0,0,0,0,0,0,0,0,0,0,0,0,0,0,4711,0,0,0,0,0,0,0,0,0,0,0,0,0,0,0,0,0,0,0,0,0,0,0,0,0,0,0,0,0,0,0,0,0,0,0,0,0,0,0,0,0,0,0,0,0,0,0,0,0,0,0,0,0,0,0,0,0,0,0,0,0,0,0,0,0,0,0,0,0,0,0,0,0,0,0,0,0,0,0,0,0,0,0,0,0,0,0,0,0,0,0,0,0,0,0,0,0,0,0,0,0,0,0,0,961,0,0,0,0,0,0,0,0,0,0,0,0,0,0,0,0,0,0,0,0,0,0,0,0,0,0,0,0,0,0,0,0,0,0,0,0,0,0,4711,0,0,0,0,0,0,0,0,0,0,0,0,0,0,0,0,0,0,0,0,0,0,0,0,0,0,0,0,0,0,0,0,0,0,0,0,0,0,0,0,0,0,0,0,0,0,0,0,0,0,0,0,0,0,0,0,0,0,0,0,0,0,0,0,0,0,0,0,0,0,0,0,0,0,0,0,0,0,0,0,0,0,0,0,0,0,0,0,0,0,0,0,0,0,0,0,0,0,0,0,0,0,0,961,0,0,0,0,0,0,0,0,0,0,0,0,0,0,0,0,0,0,0,0,0,0,0,0,0,0,0,0,0,0,0,0,0,0,0,0,0,0,0,4711,0,0,0,0,0,0,0,0,0,0,0,0,0,0,0,0,0,0,0,0,0,0,0,0,0,0,0,0,0,0,0,0,0,0,0,0,0,0,0,0,0,0,0,0,0,0,0,0,4741,4741,4741,4740,4720,979,0,0,0,0,0,0,0,0,0,0,0,0,0,0,0,0,0,0,0,0,0,0,0,0,0,0,0,0,0,0,0,0,0,0,0,0,0,0,0,0,0,0,0,0,0,0,0,0,0,0,0,0,0,0,0,0,0,0,0,0,0,0,0,0,0,0,0,0,0,0,0,0,0,0,0,0,0,0,0,0,0,0,0,0,0,0,0,0,0,4711,0,0,0,0,0,0,0,0,0,0,0,0,0,0,0,0,0,0,0,0,0,0,0,0,0,0,0,0,0,0,0,0,0,0,0,0,0,0,0,0,0,0,0,0,4709,4741,4739,0,0,0,0,0,0,962,0,0,0,0,0,0,0,0,0,0,0,0,0,0,0,0,0,0,0,0,0,0,0,0,0,0,0,0,0,0,0,0,0,0,0,0,0,0,0,0,0,0,0,0,0,0,0,0,0,0,0,0,0,0,0,0,0,0,0,0,0,0,0,0,0,0,0,0,0,0,0,0,0,0,0,0,0,0,0,0,0,0,0,0,0,0,0,0,0,4711,0,0,0,0,0,0,0,0,0,0,0,0,0,0,0,0,0,0,0,0,0,0,0,0,0,0,0,0,0,0,0,0,0,0,0,0,0,0,0,4741,4741,4739,0,0,0,0,0,0,0,0,0,0,0,0,963,979,0,0,0,0,0,0,0,0,0,0,0,0,0,0,0,0,0,0,0,0,0,0,0,0,0,0,0,0,0,0,0,0,0,0,0,0,0,0,0,0,0,0,0,0,0,0,0,0,0,0,0,0,0,0,0,0,0,0,0,0,0,0,0,0,0,0,0,0,0,0,0,0,0,0,0,0,0,0,0,0,0,0,0,0,0,0,0,4711,0,0,0,0,0,0,0,0,0,0,0,0,0,0,0,0,0,0,0,0,0,0,0,0,0,0,0,0,0,0,0,0,0,0,0,965,997,995,0,0,0,0,0,0,0,0,0,0,0,0,0,0,0,0,0,964,974,0,0,0,0,0,0,0,0,0,0,0,0,0,0,0,0,0,0,0,0,0,0,0,0,0,0,0,0,0,0,0,0,0,0,0,0,0,0,0,0,0,0,0,0,0,0,0,0,0,0,0,0,0,0,0,0,0,0,0,0,0,0,0,0,0,0,0,0,0,0,0,0,0,0,0,0,0,0,0,0,0,0,0,0,0,0,4706,0,0,0,0,0,0,0,0,0,0,0,0,0,0,0,0,0,0,0,0,0,0,0,0,0,0,0,0,0,0,0,0,0,0,0,0,0,0,0,0,0,0,0,0,0,0,0,0,0,0,0,0,0,0,0,0,0,961,0,0,0,0,0,0,0,0,0,0,0,0,0,0,0,0,0,0,0,0,0,0,0,0,0,0,0,0,0,0,0,0,0,0,0,0,0,0,0,0,0,0,0,0,0,0,0,0,0,0,0,0,0,0,0,0,0,0,0,0,0,0,0,0,0,0,0,0,0,0,0,0,0,0,0,0,0,0,0,0,0,0,0,0,0,0,0,0,0,0,0,0,0,0,0,0,0,0,0,0,0,0,0,0,0,0,0,0,0,0,0,0,0,0,0,0,0,0,0,0,0,0,0,0,0,0,0,0,0,0,0,0,0,0,0,0,0,0,0,0,0,0,0,0,961,0,0,0,0,0,0,0,0,0,0,0,0,0,0,0,0,0,0,0,0,0,0,0,0,0,0,0,0,0,0,0,0,0,0,0,0,0,0,0,0,0,0,0,0,0,0,0,0,0,0,0,0,0,0,0,0,0,0,0,0,0,0,0,0,0,0,0,0,0,0,0,0,0,0,0,0,0,0,0,0,0,0,0,0,0,0,0,0,0,0,0,0,0,0,0,0,0,0,0,0,0,0,0,0,0,0,0,0,0,0,0,0,0,0,0,0,0,0,0,0,0,0,0,0,0,0,0,0,0,0,0,0,0,0,0,0,0,0,0,0,0,0,0,0,961,0,0,0,0,0,0,0,0,0,0,0,0,0,0,0,0,0,0,0,0,0,0,0,0,0,0,0,0,0,0,0,0,0,0,0,0,0,0,0,0,0,0,0,0,0,0,0,0,0,0,0,0,0,0,0,0,0,0,0,0,0,0,0,0,0,0,0,0,0,0,0,0,0,0,0,0,0,0,0,0,0,0,0,0,0,0,0,0,0,0,0,0,0,0,0,0,0,0,0,0,0,0,0,0,0,0,0,0,0,0,0,0,0,0,0,0,0,0,0,0,0,0,0,0,0,0,0,0,0,0,0,0,0,0,0,0,0,0,0,0,0,0,0,0,961,0,0,0,0,0,0,0,0,0,0,0,0,0,0,0,0,0,0,0,0,0,0,0,0,0,0,0,0,0,0,0,0,0,0,0,0,0,0,0,0,0,0,0,0,0,0,0,0,0,0,0,0,0,0,0,0,0,0,0,0,0,0,0,0,0,0,0,0,0,0,0,0,0,0,0,0,0,0,0,0,0,0,0,0,0,0,0,0,0,0,0,0,0,0,0,0,0,0,0,0,0,0,0,0,0,0,0,0,0,0,0,0,0,0,0,0,0,0,0,0,0,0,0,0,0,0,0,0,0,0,0,0,0,0,0,0,0,0,0,0,0,0,0,0,961,0,0,0,0,0,0,0,0,0,0,0,0,0,0,0,0,0,0,0,0,0,0,0,0,0,0,0,0,0,0,0,0,0,0,0,0,0,0,0,0,0,0,0,0,0,0,0,0,0,0,0,0,0,0,0,0,0,0,0,0,0,0,0,0,0,0,0,0,0,0,0,0,0,0,0,0,0,0,0,0,0,0,0,0,0,0,0,0,0,0,0,0,0,0,0,0,0,0,0,0,0,0,0,0,0,0,0,0,0,0,0,0,0,0,0,0,0,0,0,0,0,0,0,0,0,0,0,0,0,0,0,0,0,0,0,0,0,0,0,0,0,0,0,0,0,0,0,0,0,0,0,0,0,0,0,0,0,0,0,0,0,0,0,0,0,0,0,0,0,0,0,0,0,0,0,0,0,0,0,0,0,0,0,0,0,0,0,0,0,0,0,0,0,0,0,0,0,0,0,0,0,0,0,0,0,0,0,0,0,0,0,0,0,0,0,0,0,0,0,0,0,0,0,0,0,0,0,0,0,0,0,0,0,0,0,0,0,0,0,0,0,0,0,0,0,0,0,0,0,0,0,0,0,0,0,0,0,0,0,0,0,0,0,0,0,0,0,0,0,0,0,0,0,0,0,0,0,0,0,0,0,0,0,0,0,0,0,0,0,0,0,0,0,0,0,0,0,0,0,0,0,0,0,0,0,0,0,0,0,0,0,0,0,0,0,0,0,0,0,0,0,0,0,0,0,0,0,0,0,0,0,0,0,0,0,0,0,0,0,0,0,0,0,0,0,0,0,0,0,0,0,0,0,0,0,0,0,0,0,0,0,0,0,0,0,0,0,0,0,0,0,0,0,0,0,0,0,0,0,0,0,0,0,0,0,0,0,0,0,0,0,0,0,0,0,0,0,0,0,0,0,0,0,0,0,0,0,0,0,0,0,0,0,0,0,0,0,0,0,0,0,0,0,0,0,0,0,0,0,0,0,0,0,0,0,0,0,0,0,0,0,0,0,0,0,0,0,0,0,0,0,0,0,0,0,0,0,0,0,0,0,0,0,0,0,0,0,0,0,0,0,0,0,0,0,0,0,0,0,0,0,0,0,0,0,0,0,0,0,0,0,0,0,0,0,0,0,0,0,0,0,0,0,0,0,0,0,0,0,0,0,0,0,0,0,0,0,0,0,0,0,0,0,0,0,0,0,0,0,0,0,0,0,0,0,0,0,0,0,0,0,0,0,0,0,0,0,0,0,0,0,0,0,0,0,0,0,0,0,0,0,0,0,0,0,0,0,0,0,0,0,0,0,0,0,0,0,0,0,0,0,0,0,0,0,0,0,0,0,0,0,0,0,0,0,0,0,0,0,0,0,0,0,0,0,0,0,0,0,0,0,0,0,0,0,0,0,0,0,0,0,0,0,0,0,0,0,0,0,0,0,0,0,0,0,0,0,0,0,0,0,0,0,0,0,0,0,0,0,0,0,0,0,0,0,0,0,0,0,0,0,0,0,0,0,0,0,0,0,0,0,0,0,0,0,0,0,0,0,0,0,0,0,0,0,0,0,0,0,0,0,0,0,0,0,0,0,0,0,0,0,0,0,0,0,0,0,0,0,0,0,0,0,0,0,0,0,0,0,0,0,0,0,0,0,0,0,0,0,0,0,0,0,0,0,0,0,0,0,0,0,0,0,0,0,0,0,0,0,0,0,0,0,0,0,0,0,0,0,0,0,0,0,0,0,0,0,0,0,0,0,0,0,0,0,0,0,0,0,0,0,0,0,0,0,0,0,0,0,0,0,0,0,0,0,0,0,0,0,0,0,0,0,0,0,0,0,0,0,0,0,0,0,0,0,0,0,0,0,0,0,0,0,0,0,0,0,0,0,0,0,0,0,0,0,0,0,0,0,0,0,0,0,0,0,0,0,0,0,0,0,0,0,0,0,0,0,0,0,0,0,0,0,0,0,0,0,0,0,0,0,0,0,0,0,0,0,0,0,0,0,0,0,0,0,0,0,0,0,0,0,0,0,0,0,0,0,0,0,0,0,0,0,0,0,0,0,0,0,0,0,0,0,0,0,0,0,0,0,0,0,0,0,0,0,0,0,0,0,0,0,0,0,0,0,0,0,0,0,0,0,0,0,0,0,0,0,0,0,0,0,0,0,0,0,0,0,0,0,0,0,0,0,0,0,0,0,0,0,0,0,0,0,0,0,0,0,0,0,0,0,0,0,0,0,0,0,0,0,0,0,0,0,0,0,0,0,0,0,0,0,0,0,0,0,0,0,0,0,0,0,0,0,0,0,0,0,0,0,0,0,0,0,0,0,0,0,0,0,0,0,0,0,0,0,0,0,0,0,0,0,0,0,0,0,0,0,0,0,0,0,0,0,0,0,0,0,0,0,0,0,0,0,0,0,0,0,0,0,0,0,0,0,0,0,0,0,0,0,0,0,0,0,0,0,0,0,0,0,0,0,0,0,0,0,0,0,0,0,0,0,0,0,0,0,0,0,0,0,0,0,0,0,0,0,0,0,0,0,0,0,0,0,0,0,0,0,0,0,0,0,0,0,0,0,0,0,0,0,0,0,0,0,0,0,0,0,0,0,0,0,0,0,0,0,0,0,0,0,0,0,0,0,0,0,0,0,0,0,0,0,0,0,0,0,0,0,0,0,0,0,0,0,0,0,0,0,0,0,0,0,0,0,0,0,0,0,0,0,0,0,0,0,0,0,0,0,0,0,0,0,0,0,0,0,0,0,0,0,0,0,0,0,0,0,0,0,0,0,0,0,0,0,0,0,0,0,0,0,0,0,0,0,0,0,0,0,0,0,0,0,0,0,0,0,0,0,0,0,0,0,0,0,0,0,0,0,0,0,0,0,0,0,0,0,0,0,0,0,0,0,0,0,0,0,0,0,0,0,0,0,0,0,0,0,0,0,0,0,0,0,0,0,0,0,0,0,0,0,0,0,0,0,0,0,0,0,0,0,0,0,0,0,0,0,0,0,0,0,0,0,0,0,0,0,0,0,0,0,0,0,0,0,0,0,0,0,0,0,0,0,0,0,0,0,0,0,0,0,0,0,0,0,0,0,0,0,0,0,0,0,0,0,0,0,0,0,0,0,0,0,0,0,0,0,0,0,0,0,0,0,0,0,0,0,0,0,0,0,0,0,0,0,0,0,0,0,0,0,0,0,0,0,0,0,0,0,0,0,0,0,0,0,0,0,0,0,0,0,0,0,0,0,0,0,0,0,0,0,0,0,0,0,0,0,0,0,0,0,0,0,0,0,0,0,0,0,0,0,0,0,0,0,0,0,0,0,0,0,0,0,0,0,0,0,0,0,0,0,0,0,0,0,0,0,0,0,0,0,0,0,0,0,0,0,0,0,0,0,0,0,0,0,0,0,0,0,0,0,0,0,0,0,0,0,0,0,0,0,0,0,0,0,0,0,0,0,0,0,0,0,0,0,0,0,0,0,0,0,0,0,0,0,0,0,0,0,0,0,0,0,0,0,0,0,0,0,0,0,0,0,0,0,0,0,0,0,0,0,0,0,0,0,0,0,0,0,0,0,0,0,0,0,0,0,0,0,0,0,0,0,0,0,0,0,0,0,0,0,0,0,0,0,0,0,0,0,0,0,0,0,0,0,0,0,0,0,0,0,0,0,0,0,0,0,0,0,0,0,0,0,0,0,0,0,0,0,0,0,0,0,0,0,0,0,0,0,0,0,0,0,0,0,0,0,0,0,0,0,0,0,0,0,0,0,0,0,0,0,0,0,0,0,0,0,0,0,0,0,0,0,0,0,0,0,0,0,0,0,0,0,0,0,0,0,0,0,0,0,0,0,0,0,0,0,0,0,0,0,0,0,0,0,0,0,0,0,0,0,0,0,0,0,0,0,0,0,0,0,0,0,0,0,0,0,0,0,0,0,0,0,0,0,0,0,0,0,0,0,0,0,0,0,0,0,0,0,0,0,0,0,0,0,0,0,0,0,0,0,0,0,0,0,0,0,0,0,0,0,0,0,0,0,0,0,0,0,0,0,0,0,0,0,0,0,0,0,0,0,0,0,0,0,0,0,0,0,0,0,0,0,0,0,0,0,0,0,0,0,0,0,0,0,0,0,0,0,0,0,0,0,0,0,0,0,0,0,0,0,0,0,0,0,0,0,0,0,0,0,0,0,0,0,0,0,0,0,0,0,0,0,0,0,0,0,0,0,0,0,0,0,0,0,0,0,0,0,0,0,0,0,0,0,0,0,0,0,0,0,0,0,0,0,0,0,0,0,0,0,0,0,0,0,0,0,0,0,0,0,0,0,0,0,0,0,0,0,0,0,0,0,0,0,0,0,0,0,0,0,0,0,0,0,0,0,0,0,0,0,0,0,0,0,0,0,0,0,0,0,0,0,0,0,0,0,0,0,0,0,0,0,0,0,0,0,0,0,0,0,0,0,0,0,0,0,0,0,0,0,0,0,0,0,0,0,0,0,0,0,0,0,0,0,0,0,0,0,0,0,0,0,0,0,0,0,0,0,0,0,0,0,0,0,0,0,0,0,0,0,0,0,0,0,0,0,0,0,0,0,0,0,0,0,0,0,0,0,0,0,0,0,0,0,0,0,0,0,0,0,0,0,0,0,0,0,0,0,0,0,0,0,0,0,0,0,0,0,0,0,0,0,0,0,0,0,0,0,0,0,0,0,0,0,0,0,0,0,0,0,0,0,0,0,0,0,0,0,0,0,0,0,0,0,0,0,0,0,0,0,0,0,0,0,0,0,0,0,0,0,0,0,0,0,0,0,0,0,0,0,0,0,0,0,0,0,0,0,0,0,0,0,0,0,0,0,0,0,0,0,0,0,0,0,0,0,0,0,0,0,0,0,0,0,0,0,0,0,0,0,0,0,0,0,0,0,0,0,0,0,0,0,0,0,0,0,0,0,0,0,0,0,0,0,0,0,0,0,0,0,0,0,0,0,0,0,0,0,0,0,0,0,0,0,0,0,0,0,0,0,0,0,0,0,0,0,0,0,0,0,0,0,0,0,0,0,0,0,0,0,0,0,0,0,0,0,0,0,0,0,0,0,0,0,0,0,0,0,0,0,0,0,0,0,0,0,0,0,0,0,0,0,0,0,0,0,0,0,0,0,0,0,0,0,0,0,0,0,0,0,0,0,0,0,0,0,0,0,0,0,0,0,0,0,0,0,0,0,0,0,0,0,0,0,0,0,0,0,0,0,0,0,0,0,0,0,0,0,0,0,0,0,0,0,0,0,0,0,0,0,0,0,0,0,0,0,0,0,0,0,0,0,0,0,0,0,0,0,0,0,0,0,0,0,0,0,0,0,0,0,0,0,0,0,0,0,0,0,0,0,0,0,0,0,0,0,0,0,0,0,0,0,0,0,0,0,0,0,0,0,0,0,0,0,0,0,0,0,0,0,0,0,0,0,0,0,0,0,0,0,0,0,0,0,0,0,0,0,0,0,0,0,0,0,0,0,0,0,0,0,0,0,0,0,0,0,0,0,0,0,0,0,0,0,0,0,0,0,0,0,0,0,0,0,0,0,0,0,0,0,0,0,0,0,0,0,0,0,0,0,0,0,0,0,0,0,0,0,0,0,0,0,0,0,0,0,0,0,0,0,0,0,0,0,0,0,0,0,0,0,0,0,0,0,0,0,0,0,0,0,0,0,0,0,0,0,0,0,0,0,0,0,0,0,0,0,0,0,0,0,0,0,0,0,0,0,0,0,0,0,0,0,0,0,0,0,0,0,0,0,0,0,0,0,0,0,0,0,0,0,0,0,0,0,0,0,0,0,0,0,0,0,0,0,0,0,0,0,0,0,0,0,0,0,0,0,0,0,0,0,0,0,0,0,0,0,0,0,0,0,0,0,0,0,0,0,0,0,0,0,0,0,0,0,0,0,0,0,0,0,0,0,0,0,0,0,0,0,0,0,0,0,0,0,0,0,0,0,0,0,0,0,0,0,0,0,0,0,0,0,0,0,0,0,0,0,0,0,0,0,0,0,0,0,0,0,0,0,0,0,0,0,0,0,0,0,0,0,0,0,0,0,0,0,0,0,0,0,0,0,0,0,0,0,0,0,0,0,0,0,0,0,0,0,0,0,0,0,0,0,0,0,0,0,0,0,0,0,0,0,0,0,0,0,0,0,0,0,0,0,0,0,0,0,0,0,0,0,0,0,0,0,0,0,0,0,0,0,0,0,0,0,0,0,0,0,0,0,0,0,0,0,0,0,0,0,0,0,0,0,0,0,0,0,0,0,0,0,0,0,0,0,0,0,0,0,0,0,0,0,0,0,0,0,0,0,0,0,0,0,0,0,0,0,0,0,0,0,0,0,0,0,0,0,0,0,0,0,0,0,0,0,0,0,0,0,0,0,0,0,0,0,0,0,0,0,0,0,0,0,0,0,0,0,0,0,0,0,0,0,0,0,0,0,0,0,0,0,0,0,0,0,0,0,0,0,0,0,0,0,0,0,0,0,0,0,0,0,0,0,0,0,0,0,0,0,0,0,0,0,0,0,0,0,0,0,0,0,0,0,0,0,0,0,0,0,0,0,0,0,0,0,0,0,0,0,0,0,0,0,0,0,0,0,0,0,0,0,0,0,0,0,0,0,0,0,0,0,0,0,0,0,0,0,0,0,0,0,0,0,0,0,0,0,0,0,0,0,0,0,0,0,0,0,0,0,0,0,0,0,0,0,0,0,0,0,0,0,0,0,0,0,0,0,0,0,0,0,0,0,0,0,0,0,0,0,0,0,0,0,0,0,0,0,0,0,0,0,0,0,0,0,0,0,0,0,0,0,0,0,0,0,0,0,0,0,0,0,0,0,0,0,0,0,0,0]},{"id":17,"name":"wall","type":"tilelayer","x":0,"y":0,"opacity":1,"visible":true,"width":144,"height":96,"data":[0,0,0,0,0,0,0,0,0,0,0,0,0,0,0,0,0,0,0,0,0,0,0,0,0,0,0,0,0,0,0,0,0,0,0,0,0,0,0,0,0,0,0,0,0,0,0,0,0,0,0,0,0,0,0,0,0,0,0,0,0,0,0,0,0,0,0,0,0,0,0,0,0,0,0,0,0,0,0,0,0,0,0,0,0,0,0,0,0,0,0,0,0,0,0,0,0,0,0,0,0,0,0,0,0,0,0,0,0,0,0,0,0,0,0,0,0,0,0,0,0,0,0,0,0,0,0,0,0,0,0,0,0,0,0,0,0,0,0,0,0,0,0,0,0,0,0,0,0,0,0,0,0,0,0,0,0,0,0,0,0,0,0,0,0,0,0,0,0,0,0,0,0,0,0,0,0,0,0,0,0,0,0,0,0,0,0,0,0,0,0,0,0,0,0,0,0,0,0,0,0,0,0,0,0,0,0,0,0,0,0,0,0,0,0,0,0,0,0,0,4952,4960,4960,4960,4960,4960,4960,4960,4960,4960,4960,4960,4960,4960,4960,4960,4960,4960,4960,4960,4960,4960,4963,0,0,0,0,0,0,0,0,0,0,0,0,0,0,0,0,0,0,0,0,0,0,0,0,0,0,0,0,0,0,0,0,0,0,0,0,0,0,0,0,0,0,0,0,0,0,0,0,0,0,0,0,0,0,0,0,0,0,0,0,0,0,0,0,0,0,0,0,0,0,0,0,0,0,0,0,0,0,0,0,0,0,0,0,0,0,0,0,0,0,0,0,0,0,0,0,0,0,0,0,0,0,0,0,0,0,0,0,0,4947,4960,4960,4960,4960,4960,4960,4960,4960,4960,4960,4960,4959,0,0,0,0,0,0,0,0,0,0,0,0,0,0,0,0,0,0,0,0,0,4948,4960,4960,4960,4960,4960,4960,4960,4960,4960,4960,4960,4960,4960,4960,4960,4960,4960,4960,4960,4960,4960,4960,4960,4960,4960,4960,4960,4960,4960,4960,4960,4960,4960,4960,4960,4958,0,0,0,0,0,0,0,0,0,0,0,0,0,0,0,0,0,0,0,0,0,0,0,0,0,0,0,0,0,0,0,0,0,0,0,0,0,0,0,0,0,0,0,0,0,0,0,0,0,0,0,0,0,0,0,0,0,0,0,0,0,0,0,0,0,0,0,0,0,0,0,0,0,0,0,0,0,0,0,0,0,0,0,0,0,0,0,0,0,0,0,0,0,0,0,0,0,0,0,0,0,0,0,0,0,0,0,0,0,0,0,0,0,0,0,0,0,0,0,0,0,0,0,0,0,0,0,0,0,0,0,0,0,0,0,0,0,0,0,0,0,0,0,0,0,0,0,0,0,0,0,0,0,0,0,0,0,0,0,0,0,0,0,0,0,0,0,0,0,0,0,0,0,0,0,0,0,0,0,0,0,0,0,0,0,0,0,0,0,4952,4960,4960,4960,4960,4960,4960,4960,4960,4960,4960,4960,4960,4960,4960,4960,4960,4960,4960,4960,4958,0,0,0,0,0,0,0,0,0,0,0,0,0,0,0,0,0,0,0,0,0,0,0,0,0,0,0,0,0,0,0,0,0,0,0,0,0,0,0,0,0,0,0,0,0,0,0,0,0,0,0,0,0,0,0,0,0,0,0,0,0,0,0,0,0,0,0,0,0,0,0,0,0,0,0,0,0,0,0,0,0,0,0,0,0,0,0,0,0,0,0,0,0,0,0,0,0,0,0,0,0,0,0,0,0,0,0,4947,4960,4960,4960,4960,4960,4960,4960,4960,4960,4960,4960,4960,4960,4960,4960,4959,0,0,0,0,0,0,0,0,0,0,0,0,0,0,0,0,0,0,0,0,0,0,0,0,0,0,0,0,0,0,0,0,0,0,0,0,0,0,0,0,0,0,0,0,0,0,0,0,0,0,0,0,0,0,0,0,0,0,0,0,0,0,0,0,0,0,0,0,0,0,0,0,0,0,0,0,0,0,0,0,0,0,0,0,0,0,0,0,0,0,0,0,0,0,0,0,0,0,0,0,0,0,0,0,0,0,0,0,0,0,0,0,0,0,0,0,0,0,0,0,0,0,0,0,0,0,0,0,0,0,0,0,0,0,0,0,0,0,0,0,0,0,0,0,0,0,0,0,0,0,0,0,0,0,0,0,0,0,0,0,0,0,0,0,0,0,0,0,0,0,0,0,0,0,0,0,0,0,0,0,0,0,0,0,0,0,0,0,0,0,0,0,0,0,0,0,0,0,0,0,0,0,0,0,0,0,0,0,0,0,0,0,0,0,0,0,0,0,0,0,0,0,0,0,0,0,0,0,0,0,0,0,0,0,0,0,0,0,0,0,0,0,0,0,0,0,0,0,0,0,0,0,0,0,0,0,0,0,0,0,0,0,0,0,0,0,0,0,0,0,0,0,0,0,0,0,0,0,0,0,0,0,0,0,0,0,0,0,0,0,0,0,0,0,0,0,0,0,0,0,0,0,0,0,0,0,0,0,0,0,0,0,0,0,0,0,0,0,0,0,0,0,0,0,0,0,0,0,0,0,0,0,0,0,0,0,0,0,0,0,0,0,0,0,0,0,0,0,0,0,0,0,0,0,0,0,0,0,0,0,0,0,0,0,0,0,0,0,0,0,0,0,0,0,0,0,0,0,0,0,0,0,0,0,0,0,0,0,0,0,0,0,0,0,0,0,0,0,0,0,0,0,0,0,0,0,0,0,0,0,0,0,0,0,0,0,0,0,0,0,0,0,0,0,0,0,0,0,0,0,0,0,0,0,0,0,0,0,0,0,0,0,0,0,0,0,0,0,0,0,0,0,0,0,0,0,0,0,0,0,0,0,0,0,0,0,0,0,0,0,0,0,0,0,0,0,0,0,0,0,0,0,0,0,0,0,0,0,0,0,0,0,0,0,0,0,0,0,0,0,0,0,0,0,0,0,0,0,0,0,0,0,0,0,0,0,0,0,0,0,0,0,0,0,0,0,0,0,0,0,0,0,0,0,0,0,0,0,0,0,0,0,0,0,0,0,0,0,0,0,0,0,0,0,0,0,0,0,0,0,0,0,0,0,0,0,0,0,0,0,0,0,0,0,0,0,0,0,0,0,0,0,0,0,0,0,0,0,0,0,0,0,0,0,0,0,0,0,0,0,0,0,0,0,0,0,0,0,0,0,0,0,0,0,0,0,0,0,0,0,0,0,0,0,0,0,0,0,0,0,0,0,0,0,0,0,0,0,0,0,0,0,0,0,0,0,0,0,0,0,0,0,0,0,0,0,0,0,0,0,0,0,0,0,0,0,0,0,0,0,0,0,0,0,0,0,0,0,0,0,0,0,0,0,0,0,0,0,0,0,0,0,0,0,0,0,0,0,0,0,0,0,0,0,0,0,0,0,0,0,0,0,0,0,0,0,0,0,0,0,0,0,0,0,0,0,0,0,0,0,0,0,0,0,0,0,0,0,0,0,0,0,0,0,0,0,0,0,0,0,0,0,0,0,0,0,0,0,0,0,0,0,0,0,0,0,0,0,0,0,0,0,0,0,0,0,0,0,0,0,0,0,0,0,0,0,0,0,0,0,0,0,0,0,0,0,0,0,0,0,0,0,0,0,0,0,0,0,0,0,0,0,0,0,0,0,0,0,0,0,0,0,0,0,0,0,0,0,0,0,0,0,0,0,0,0,0,0,0,0,0,0,0,0,0,0,0,0,0,0,0,0,0,0,0,0,0,0,0,0,0,0,0,0,0,0,0,0,0,0,0,0,0,0,0,0,0,0,0,0,0,0,0,0,0,0,0,0,0,0,0,0,0,0,0,0,0,0,0,0,0,0,0,0,0,0,0,0,0,0,0,0,0,0,0,0,0,0,0,0,0,0,0,0,0,0,0,0,0,0,0,0,0,0,0,0,0,0,0,0,0,0,0,0,0,0,0,0,0,0,0,0,0,0,0,0,0,0,0,0,0,0,0,0,0,0,0,0,0,0,0,0,0,0,0,0,0,0,0,0,0,0,0,0,0,0,0,0,0,0,0,0,0,0,0,0,0,0,0,0,0,0,0,0,0,0,0,0,0,0,0,0,0,0,0,0,0,0,0,0,0,0,0,0,0,0,0,0,0,0,0,0,0,0,0,0,0,0,0,0,0,0,0,0,0,0,0,0,0,0,0,0,0,0,0,0,0,0,0,0,0,0,0,0,0,0,0,0,0,0,0,0,0,0,0,0,0,0,0,0,0,0,0,0,0,0,0,0,0,0,0,0,0,0,0,0,0,0,0,0,0,0,0,0,0,0,0,0,0,0,0,0,0,0,0,0,0,0,0,0,0,0,0,0,0,0,0,0,0,0,0,0,0,0,0,0,0,0,0,0,0,0,0,0,0,0,0,0,0,0,0,0,0,0,0,0,0,0,0,0,0,0,0,0,0,0,0,0,0,0,0,0,0,0,0,0,0,0,0,0,0,0,0,0,0,0,0,0,0,0,0,0,0,0,0,0,0,0,0,0,0,0,0,0,0,0,0,0,0,0,0,0,0,0,0,0,0,0,0,0,0,0,0,0,0,0,0,0,0,0,0,0,0,0,0,0,0,0,0,0,0,0,0,0,0,0,0,0,0,0,0,0,0,0,0,0,0,0,0,0,0,0,0,0,0,0,0,0,0,0,0,0,0,0,0,0,0,0,0,0,0,0,0,0,0,0,0,0,0,0,0,0,0,0,0,0,0,0,0,0,0,0,0,0,0,0,0,0,0,0,0,0,0,0,0,0,0,0,0,0,0,0,0,0,0,0,0,0,0,0,0,0,0,0,0,0,0,0,0,0,0,0,0,0,0,0,0,0,0,0,0,0,0,0,0,0,0,0,0,0,0,0,0,0,0,0,0,0,0,0,0,0,0,0,0,0,0,0,0,0,0,0,0,0,0,0,0,0,0,0,0,0,0,0,0,0,0,0,0,0,0,0,0,0,0,0,0,0,0,0,0,0,0,0,0,0,0,0,0,0,0,0,0,0,0,0,0,0,0,0,0,0,0,0,0,0,0,0,0,0,0,0,0,0,0,0,0,0,0,0,0,0,0,0,0,0,0,0,0,0,0,0,0,0,0,0,0,0,0,0,0,0,0,0,0,0,0,0,0,0,0,0,0,0,0,0,0,0,0,0,0,0,0,0,0,0,0,0,0,0,0,0,0,0,0,0,0,0,0,0,0,0,0,0,0,0,0,0,0,0,0,0,0,0,0,0,0,0,0,0,0,0,0,0,0,0,0,0,0,0,0,0,0,0,0,0,0,0,0,0,0,0,0,0,0,0,0,0,0,0,0,0,0,0,0,0,0,0,0,0,0,0,0,0,0,0,0,0,0,0,0,0,0,0,0,0,0,0,0,0,0,0,0,0,0,0,0,0,0,0,0,0,0,0,0,0,0,0,0,0,0,0,0,0,0,0,0,0,0,0,0,0,0,0,0,0,0,0,0,0,0,0,0,0,0,0,0,0,0,0,0,0,0,0,0,0,0,0,0,0,0,0,0,0,0,0,0,0,0,0,0,0,0,0,0,0,0,0,0,0,0,0,0,0,0,0,0,0,0,0,0,0,0,0,0,0,0,0,0,0,0,0,0,0,0,0,0,0,0,0,0,0,0,0,0,0,0,0,0,0,0,0,0,0,0,0,0,0,0,0,0,0,0,0,0,0,0,0,0,0,0,0,0,0,0,0,0,0,0,0,0,0,0,0,0,0,0,0,0,0,0,0,0,0,0,0,0,0,0,0,0,0,0,0,0,0,0,0,0,0,0,0,0,0,0,0,0,0,0,0,0,0,0,0,0,0,0,0,0,0,0,0,0,0,0,0,0,0,0,0,0,0,0,0,0,0,0,0,0,0,0,0,0,0,0,0,0,0,0,0,0,0,0,0,0,0,0,0,0,0,0,0,0,0,0,0,0,0,0,0,0,0,0,0,0,0,0,0,0,0,0,0,0,0,0,0,0,0,0,0,0,0,0,0,0,0,0,0,0,0,0,0,0,0,0,0,0,0,0,0,0,0,0,0,0,0,0,0,0,0,0,0,0,0,0,0,0,0,0,0,0,0,0,0,0,0,0,0,0,0,0,0,0,0,0,0,0,0,0,0,0,0,0,0,0,0,0,0,0,0,0,0,0,0,0,0,0,0,0,0,0,0,0,0,0,0,0,0,0,0,0,0,0,0,0,0,0,0,0,0,0,0,0,0,0,0,0,0,0,0,0,0,0,0,0,0,0,0,0,0,0,0,0,0,0,0,0,0,0,0,0,0,0,0,0,0,0,0,0,0,0,0,0,0,0,0,0,0,0,0,0,0,0,0,0,0,0,0,0,0,0,0,0,0,0,0,0,0,0,0,0,0,0,0,0,0,0,0,0,0,0,0,0,0,0,0,0,0,0,0,0,0,0,0,0,0,0,0,0,0,0,0,0,0,0,0,0,0,0,0,0,0,0,0,0,0,0,0,0,0,0,0,0,0,0,0,0,0,0,0,0,0,0,0,0,0,0,0,0,0,0,0,0,0,0,0,0,0,0,0,0,0,0,0,0,0,0,0,0,0,0,0,0,0,0,0,0,0,0,0,0,0,0,0,0,0,0,0,0,0,0,0,0,0,0,0,0,0,0,0,0,0,0,0,0,0,0,0,0,0,0,0,0,0,0,0,0,0,0,0,0,0,0,0,0,0,0,0,0,0,0,0,0,0,0,0,0,0,0,0,0,0,0,0,0,0,0,0,0,0,0,0,0,0,0,0,0,0,0,0,0,0,0,0,0,0,0,0,0,0,0,0,0,0,0,0,0,0,0,0,0,0,0,0,0,0,0,0,0,0,0,0,0,0,0,0,0,0,0,0,0,0,0,0,0,0,0,0,0,0,0,0,0,0,0,0,0,0,0,0,0,0,0,0,0,0,0,0,0,0,0,0,0,0,0,0,0,0,0,0,0,0,0,0,0,0,0,0,0,0,0,0,0,0,0,0,0,0,0,0,0,0,0,0,0,0,0,0,0,0,0,0,0,0,0,0,0,0,0,0,0,0,0,0,0,0,0,0,0,0,0,0,0,0,0,0,0,0,0,0,0,0,0,0,0,0,0,0,0,0,0,0,0,0,0,0,0,0,0,0,0,0,0,0,0,0,0,0,0,0,0,0,0,0,0,0,0,0,0,0,0,0,0,0,0,0,0,0,0,0,0,0,0,0,0,0,0,0,0,0,0,0,0,0,0,0,0,0,0,0,0,0,0,0,0,0,0,0,0,0,0,0,0,0,0,0,0,0,0,0,0,0,0,0,0,0,0,0,0,0,0,0,0,0,0,0,0,0,0,0,0,0,0,0,0,0,0,0,0,0,0,0,0,0,0,0,0,0,0,0,0,0,0,0,0,0,0,0,0,0,0,0,0,0,0,0,0,0,0,0,0,0,0,0,0,0,0,0,0,0,0,0,0,0,0,0,0,0,0,0,0,0,0,0,0,0,0,0,0,0,0,0,0,0,0,0,0,0,0,0,0,0,0,0,0,0,0,0,0,0,0,0,0,0,0,0,0,0,0,0,0,0,0,0,0,0,0,0,0,0,0,0,0,0,0,0,0,0,0,0,0,0,0,0,0,0,0,0,0,0,0,0,0,0,0,0,0,0,0,0,0,0,0,0,0,0,0,0,0,0,0,0,0,0,0,0,0,0,0,0,0,0,0,0,0,0,0,0,0,0,0,0,0,0,0,0,0,0,0,0,0,0,0,0,0,0,0,0,0,0,0,0,0,0,0,0,0,0,0,0,0,0,0,0,0,0,0,0,0,0,0,0,0,0,0,0,0,0,0,0,0,0,0,0,0,0,0,0,0,0,0,0,0,0,0,0,0,0,0,0,0,0,0,0,0,0,0,0,0,0,0,0,0,0,0,0,0,0,0,0,0,0,0,0,0,0,0,0,0,0,0,0,0,0,0,0,0,0,0,0,0,0,0,0,0,0,0,0,0,0,0,0,0,0,0,0,0,0,0,0,0,0,0,0,0,0,0,0,0,0,0,0,0,0,0,0,0,0,0,0,0,0,0,0,0,0,0,0,0,0,0,0,0,0,0,0,0,0,0,0,0,0,0,0,0,0,0,0,0,0,0,0,0,0,0,0,0,0,0,0,0,0,0,0,0,0,0,0,0,0,0,0,0,0,0,0,0,0,0,0,0,0,0,0,0,0,0,0,0,0,0,0,0,0,0,0,0,0,0,0,0,0,0,0,0,0,0,0,0,0,0,0,0,0,0,0,0,0,0,0,0,0,0,0,0,0,0,0,0,0,0,0,0,0,0,0,0,0,0,0,0,0,0,0,0,0,0,0,0,0,0,0,0,0,0,0,0,0,0,0,0,0,0,0,0,0,0,0,0,0,0,0,0,0,0,0,0,0,0,0,0,0,0,0,0,0,0,0,0,0,0,0,0,0,0,0,0,0,0,0,0,0,0,0,0,0,0,0,0,0,0,0,0,0,0,0,0,0,0,0,0,0,0,0,0,0,0,0,0,0,0,0,0,0,0,0,0,0,0,0,0,0,0,0,0,0,0,0,0,0,0,0,0,0,0,0,0,0,0,0,0,0,0,0,0,0,0,0,0,0,0,0,0,0,0,0,0,0,0,0,0,0,0,0,0,0,0,0,0,0,0,0,0,0,0,0,0,0,0,0,0,0,0,0,0,0,0,0,0,0,0,0,0,0,0,0,0,0,0,0,0,0,0,0,0,0,0,0,0,0,0,0,0,0,0,0,0,0,0,0,0,0,0,0,0,0,0,0,0,0,0,0,0,0,0,0,0,0,0,0,0,0,0,0,0,0,0,0,0,0,0,0,0,0,0,0,0,0,0,0,0,0,0,0,0,0,0,0,0,0,0,0,0,0,0,0,0,0,0,0,0,0,0,0,0,0,0,0,0,0,0,0,0,0,0,0,0,0,0,0,0,0,0,0,0,0,0,0,0,0,0,0,0,0,0,0,0,0,0,0,0,0,0,0,0,0,0,0,0,0,0,0,0,0,0,0,0,0,0,0,0,0,0,0,0,0,0,0,0,0,0,0,0,0,0,0,0,0,0,0,0,0,0,0,0,0,0,0,0,0,0,0,0,0,0,0,0,0,0,0,0,0,0,0,0,0,0,0,0,0,0,0,0,0,0,0,0,0,0,0,0,0,0,0,0,0,0,0,0,0,0,0,0,0,0,0,0,0,0,0,0,0,0,0,0,0,0,0,0,0,0,0,0,0,0,0,0,0,0,0,0,0,0,0,0,0,0,0,0,0,0,0,0,0,0,0,0,0,0,0,0,0,0,0,0,0,0,0,0,0,0,0,0,0,0,0,0,0,0,0,0,0,0,0,0,0,0,0,0,0,0,0,0,0,0,0,0,0,0,0,0,0,0,0,0,0,0,0,0,0,0,0,0,0,0,0,0,0,0,0,0,0,0,0,0,0,0,0,0,0,0,0,0,0,0,0,0,0,0,0,0,0,0,0,0,0,0,0,0,0,0,0,0,0,0,0,0,0,0,0,0,0,0,0,0,0,0,0,0,0,0,0,0,0,0,0,0,0,0,0,0,0,0,0,0,0,0,0,0,0,0,0,0,0,0,0,0,0,0,0,0,0,0,0,0,0,0,0,0,0,0,0,0,0,0,0,0,0,0,0,0,0,0,0,0,0,0,0,0,0,0,0,0,0,0,0,0,0,0,0,0,0,0,0,0,0,0,0,0,0,0,0,0,0,0,0,0,0,0,0,0,0,0,0,0,0,0,0,0,0,0,0,0,0,0,0,0,0,0,0,0,0,0,0,0,0,0,0,0,0,0,0,0,0,0,0,0,0,0,0,0,0,0,0,0,0,0,0,0,0,0,0,0,0,0,0,0,0,0,0,0,0,0,0,0,0,0,0,0,0,0,0,0,0,0,0,0,0,0,0,0,0,0,0,0,0,0,0,0,0,0,0,0,0,0,0,0,0,0,0,0,0,0,0,0,0,0,0,0,0,0,0,0,0,0,0,0,0,0,0,0,0,0,0,0,0,0,0,0,0,0,0,0,0,0,0,0,0,0,0,0,0,0,0,0,0,0,0,0,0,0,0,0,0,0,0,0,0,0,0,0,0,0,0,0,0,0,0,0,0,0,0,0,0,0,0,0,0,0,0,0,0,0,0,0,0,0,0,0,0,0,0,0,0,0,0,0,0,0,0,0,0,0,0,0,0,0,0,0,0,0,0,0,0,0,0,0,0,0,0,0,0,0,0,0,0,0,0,0,0,0,0,0,0,0,0,0,0,0,0,0,0,0,0,0,0,0,0,0,0,0,0,0,0,0,0,0,0,0,0,0,0,0,0,0,0,0,0,0,0,0,0,0,0,0,0,0,0,0,0,0,0,0,0,0,0,0,0,0,0,0,0,0,0,0,0,0,0,0,0,0,0,0,0,0,0,0,0,0,0,0,0,0,0,0,0,0,0,0,0,0,0,0,0,0,0,0,0,0,0,0,0,0,0,0,0,0,0,0,0,0,0,0,0,0,0,0,0,0,0,0,0,0,0,0,0,0,0,0,0,0,0,0,0,0,0,0,0,0,0,0,0,0,0,0,0,0,0,0,0,0,0,0,0,0,0,0,0,0,0,0,0,0,0,0,0,0,0,0,0,0,0,0,0,0,0,0,0,0,0,0,0,0,0,0,0,0,0,0,0,0,0,0,0,0,0,0,0,0,0,0,0,0,0,0,0,0,0,0,0,0,0,0,0,0,0,0,0,0,0,0,0,0,0,0,0,0,0,0,0,0,0,0,0,0,0,0,0,0,0,0,0,0,0,0,0,0,0,0,0,0,0,0,0,0,0,0,0,0,0,0,0,0,0,0,0,0,0,0,0,0,0,0,0,0,0,0,0,0,0,0,0,0,0,0,0,0,0,0,0,0,0,0,0,0,0,0,0,0,0,0,0,0,0,0,0,0,0,0,0,0,0,0,0,0,0,0,0,0,0,0,0,0,0,0,0,0,0,0,0,0,0,0,0,0,0,0,0,0,0,0,0,0,0,0,0,0,0,0,0,0,0,0,0,0,0,0,0,0,0,0,0,0,0,0,0,0,0,0,0,0,0,0,0,0,0,0,0,0,0,0,0,0,0,0,0,0,0,0,0,0,0,0,0,0,0,0,0,0,0,0,0,0,0,0,0,0,0,0,0,0,0,0,0,0,0,0,0,0,0,0,0,0,0,0,0,0,0,0,0,0,0,0,0,0,0,0,0,0,0,0,0,0,0,0,0,0,0,0,0,0,0,0,0,0,0,0,0,0,0,0,0,0,0,0,0,0,0,0,0,0,0,0,0,0,0,0,0,0,0,0,0,0,0,0,0,0,0,5000,5008,5008,5008,5008,1360,1358,0,0,0,0,0,0,0,0,0,0,0,0,0,0,0,0,0,0,0,0,0,0,0,0,0,0,0,0,0,0,0,0,0,0,0,0,0,0,0,0,0,0,0,0,0,0,0,0,0,0,0,0,0,0,0,0,0,0,0,0,0,0,0,0,0,0,0,0,0,0,0,0,0,0,0,0,0,0,0,0,0,0,0,0,0,0,0,0,0,0,0,0,0,0,0,0,0,0,0,0,0,0,0,0,0,0,0,0,0,0,0,0,0,0,0,0,0,0,0,0,0,0,0,0,0,0,0,0,0,0,5000,5008,5008,5008,5008,5008,1360,1359,0,0,0,0,0,0,0,0,0,0,0,0,0,0,0,0,0,0,0,0,0,0,0,0,0,0,0,0,0,0,0,0,0,0,0,0,0,0,0,0,0,0,0,0,0,0,0,0,0,0,0,0,0,0,0,0,0,0,0,0,0,0,0,0,0,0,0,0,0,0,0,0,0,0,0,0,0,0,0,0,0,0,0,0,0,0,0,0,0,0,0,0,0,0,0,0,0,0,0,0,0,0,0,0,0,0,0,0,0,0,0,0,0,0,0,0,0,0,0,0,0,0,0,0,0,0,0,0,0,5000,5008,5008,5008,5008,5008,5008,5007,0,0,0,0,0,0,0,0,0,0,0,0,0,0,0,0,0,0,0,0,0,0,0,0,0,0,0,0,0,0,0,0,0,0,0,0,0,0,0,0,0,0,0,0,0,0,0,0,0,0,0,0,0,0,0,0,0,0,0,0,0,0,0,0,0,0,0,0,0,0,0,0,0,0,0,0,0,0,0,0,0,0,0,0,0,0,0,0,0,0,0,0,0,0,0,0,0,0,0,0,0,0,0,0,0,0,0,0,0,0,0,0,0,0,0,0,0,0,0,0,0,0,0,0,0,0,0,0,0,0,0,0,4995,5008,5008,5008,5007,0,0,0,0,0,0,0,0,0,0,0,0,0,0,0,0,0,0,0,0,0,0,0,0,0,0,0,0,0,0,0,0,0,0,0,0,0,0,0,0,0,0,0,0,0,0,0,0,0,0,0,0,0,0,0,0,0,0,0,0,0,0,0,0,0,0,0,0,0,0,0,0,0,0,0,0,0,0,0,0,0,0,0,0,0,0,0,0,0,0,0,0,0,0,0,0,0,0,0,0,0,0,0,0,0,0,0,0,0,0,0,0,0,0,0,0,0,0,0,0,0,0,0,0,0,0,0,0,0,0,0,0,0,0,0,0,0,0,0,0,0,0,0,0,0,0,0,0,0,0,0,0,0,0,0,0,0,0,0,0,0,0,0,0,0,0,0,0,0,0,0,0,0,0,0,0,0,0,0,0,0,0,0,0,0,0,0,0,0,0,0,0,0,0,0,0,0,0,0,0,0,0,0,0,0,0,0,0,0,0,0,0,0,0,0,0,0,0,0,0,0,0,0,0,0,0,0,0,0,0,0,0,0,0,0,0,0,0,0,0,0,0,0,0,0,0,0,0,0,0,0,0,0,0,0,0,0,0,0,0,0,0,0,0,0,0,0,0,0,0,0,0,0,0,0,0,0,0,0,0,0,0,0,0,0,0,0,0,0,0,0,0,0,0,0,0,0,0,0,0,0,0,0,0,0,0,0,0,0,0,0,0,0,0,0,0,0,0,0,0,0,0,0,0,0,0,0,0,0,0,0,0,0,0,0,0,0,0,0,0,0,0,0,0,0,0,0,0,0,0,0,0,0,0,0,0,0,0,0,0,0,0,0,0,0,0,0,0,0,0,0,0,0,0,0,0,0,0,0,0,0,0,0,0,0,0,0,0,0,0,0,0,0,0,0,0,0,0,0,0,0,0,0,0,0,0,0,0,0,0,0,0,0,0,0,0,0,0,0,0,0,0,0,0,0,0,0,0,0,0,0,0,0,0,0,0,0,0,0,0,0,0,0,0,0,0,0,0,0,0,0,0,0,0,0,0,0,0,0,0,0,0,0,0,0,0,0,0,0,0,0,0,0,0,0,0,0,0,0,0,0,0,0,0,0,0,0,0,0,0,0,0,0,0,0,0,0,0,0,0,0,0,0,0,0,0,0,0,0,0,0,0,0,0,0,0,0,0,0,0,0,0,0,0,0,0,0,0,0,0,0,0,0,0,0,0,0,0,0,0,0,0,0,0,0,0,0,0,0,0,0,0,0,0,0,0,0,0,0,0,0,0,0,0,0,0,0,0,0,0,0,0,0,0,0,0,0,0,0,0,0,0,0,0,0,0,0,0,0,0,0,0,0,0,0,0,0,0,0,0,0,0,0,0,0,0,0,0,0,0,0,0,0,0,0,0,0,0,0,0,0,0,0,0,0,0,0,0,0,0,0,0,0,0,0,0,0,0,0,0,0,0,0,0,0,0,0,0,0,0,0,0,0,0,0,0,0,0,0,0,0,0,0,0,0,0,0,0,0,0,0,0,0,0,0,0,0,0,0,0,0,0,0,0,0,0,0,0,0,0,0,0,0,0,0,0,0,0,0,0,0,0,0,0,0,0,0,0,0,0,0,0,0,0,0,0,0,0,0,0,0,0,0,0,0,0,0,0,0,0,0,0,0,0,0,0,0,0,0,0,0,0,0,0,0,0,0,0,0,0,0,0,0,0,0,0,0,0,0,0,0,0,0,0,0,0,0,0,0,0,0,0,0,0,0,0,0,0,0,0,0,0,0,0,0,0,0,0,0,0,0,0,0,0,0,0,0,0,0,0,0,0,0,0,0,0,0,0,0,0,0,0,0,0,0,0,0,0,0,0,0,0,0,0,0,0,0,0,0,0,0,0,0,0,0,0,0,0,0,0,0,0,0,0,0,0,0,0,0,0,0,0,0,0,0,0,0,0,0,0,0,0,0,0,0,0,0,0,0,0,0,0,0,0,0,0,0,0,0,0,0,0,0,0,0,0,0,0,0,0,0,0,0,0,0,0,0,0,0,0,0,0,0,0,0,0,0,0,0,0,0,0,0,0,0,0,0,0,0,0,0,0,0,0,0,0,0,0,0,0,0,0,0,0,0,0,0,0,0,0,0,0,0,0,0,0,0,0,0,0,0,0,0,0,0,0,0,0,0,0,0,0,0,0,0,0,0,0,0,0,0,0,0,0,0,0,0,0,0,0,0,0,0,0,0,0,0,0,0,0,0,0,0,0,0,0,0,0,0,0,0,0,0,0,0,0,0,0,0,0,0,0,0,0,0,0,0,0,0,0,0,0,0,0,0,0,0,0,0,0,0,0,0,0,0,0,0,0,0,0,0,0,0,0,0,0,0,0,0,0,0,0,0,0,0,0,0,0,0,0,0,0,0,0,0,0,0,0,0,0,0,0,0,0,0,0,0,0,0,0,0,0,0,0,0,0,0,0,0,0,0,0,0,0,0,0,0,0,0,0,0,0,0,0,0,0,0,0,0,0,0,0,0,0,0,0,0,0,0,0,0,0,0,0,0,0,0,0,0,0,0,0,0,0,0,0,0,0,0,0,0,0,0,0,0,0,0,0,0,0,0,0,0,0,0,0,0,0,0,0,0,0,0,0,0,0,0,0,0,0,0,0,0,0,0,0,0,0,0,0,0,0,0,0,0,0,0,0,0,0,0,0,0,0,0,0,0,0,0,0,0,0,0,0,0,0,0,0,0,0,0,0,0,0,0,0,0,0,0,0,0,0,0,0,0,0,0,0,0,0,0,0,0,0,0,0,0,0,0,0,0,0,0,0,0,0,0,0,0,0,0,0,0,0,0,0,0,0,0,0,0,0,0,0,0,0,0,0,0,0,0,0,0,0,0,0,0,0,0,0,0,0,0,0,0,0,0,0,0,0,0,0,0,0,0,0,0,0,0,0,0,0,0,0,0,0,0,0,0,0,0,0,0,0,0,0,0,0,0,0,0,0,0,0,0,0,0,0,0,0,0,0,0,0,0,0,0,0,0,0,0,0,0,0,0,0,0,0,0,0,0,0,0,0,0,0,0,0,0,0,0,0,0,0,0,0,0,0,0,0,0,0,0,0,0,0,0,0,0,0,0,0,0,0,0,0,0,0,0,0,0,0,0,0,0,0,0,0,0,0,0,0,0,0,0,0,0,0,0,0,0,0,0,0,0,0,0,0,0,0,0,0,0,0,0,0,0,0,0,0,0,0,0,0,0,0,0,0,0,0,0,0,0,0,0,0,0,0,0,0,0,0,0,0,0,0,0,0,0,0,0,0,0,0,0,0,0,0,0,0,0,0,0,0,0,0,0,0,0,0,0,0,0,0,0,0,0,0,0,0,0,0,0,0,0,0,0,0,0,0,0,0,0,0,0,0,0,0,0,0,0,0,0,0,0,0,0,0,0,0,0,0,0,0,0,0,0,0,0,0,0,0,0,0,0,0,0,0,0,0,0,0,0,0,0,0,0,0,0,0,0,0,0,0,0,0,0,0,0,0,0,0,0,0,0,0,0,0,0,0,0,0,0,0,0,0,0,0,0,0,0,0,0,0,0,0,0,0,0,0,0,0,0,0,0,0,0,0,0,0,0,0,0,0,0,0,0,0,0,0,0,0,0,0,0,0,0,0,0,0,0,0,0,0,0,0,0,0,0,0,0,0,0,0,0,0,0,0,0,0,0,0,0,0,0,0,0,0,0,0,0,0,0,0,0,0,0,0,0,0,0,0,0,0,0,0,0,0,0,0,0,0,0,0,0,0,0,0,0,0,0,0,0,0,0,0,0,0,0,0,0,0,0,0,0,0,0,0,0,0,0,0,0,0,0,0,0,0,0,0,0,0,0,0,0,0,0,0,0,0,0,0,0,0,0,0,0,0,0,0,0,0,0,0,0,0,0,0,0,0,0,0,0,0,0,0,0,0,0,0,0,0,0,0,0,0,0,0,0,0,0,0,0,0,0,0,0,0,0,0,0,0,0,0,0,0,0,0,0,0,0,0,0,0,0,0,0,0,0,0,0,0,0,0,0,0,0,0,0,0,0,0,0,0,0,0,0,0,0,0,0,0,0,0,0,0,0,0,0,0,0,0,0,0,0,0,0,0,0,0,0,0,0,0,0,0,0,0,0,0,0,0,0,0,0,0,0,0,0,0,0,0,0,0,0,0,0,0,0,0,0,0,0,0,0,0,0,0,0,0,0,0,0,0,0,0,0,0,0,0,0,0,0,0,0,0,0,0,0,0,0,0,0,0,0,0,0,0,0,0,0,0,0,0,0,0,0,0,0,0,0,0,0,0,0,0,0,0,0,0,0,0,0,0,0,0,0,0,0,0,0,0,0,0,0,0,0,0,0,0,0,0,0,0,0,0,0,0,0,0,0,0,0,0,0,0,0,0,0,0,0,0,0,0,0,0,0,0,0,0,0,0,0,0,0,0,0,0,0,0,0,0,0,0,0,0,0,0,0,0,0,0,0,0,0,0,0,0,0,0,0,0,0,0,0,0,0,0,0,0,0,0,0,0,0,0,0,0,0,0,0,0,0,0,0,0,0,0,0,0,0,0,0,0,0,0,0,0,0,0,0,0,0,0,0,0,0,0,0,0,0,0,0,0,0,0,0,0,0,0,0,0,0,0,0,0,0,0,0,0,0,0,0,0,0,0,0,0,0,0,0,0,0,0,0,0,0,0,0,0,0,0,0,0,0,0,0,0,0,0,0,0,0,0,0,0,0,0,0,0,0,0,0,0,0,0,0,0,0,0,0,0,0,0,0,0,0,0,0,0,0,0,0,0,0,0,0,0,0,0,0,0,0,0,0,0,0,0,0,0,0,0,0,0,0,0,0,0,0,0,0,0,0,0,0,0,0,0,0,0,0,0,0,0,0,0,0,0,0,0,0,0,0,0,0,0,0,0,0,0,0,0,0,0,0,0,0,0,0,0,0,0,0,0,0,0,0,0,0,0,0,0,0,0,0,0,0,0,0,0,0,0,0,0,0,0,0,0,0,0,0,0,0,0,0,0,0,0,0,0,0,0,0,0,0,0,0,0,0,0,0,0,0,0,0,0,0,0,0,0,0,0,0,0,0,0,0,0,0,0,0,0,0,0,0,0,0,0,0,0,0,0,0,0,0,0,0,0,0,0,0,0,0,0,0,0,0,0,0,0,0,0,0,0,0,0,0,0,0,0,0,0,0,0,0,0,0,0,0,0,0,0,0,0,0,0,0,0,0,0,0,0,0,0,0,0,0,0,0,0,0,0,0,0,0,0,0,0,0,0,0,0,0,0,0,0,0,0,0,0,0,0,0,0,0,0,0,0,0,0,0,0,0,0,0,0,0,0,0,0,0,0,0,0,0,0,0,0,0,0,0,0,0,0,0,0,0,0,0,0,0,0,0,0,0,0,0,0,0,0,0,0,0,0,0,0,0,0,0,0,0,0,0,0,0,0,0,0,0,0,0,0,0,0,0,0,0,0,0,0,0,0,0,0,0,0,0,0,0,0,0,0,0,0,0,0,0,0,0,0,0,0,0,0,0,0,0,0,0,0,0,0,0,0,0,0,0,0,0,0,0,0,0,0,0,0,0,0,0,0,0,0,0,0,0,0,0,0,0,0,0,0,0,0,0,0,0,0,0,0,0,0,0,0,0,0,0,0,0,0,0,0,0,0,0,0,0,0,0,0,0,0,0,0,0,0,0,0,0,0,0,0,0,0,0,0,0,0,0,0,0,0,0,0,0,0,0,0,0,0,0,0,0,0,0,0,0,0,0,0,0,0,0,0,0,0,0,0,0,0,0,0,0,0,0,0,0,0,0,0,0,0,0,0,0,0,0,0,0,0,0,0,0,0,0,0,0,0,0,0,0,0,0,0,0,0,0,0,0,0,0,0,0,0,0,0,0,0,0,0,0,0,0,0,0,0,0,0,0,0,0,0,0,0,0,0,0,0,0,0,0,0,0,0,0,0,0,0,0,0,0,0,0,0,0,0,0,0,0,0,0,0,0,0,0,0,0,0,0,0,0,0,0,0,0,0,0,0,0,0,0,0,0,0,0,0,0,0,0,0,0,0,0,0,0,0,0,0,0,0,0,0,0,0,0,0,0,0,0,0,0,0,0,0,0,0,0,0,0,0,0,0,0,0,0,0,0,0,0,0,0,0,0,0,0,0,0,0,0,0,0,0,0,0,0,0,0,0,0,0,0,0,0,0,0,0,0,0,0,0,0,0,0,0,0,0,0,0,0,0,0,0,0,0,0,0,0,0,0,0,0,0,0,0,0,0,0,0,0,0,0,0,0,0,0,0,0,0,0,0,0,0,0,0,0,0,0,0,0,0,0,0,0,0,0,0,0,0,0,0,0,0,0,0,0,0,0,0,0,0,0,0,0,0,0,0,0,0,0,0,0,0,0,0,0,0,0,0,0,0,0,0,0,0,0,0,0,0,0,0,0,0,0,0,0,0,0,0,0,0,0,0,0,0,0,0,0,0,0,0,0,0,0,0,0,0,0,0,0,0,0,0,0,0,0,0,0,0,0,0,0,0,0,0,0,0,0,0,0,0,0,0,0,0,0,0,0,0,0,0,0,0,0,0,0,0,0,0,0,0,0,0,0,0,0,0,0,0,0,0,0,0,0,0,0,0,0,0,0,0,0,0,0,0,0,0,0,0,0,0,0,0,0,0,0,0,0,0,0,0,0,0,0,0,0,0,0,0,0,0,0,0,0,0,0,0,0,0,0,0,0,0,0,0,0,0,0,0,0,0,0,0,0,0,0,0,0,0,0,0,0,0,0,0,0,0,0,0,0,0,0,0,0,0,0,0,0,0,0,0,0,0,0,0,0,0,0,0,0,0,0,0,0,0,0,0,0,0,0,0,0,0,0,0,0,0,0,0,0,0,0,0,0,0,0,0,0,0,0,0,0,0,0,0,0,0,0,0,0,0,0,0,0,0,0,0,0,0,0,0,0,0,0,0,0,0,0,0,0,0,0,0,0,0,0,0,0,0,0,0,0,0,0,0,0,0,0,0,0,0,0,0,0,0,0,0,0,0,0,0,0,0,0,0,0,0,0,0,0,0,0,0,0,0,0,0,0,0,0,0,0,0,0,0,0,0,0,0,0,0,0,0,0,0,0,0,0,0,0,0,0,0,0,0,0,0,0,0,0,0,0,0,0,0,0,0,0,0,0,0,0,0,0,0,0,0,0,0,0,0,0,0,0,0,0,0,0,0,0,0,0,0,0,0,0,0,0,0,0,0,0,0,0,0,0,0,0,0,0,0,0,0,0,0,0,0,0,0,0,0,0,0,0,0,0,0,0,0,0,0,0,0,0,0,0,0,0,0,0,0,0,0,0,0,0,0,0,0,0,0,0,0,0,0,0,0,0,0,0,0,0,0,0,0,0,0,0,0,0,0,0,0,0,0,0,0,0,0,0,0,0,0,0,0,0,0,0,0,0,0,0,0,0,0,0,0,0,0,0,0,0,0,0,0,0,0,0,0,0,0,0,0,0,0,0,0,0,0,0,0,0,0,0,0,0,0,0,0,0,0,0,0,0,0,0,0,0,0,0,0,0,0,0,0,0,0,0,0,0,0,0,0,0,0,0,0,0,0,0,0,0,0,0,0,0,0,0,0,0,0,0,0,0,0,0,0,0,0,0,0,0,0,0,0,0,0,0,0,0,0,0,0,0,0,0,0,0,0,0,0,0,0,0,0,0,0,0,0,0,0,0,0,0,0,0,0,0,0,0,0,0,0,0,0,0,0,0,0,0,0,0,0,0,0,0,0,0,0,0,0,0,0,0,0,0,0,0,0,0,0,0,0,0,0,0,0,0,0,0,0,0,0,0,0,0,0,0,0,0,0,0,0,0,0,0,0,0,0,0,0,0,0,0,0,0,0,0,0,0,0,0,0,0,0,0,0,0,0,0,0,0,0,0,0,0,0,0,0,0,0,0,0,0,0,0,0,0,0,0,0,0,0,0,0,0,0,0,0,0,0,0,0,0,0,0,0,0,0,0,0,0,0,0,0,0,0,0,0,0,0,0,0,0,0,0,0,0,0,0,0,0,0,0,0,0,0,0,0,0,0,0,0,0,0,0,0,0,0,0,0,0,0,0,0,0,0,0,0,0,0,0,0,0,0,0,0,0,0,0,0,0,0,0,0,0,0,0,0,0,0,0,0,0,0,0,0,0,0,0,0,0,0,0,0,0,0,0,0,0,0,0,0,0,0,0,0,0,0,0,0,0,0,0,0,0,0,0,0,0,0,0,0,0,0,0,0,0,0,0,0,0,0,0,0,0,0,0,0,0,0,0,0,0,0,0,0,0,0,0,0,0,0,0,0,0,0,0,0,0,0,0,0,0,0,0,0,0,0,0,0,0,0,0,0,0,0,0,0,0,0,0,0,0,0,0,0,0,0,0,0,0,0,0,0,0,0,0,0,0,0,0,0,0,0,0,0,0,0,0,0,0,0,0,0,0,0,0,0,0,0,0,0,0,0,0,0,0,0,0,0,0,0,0,0,0,0,0,0,0,0,0,0,0,0,0,0,0,0,0,0,0,0,0,0,0,0,0,0,0,0,0,0,0,0,0,0,0,0,0,0,0,0,0,0,0,0,0,0,0,0,0,0,0,0,0,0,0,0,0,0,0,0,0,0,0,0,0,0,0,0,0,0,0,0,0,0,0,0,0,0,0,0,0,0,0,0,0,0,0,0,0,0,0,0,0,0,0,0,0,0,0,0,0,0,0,0,0,0,0,0,0,0,0,0,0,0,0,0,0,0,0,0,0,0,0,0,0,0,0,0,0,0,0,0,0,0,0,0,0,0,0,0,0,0,0,0,0,0,0,0,0,0,0,0,0,0,0,0,0,0,0,0,0,0,0,0,0,0,0,0,0,0,0,0,0,0,0,0,0,0,0,0,0,0,0,0,0,0,0,0,0,0,0,0,0,0,0,0,0,0,0,0,0,0,0,0,0,0,0,0,0,0,0,0,0,0,0,0,0,0,0,0,0,0,0,0,0,0,0,0,0,0,0,0,0,0,0,0,0,0,0,0,0,0,0,0,0,0,0,0,0,0,0,0,0,0,0,0,0,0,0,0,0,0,0,0,0,0,0,0,0,0,0,0,0,0,0,0,0,0,0,0,0,0,0,0,0,0,0,0,0,0,0,0,0,0,0,0,0,0,0,0,0,0,0,0,0,0,0,0,0,0,0,0,0,0,0,0,0,0,0,0,0,0,0,0,0,0,0,0,0,0,0,0,0,0,0,0,0,0,0,0,0,0,0,0,0,0,0,0,0,0,0,0,0,0,0,0,0,0,0,0,0,0,0,0,0,0,0,0,0,0,0,0,0,0,0,0,0,0,0,0,0,0,0,0,0,0,0,0,0,0,0,0,0,0,0,0,0,0,0,0,0,0,0,0,0,0,0,0,0,0,0,0,0,0,0,0,0,0,0,0,0,0,0,0,0,0,0,0,0,0,0,0,0,0,0,0,0,0,0,0,0,0,0,0,0,0,0,0,0,0,0,0,0,0,0,0,0,0,0,0,0,0,0,0,0,0,0,0,0,0,0,0,0,0,0,0,0,0,0,0,0,0,0,0,0,0,0,0,0,0,0,0,0,0,0,0,0,0,0,0,0,0,0,0,0,0,0,0,0,0,0,0,0,0,0,0,0,0,0,0,0,0,0,0,0,0,0,0,0,0,0,0,0,0,0,0,0,0,0,0,0,0,0,0,0,0,0,0,0,0,0,0,0,0,0,0,0,0,0,0,0,0,0,0,0,0,0,0,0,0,0,0,0,0,0,0,0,0,0,0,0,0,0,0,0,0,0,0,0,0,0,0,0,0,0,0,0,0,0,0,0,0,0,0,0,0,0,0,0,0,0,0,0,0,0,0,0,0,0,0,0,0,0,0,0,0,0,0,0,0,0,0,0,0,0,0,0,0,0,0,0,0,0,0,0,0,0,0,0,0,0,0,0,0,0,0,0,0,0,0,0,0,0,0,0,0,0,0,0,0,0,0,0,0,0,0,0,0,0,0,0,0,0,0,0,0,0,0,0,0,0,0,0,0,0,0,0,0,0,0,0,0,0,0,0,0,0,0,0,0,0,0,0,0,0,0,0,0,0,0,0,0,0,0,0,0,0,0,0,0,0,0,0,0,0,0,0,0,0,0,0,0,0,0,0,0,0,0,0,0,0,0,0,0,0,0,0,0,0,0,0,0,0,0,0,0,0,0,0,0,0,0,0,0,0,0,0,0,0,0,0,0,0,0,0,0,0,0,0,0,0,0,0,0,0,0,0,0,0,0,0,0,0,0,0,0,0,0,0,0,0,0,0,0,0,0,0,0,0,0,0,0,0,0,0,0,0,0,0,0,0,0,0,0,0,0,0,0,0,0,0,0,0,0,0,0,0,0,0,0,0,0,0,0,0,0,0,0,0,0,0,0,0,0,0,0,0,0,0,0,0,0,0,0,0,0,0,0,0,0,0,0,0,0,0,0,0,0,0,0,0,0,0,0,0,0,0,0,0,0,0,0,0,0,0,0,0,0,0,0,0,0,0,0,0,0,0,0,0,0,0,0,0,0,0,0,0,0,0,0,0,0,0,0,0,0,0,0,0,0,0,0,0,0,0,0,0,0,0,0,0,0,0,0,0,0,0,0,0,0,0,0,0,0,0,0,0,0,0,0,0,0,0,0,0,0,0,0,0,0,0,0,0,0,0,0,0,0,0,0,0,0,0,0,0,0,0,0,0,0,0,0,0,0,0,0,0,0,0,0,0,0,0,0,0,0,0,0,0,0,0,0,0,0,0,0,0,0,0,0,0,0,0,0,0,0,0,0,0,0,0,0,0,0,0,0,0,0,0,0,0,0,0,0,0,0,0,0,0,0,0,0,0,0,0,0,0,0,0,0,0,0,0,0,0,0,0,0,0,0,0,0,0,0,0,0,0,0,0,0,0,0,0,0,0,0,0,0,0,0,0,0,0,0,0,0,0,0,0,0,0,0,0,0,0,0,0,0,0,0,0,0,0,0,0,0,0,0,0,0,0,0,0,0,0,0,0,0,0,0,0,0,0,0,0,0,0,0,0,0,0,0,0,0,0,0,0,0,0,0,0,0,0,0,0,0,0,0,0,0,0,0,0,0,0,0,0,0,0,0,0,0,0,0,0,0,0,0,0,0,0,0,0,0,0,0,0,0,0,0,0,0,0,0,0,0,0,0,0,0,0,0,0,0,0,0,0,0,0,0,0,0,0,0,0,0,0,0,0,0,0,0,0,0,0,0,0,0,0,0,0,0,0,0,0,0,0,0,0,0,0,0,0,0,0,0,0,0,0,0,0,0,0,0,0,0,0,0,0,0,0,0,0,0,0,0,0,0,0,0,0,0,0,0,0,0,0,0,0,0,0,0,0,0,0,0,0,0,0,0,0,0,0,0,0,0,0,0,0,0,0,0,0,0,0,0,0,0,0,0,0,0,0,0,0,0,0,0,0,0,0,0,0,0,0,0,0,0,0,0,0,0,0,0,0,0,0,0,0,0,0,0,0,0,0,0,0,0,0,0,0,0,0,0,0,0,0,0,0,0,0,0,0,0,0,0,0,0,0,0,0,0,0,0,0,0,0,0,0,0,0,0,0,0,0,0,0,0,0,0,0,0,0,0,0,0,0,0,0,0,0,0,0,0,0,0,0,0,0,0,0,0,0,0,0,0,0,0,0,0,0,0,0,0,0,0,0,0,0,0,0,0,0,0,0,0,0,0,0,0,0,0,0,0,0,0,0,0,0,0,0,0,0,0,0,0,0,0,0,0,0,0,0,0,0,0,0,0,0,0,0,0,0,0,0,0,0,0,0,0,0,0,0,0,0,0,0,0,0,0,0,0,0,0,0,0,0,0,0,0,0,0,0,0,0,0,0,0,0,0,0,0,0,0,0,0,0,0,0,0,0,0,0,0,0,0,0,0,0,0,0,0,0,0,0,0,0,0,0,0,0,0,0,0,0,0,0,0,0,0,0,0,0,0,0,0,0,0,0,0,0,0,0,0,0,0,0,0,0,0,0,0,0,0,0,0,0,0,0,0,0,0,0,0,0,0,0,0,0,0,0,0,0,0,0,0,0,0,0,0,0,0,0,0,0,0,0,0,0,0,0,0,0,0,0,0,0,0,0,0,0,0,0,0,0,0,0,0,0,0,0,0,0,0,0,0,0,0,0,0,0,0,0,0,0,0,0,0,0,0,0,0,0,0,0,0,0,0,0,0,0,0,0,0,0,0,0,0,0,0,0,0,0,0,0,0,0,0,0,0,0,0,0,0,0,0,0,0,0,0,0,0,0,0,0,0,0,0,0,0,0,0,0,0,0,0,0,0,0,0,0,0,0,0,0,0,0,0,0,0,0,0,0,0,0,0,0,0,0,0,0,0,0,0,0,0,0,0,0,0,0,0,0,0,0,0,0,0,0,0,0,0,0,0,0,0,0,0,0,0,0,0,0,0,0,0,0,0,0,0,0,0,0,0,0,0,0,0,0,0,0,0,0,0,0,0,0,0,0,0,0,0,0,0,0,0,0,0,0,0,0,0,0,0,0,0,0,0,0,0,0,0,0,0,0,0,0,0,0,0,0,0,0,0,0,0,0,0,0,0,0,0,0,0,0,0,0,0,0,0,0,0,0,0,0,0,0,0,0,0,0,0,0,0,0,0,0,0,0,0,0,0,0,0,0,0,0,0,0,0,0,0,0,0,0,0,0,0,0,0,0,0,0,0,0,0,0,0,0,0,0,0,0,0,0,0,0,0,0,0,0,0,0,0,0,0,0,0,0,0,0,0,0,0,0,0,0,0,0,0,0,0,0,0,0,0,0,0,0,0,0,0,0,0,0,0,0,0,0,0,0,0,0,0,0,0,0,0,0,0,0,0,0,0,0,0,0,0,0,0,0,0,0,0,0,0,0,0,0,0,0,0,0,0,0,0,0,0,0,0,0,0,0,0,0,0,0,0,0,0,0,0,0,0,0,0,0,0,0,0,0,0,0,0,0,0,0,0,0,0,0,0,0,0,0,0,0,0,0,0,0,0,0,0,0,0,0,0,0,0,0,0,0,0,0,0,0,0,0,0,0,0,0,0,0,0,0,0,0,0,0,0,0,0,0,0,0,0,0,0,0,0,0,0,0,0,0,0,0,0,0,0,0,0,0,0,0,0,0,0,0,0,0,0,0,0,0,0,0,0,0,0,0,0,0,0,0,0,0,0,0,0,0,0,0,0,0,0,0,0,0,0,0,0,0,0,0,0,0,0,0,0,0,0,0,0,0,0,0,0,0,0,0,0,0,0,0,0,0,0,0,0,0,0,0,0,0,0,0,0,0,0,0,0,0,0,0,0,0,0,0,0,0,0,0,0,0,0,0,0,0,0,0,0,0,0,0,0,0,0,0,0,0,0,0,0,0,0,0,0,0,0,0,0,0,0,0,0,0,0,0,0,0,0,0,0,0,0,0,0,0,0,0,0,0,0,0,0,0,0,0,0,0,0,0,0,0,0,0,0,0,0,0,0,0,0,0,0,0,0,0,0,0,0,0,0,0,0,0,0,0,0,0,0,0,0,0,0,0,0,0,0,0,0,0,0,0,0,0,0,0,0,0,0,0,0,0,0,0,0,0,0,0,0,0,0,0,0,0,0,0,0,0,0,0,0,0,0,0,0,0,0,0,0,0,0,0,0,0,0,0,0,0,0,0,0,0,0,0,0,0,0,0,0,0,0,0,0,0,0,0,0,0,0,0,0,0,0,0,0,0,0,0,0,0,0,0,0,0,0,0,0,0,0,0,0,0,0,0,0,0,0,0,0,0,0,0,0,0,0,0,0,0,0,0,0,0,0,0,0,0,0,0,0,0,0,0,0,0,0,0,0,0,0,0,0,0,0,0,0,0,0,0,0,0,0,0,0,0,0,0,0,0,0,0,0,0,0,0,0,0,0,0,0,0,0,0,0,0,0,0,0,0,0,0,0,0,0,0,0,0,0,0,0,0,0,0,0,0,0,0,0,0,0,0,0,0,0,0,0,0,0,0,0,0,0,0,0,0,0,0,0,0,0,0,0,0,0,0,0,0,0,0,0,0,0,0,0,0,0,0,0,0,0,0,0,0,0,0,0,0,0,0,0,0,0,0,0,0,0,0,0,0,0,0,0,0,0,0,0,0,0,0,0,0,0,0,0,0,0,0,0,0,0,0,0,0,0,0,0,0,0,0,0,0,0,0,0,0,0,0,0,0,0,0,0,0,0,0,0,0,0,0,0,0,0,0,0,0,0,0,0,0,0,0,0,0,0,0,0,0,0,0,0,0,0,0,0,0,0,0,0,0,0,0,0,0,0,0,0,0,0,0,0,0,0,0,0,0,0,0,0,0,0,0,0,0,0,0,0,0,0,0,0,0,0,0,0,0,0,0,0,0,0,0,0,0,0,0,0,0,0,0,0,0,0,0,0,0,0,0,0,0,0,0,0,0,0,0,0,0,0,0,0,0,0,0,0,0,0,0,0,0,0,0,0,0,0,0,0,0,0,0,0,0,0,0,0,0,0,0,0,0,0,0,0,0,0,0,0,0,0,0,0,0,0,0,0,0,0,0,0,0,0,0,0,0,0,0,0,0,0,0,0,0,0,0,0,0,0,0,0,0,0,0,0,0,0,0,0,0,0,0,0,0,0,0,0,0,0,0,0,0,0,0,0,0,0,0,0,0,0,0,0,0,0,0,0,0,0,0,0,0,0,0,0,0,0,0,0,0,0,0,0,0,0,0,0,0,0,0,0,0,0,0,0,0,0,0,0,0,0,0,0,0,0,0,0,0,0,0,0,0,0,0,0,0,0,0,0,0,0,0,0,0,0,0,0,0,0,0,0,0,0,0,0,0,0,0,0,0,0,0,0,0,0,0,0,0,0,0,0,0,0,0,0,0,0,0,0,0,0,0,0,0,0,0,0,0,0,0,0,0,0,0,0,0,0,0,0,0,0,0,0,0,0,0,0,0,0,0,0,0,0,0,0,0,0,0,0,0,0,0,0,0,0,0,0,0,0,0,0,0,0,0,0,0,0,0,0,0,0,0,0,0,0,0,0,0,0,0,0,0,0,0,0,0,0,0,0,0,0,0,0,0,0,0,0,0,0,0,0,0,0,0,0,0,0,0,0,0,0,0,0,0,0,0,0,0,0,0,0,0,0,0,0,0,0,0,0,0,0,0,0,0,0,0,0,0,0,0,0,0,0,0,0,0,0,0,0,0,0,0,0,0,0,0,0,0,0,0,0,0,0,0,0,0,0,0,0,0,0,0,0,0,0,0,0,0,0,0,0,0,0,0,0,0,0,0,0,0,0,0,0,0,0,0,0,0,0,0,0,0,0,0,0,0,0,0,0,0,0,0,0,0,0,0,0,0,0,0,0,0,0,0,0,0,0,0,0,0,0,0,0,0,0,0,0,0,0,0,0,0,0,0,0,0,0,0,0,0,0,0,0,0,0,0,0,0,0,0,0,0,0,0,0,0,0,0,0,0,0,0,0,0,0,0,0,0,0,0,0,0,0,0,0,0,0,0,0,0,0,0,0,0,0,0,0,0,0,0,0,0,0,0,0,0,0,0,0,0,0,0,0,0,0,0,0,0,0,0,0,0,0,0,0,0,0,0,0,0,0,0,0,0,0,0,0,0,0,0,0,0,0,0,0,0,0,0,0,0,0,0,0,0,0,0,0,0,0,0,0,0,0,0,0,0,0,0,0,0,0,0,0,0,0,0,0,0,0,0,0,0,0,0,0,0,0,0,0,0,0,0,0,0,0,0,0,0,0,0,0,0,0,0,0,0,0,0,0,0,0,0,0,0,0,0,0,0,0,0,0,0,0,0,0,0,0,0,0,0,0,0,0,0,0,0,0,0,0,0,0,0,0,0,0,0,0,0,0,0,0,0,0,0,0,0,0,0,0,0,0,0,0,0,0,0,0,0,0,0,0,0,0,0,0,0,0,0,0,0,0,0,0,0,0,0,0,0,0,0,0,0,0,0,0,0,0,0,0,0,0,0,0,0,0,0,0,0,0,0,0,0,0,0,0,0,0,0,0,0,0,0,0,0,0,0,0,0,0,0,0,0,0,0,0,0,0,0,0,0,0,0,0,0,0,0,0,0,0,0,0,0,0,0,0,0,0,0,0,0,0,0,0,0,0,0,0,0,0,0,0,0,0,0,0,0,0,0,0,0,0,0,0,0,0,0,0,0,0,0,0,0,0,0,0,0,0,0,0,0,0,0,0,0,0,0,0,0,0,0,0,0,0,0,0,0,0,0,0,0,0,0,0,0,0,0,0,0,0,0,0,0,0,0,0,0,0,0,0,0,0,0,0,0,0,0,0,0,0,0,0,0,0,0,0,0,0,0,0,0,0,0,0,0,0,0,0,0,0,0,0,0,0,0,0,0,0,0,0,0,0,0,0,0,0,0,0,0,0,0,0,0,0,0,0,0,0,0,0,0,0,0,0,0,0,0,0,0,0,0,0,0,0,0,0,0,0,0,0,0,0,0,0,0,0,0,0,0,0,0,0,0,0,0,0,0,0,0,0,0,0,0,0,0,0,0,0,0,0,0,0,0,0,0,0,0,0,0,0,0,0,0,0,0,0,0,0,0,0,0,0,0,0,0,0,0,0,0,0,0,0,0,0,0,0,0,0,0,0,0,0,0,0,0,0,0,0,0,0,0,0,0,0,0,0,0,0,0,0,0,0,0,0,0,0,0,0,0,0,0,0,0,0,0,0,0,0,0,0,0,0,0,0,0,0,0,0,0,0,0,0,0,0,0,0,0,0,0,0,0,0,0,0,0,0,0,0,0,0,0,0,0,0,0,0,0,0,0,0,0,0,0,0,0,0,0,0,0,0,0,0,0,0,0,0,0,0,0,0,0,0,0,0,0,0,0,0,0,0,0,0,0,0,0,0,0,0,0,0,0,0,0,0,0,0,0,0,0,0,0,0,0,0,0,0,0,0,0,0,0,0,0,0,0,0,0,0,0,0,0,0,0,0,0,0,0,0,0,0,0,0,0,0,0,0,0,0,0,0,0,0,0,0,0,0,0,0,0,0,0,0,0,0,0,0,0,0,0,0,0,0,0,0,0,0,0,0,0,0,0,0,0,0,0,0,0,0,0,0,0,0,0,0,0,0,0,0,0,0,0,0,0,0,0,0,0,0,0,0,0,0,0,0,0,0,0,0,0,0,0,0,0,0,0,0,0,0,0,0,0,0,0,0,0,0,0,0,0,0,0,0,0,0,0,0,0,0,0,0,0,0,0,0,0,0,0,0,0,0,0,0,0,0,0,0,0,0,0,0,0,0,0,0,0,0,0,0,0,0,0,0,0,0,0,0,0,0,0,0,0,0,0,0,0,0,0,0,0,0,0,0,0,0,0,0,0,0,0,0,0,0,0,0,0,0,0,0,0,0,0,0,0,0,0,0,0,0,0,0,0,0,0,0,0,0,0,0,0,0,0,0,0,0,0,0,0,0,0,0,0,0,0,0,0,0,0,0,0,0,0,0,0,0,0,0,0,0,0,0,0,0,0,0,0,0,0,0,0,0,0,0,0,0,0,0,0,0,0,0,0,0,0,0,0,0,0,0,0,0,0,0,0,0,0,0,0,0,0,0,0,0,0,0,0,0,0,0,0,0,0,0,0,0,0,0,0,0,0,0,0,0,0,0,0,0,0,0,0,0,0,0,0,0,0,0,0,0,0,0,0,0,0,0,0,0,0,0,0,0,0,0,0,0,0,0,0,0,0,0,0,0,0,0,0,0,0,0,0,0,0,0,0,0,0,0,0,0,0,0,0,0,0,0,0,0,0,0,0,0,0,0,0,0,0,0,0,0,0,0,0,0,0,0,0,0,0,0,0,0,0,0,0,0,0,0,0,0,0,0,0,0,0,0,0,0,0,0,0,0,0,0,0,0,0,0,0,0,0,0,0,0,0,0,0,0,0,0,0,0,0,0,0,0,0,0,0,0,0,0,0,0,0,0,0,0,0,0,0,0,0,0,0,0,0,0,0,0,0,0,0,0,0,0,0,0,0,0,0,0,0,0,0,0,0,0,0,0,0,0,0,0,0,0,0,0,0,0,0,0,0,0,0,0,0,0,0,0,0,0,0,0,0,0,0,0,0,0,0,0,0,0,0,0,0,0,0,0,0,0,0,0,0,0,0,0,0,0,0,0,0,0,0,0,0,0,0,0,0,0,0,0,0,0,0,0,0,0,0,0,0,0,0,0,0,0,0,0,0,0,0,0,0,0,0,0,0,0,0,0,0,0,0,0,0,0,0,0,0,0,0,0,0,0,0,0,0,0,0,0,0,0,0,0,0,0,0,0,0,0,0,0,0,0,0,0,0,0,0,0,0,0,0,0,0,0,0,0,0,0,0,0,0,0,0,0,0,0,0,0,0,0,0,0,0,0,0,0,0,0,0,0,0,0,0,0,0,0,0,0,0,0,0,0,0,0,0,0,0,0,0,0,0,0,0,0,0,0,0,0,0,0,0,0,0,0,0,0,0,0,0,0,0,0,0,0,0,0,0,0,0,0,0,0,0,0,0,0,0,0,0,0,0,0,0,0,0,0,0,0,0,0,0,0,0,0,0,0,0,0,0,0,0,0,0,0,0,0,0,0,0,0,0,0,0,0,0,0,0,0,0,0,0,0,0,0,0,0,0,0,0,0,0,0,0,0,0,0,0,0,0,0,0,0,0,0,0,0,0,0,0,0,0,0,0,0,0,0,0,0,0,0,0,0,0,0,0,0,0,0,0,0,0,0,0,0,0,0]},{"id":18,"name":"river","type":"tilelayer","x":0,"y":0,"opacity":1,"visible":true,"width":144,"height":96,"data":[0,0,0,0,0,0,0,0,0,0,0,0,0,0,0,0,0,0,0,0,0,0,0,0,0,0,0,0,0,0,0,0,0,0,0,0,0,0,0,0,0,0,0,0,0,0,0,0,0,0,0,0,0,0,0,0,0,0,0,0,0,0,0,0,0,0,0,0,0,0,0,0,0,0,0,0,0,0,0,0,0,0,0,0,0,0,0,0,0,0,0,0,0,0,0,0,0,0,0,0,0,0,0,0,0,0,0,0,0,0,0,0,0,0,0,0,0,0,0,0,0,0,0,0,0,0,0,0,0,0,0,0,0,0,0,0,0,0,0,0,0,0,0,0,0,0,0,0,0,0,0,0,0,0,0,0,0,0,0,0,0,0,0,0,0,0,0,0,0,0,0,0,0,0,0,0,0,0,0,0,0,0,0,0,0,0,0,0,0,0,0,0,0,0,0,0,0,0,0,0,0,0,0,0,0,0,0,0,0,0,0,0,0,0,0,0,0,0,0,0,0,0,0,0,0,0,0,0,0,0,0,0,0,0,0,0,0,0,0,0,0,0,0,0,0,0,0,0,0,0,0,0,0,0,0,0,0,0,0,0,0,0,0,0,0,0,0,0,0,0,0,0,0,0,0,0,0,0,0,0,0,0,0,0,0,0,0,0,0,0,0,0,0,0,0,0,0,0,0,0,0,0,0,0,0,0,0,0,0,0,0,0,0,0,0,0,0,0,0,0,0,0,0,0,0,0,0,0,0,0,0,0,0,0,0,0,0,0,0,0,0,0,0,0,0,0,0,0,0,0,0,0,0,0,0,0,0,0,0,0,0,0,0,0,0,0,0,0,0,0,0,0,0,0,0,0,0,0,0,0,0,0,0,0,0,0,0,0,0,0,0,0,0,0,0,0,0,0,0,0,0,0,0,0,0,0,0,0,0,0,0,0,0,0,0,0,0,0,0,0,0,0,0,0,0,0,0,0,0,0,0,0,0,0,0,0,0,0,0,0,0,0,0,0,0,0,0,0,0,0,0,0,0,0,0,0,0,0,0,0,0,0,0,0,0,0,0,0,0,0,0,0,0,0,0,0,0,0,0,0,0,0,0,0,0,0,0,0,0,0,0,0,0,0,0,0,0,0,0,0,0,0,0,0,0,0,0,0,0,0,0,0,0,0,0,0,0,0,0,0,0,0,0,0,0,0,0,0,0,0,0,0,0,0,0,0,0,0,0,0,0,0,0,0,0,0,0,0,0,0,0,0,0,0,0,0,0,0,0,0,0,0,0,0,0,0,0,0,0,0,0,0,0,0,0,0,0,0,0,0,0,0,0,0,0,0,0,0,0,0,0,0,0,0,0,0,0,0,0,0,0,0,0,0,0,0,0,0,0,0,0,0,0,0,0,0,0,0,0,0,0,0,0,0,0,0,0,0,0,0,0,0,0,0,0,0,0,0,0,0,0,0,0,0,0,0,0,0,0,0,0,0,0,0,0,0,0,0,0,0,0,0,0,0,0,0,0,0,0,0,0,0,0,0,0,0,0,0,0,0,0,0,0,0,0,0,0,0,0,0,0,0,0,0,0,0,0,0,0,0,0,0,0,0,0,0,0,0,0,0,0,0,0,0,0,0,0,0,0,0,0,0,0,0,0,0,0,0,0,0,0,0,0,0,0,0,0,0,0,0,0,0,0,0,0,0,0,0,0,0,0,0,0,0,0,0,0,0,0,0,0,0,0,0,0,0,0,0,0,0,0,0,0,0,0,0,0,0,0,0,0,0,0,0,0,0,0,0,0,0,0,0,0,0,0,0,0,0,0,0,0,0,0,0,0,0,0,0,0,0,0,0,0,0,0,0,0,0,0,0,0,0,0,0,0,0,0,0,0,0,0,0,0,0,0,0,0,0,0,0,0,0,0,0,0,0,0,0,0,0,0,0,0,0,0,0,0,0,0,0,0,0,0,0,0,0,0,0,0,0,0,0,0,0,0,0,0,0,0,0,0,0,0,0,0,0,0,0,0,0,0,0,0,0,0,0,0,0,0,0,0,0,0,0,0,0,0,0,0,0,0,0,0,0,0,0,0,0,0,0,0,0,0,0,0,0,0,0,0,0,0,0,0,0,0,0,0,0,0,0,0,0,0,0,0,0,0,0,0,0,0,0,0,0,0,0,0,0,0,0,0,0,0,0,0,0,0,0,0,0,0,0,0,0,0,0,0,0,0,0,0,0,0,0,0,0,0,0,0,0,0,0,0,0,0,0,0,0,0,0,0,0,0,0,0,0,0,0,0,0,0,0,0,0,0,0,0,0,0,0,0,0,0,0,0,0,0,0,0,0,0,0,0,0,0,0,0,0,0,0,0,0,0,0,5622,0,0,0,0,0,0,0,0,0,0,0,0,0,0,0,0,0,0,0,0,0,0,0,0,0,0,0,0,0,0,0,0,0,0,0,0,0,0,0,0,0,0,0,0,0,0,0,0,0,0,0,0,0,0,0,0,0,0,0,0,0,0,0,0,0,0,0,0,0,0,0,0,0,0,0,0,0,0,0,0,0,0,0,0,0,0,0,0,0,0,0,0,0,0,0,0,0,0,0,0,0,0,0,0,0,0,0,0,0,0,0,0,0,0,0,0,0,0,0,0,0,0,0,0,0,0,0,0,0,0,0,0,0,0,0,0,0,0,0,0,0,5627,5648,5649,5648,5648,5648,5648,5648,5648,5648,3483,0,0,0,0,0,0,0,0,0,0,0,0,0,0,0,0,0,0,0,0,0,0,0,0,0,0,0,0,0,0,0,0,0,0,0,0,0,0,0,0,0,0,0,0,0,0,0,0,0,0,0,0,0,0,0,0,0,0,0,0,0,0,0,0,0,0,0,0,0,0,0,0,0,0,0,0,0,0,0,0,0,0,0,0,0,0,0,0,0,0,0,0,0,0,0,0,0,0,0,0,0,0,0,0,0,0,0,0,0,0,0,0,0,0,0,0,0,0,0,0,0,0,0,0,0,0,0,0,0,0,0,5627,5648,5647,5509,5509,5509,5509,5509,3493,3493,5509,5509,5513,3483,0,0,0,0,0,0,0,0,0,0,0,0,0,0,0,0,0,0,0,0,0,0,0,0,0,0,0,0,0,0,0,0,0,0,0,0,0,0,0,0,0,0,0,0,0,0,0,0,0,0,0,0,0,0,0,0,0,0,0,0,0,0,0,0,0,0,0,0,0,0,0,0,0,0,0,0,0,0,0,0,0,0,0,0,0,0,0,0,0,0,0,0,0,0,0,0,0,0,0,0,0,0,0,0,0,0,0,0,0,0,0,0,0,0,0,0,0,0,0,0,0,0,0,0,0,0,0,0,5483,5504,5503,5509,5507,0,0,0,0,0,0,0,0,0,5477,5513,3483,0,0,0,0,0,0,0,0,0,0,0,0,0,0,0,0,0,0,0,0,0,0,0,0,0,0,0,0,0,0,0,0,0,0,0,0,0,0,0,0,0,0,0,0,0,0,0,0,0,0,0,0,0,0,0,0,0,0,0,0,0,0,0,0,0,0,0,0,0,0,0,0,0,0,0,0,0,0,0,0,0,0,0,0,0,0,0,0,0,0,0,0,0,0,0,0,0,0,0,0,0,0,0,0,0,0,0,0,0,0,0,0,0,0,0,0,0,0,0,0,0,0,0,0,0,5483,5504,5503,5509,5507,0,0,0,0,0,0,0,0,0,0,0,0,5477,3494,0,0,0,0,0,0,0,0,0,0,0,0,0,0,0,0,0,0,0,0,0,0,0,0,0,0,0,0,0,0,0,0,0,0,0,0,0,0,0,0,0,0,0,0,0,0,0,0,0,0,0,0,0,0,0,0,0,0,0,0,0,0,0,0,0,0,0,0,0,0,0,0,0,0,0,0,0,0,0,0,0,0,0,0,0,0,0,0,0,0,0,0,0,0,0,0,0,0,0,0,0,0,0,0,0,0,0,0,0,0,0,0,0,0,0,0,0,0,0,0,0,0,0,0,5483,5503,5509,5507,0,0,0,0,0,0,0,0,0,0,0,0,0,0,0,5484,3483,0,0,0,0,0,0,0,0,0,0,0,0,0,0,0,0,0,0,0,0,0,0,0,0,0,0,0,0,0,0,0,0,0,0,0,0,0,0,3459,3472,3475,0,0,0,0,0,0,0,0,0,0,0,0,0,0,0,0,0,0,0,0,0,0,0,0,0,0,0,0,0,0,0,0,0,0,0,0,0,0,0,0,0,0,0,0,0,0,0,0,0,0,0,0,0,0,0,0,0,0,0,0,0,0,0,0,0,0,0,0,0,0,0,0,0,0,0,0,0,0,0,0,0,0,5485,5515,0,0,0,0,0,0,0,0,0,0,0,0,0,0,0,0,0,5477,5513,3483,0,0,0,0,0,0,0,0,0,0,0,0,0,0,0,0,0,0,0,0,0,0,0,0,0,0,0,0,0,0,0,0,0,0,0,0,0,0,0,3460,3472,3472,3472,3475,0,0,0,0,0,0,0,0,0,0,0,0,0,0,0,0,0,0,0,0,0,0,0,0,0,0,0,0,0,0,0,0,0,0,0,0,0,0,0,0,0,0,0,0,0,0,0,0,0,0,0,0,0,0,0,0,0,0,0,0,0,0,0,0,0,0,0,0,0,0,0,0,0,0,0,0,0,0,5485,5515,0,0,0,0,0,0,0,0,0,0,0,0,0,0,0,0,0,0,5477,5513,3483,0,0,0,0,0,0,0,0,0,0,0,0,0,0,0,0,0,0,0,0,0,0,0,0,0,0,0,0,0,0,0,0,0,0,0,0,0,0,0,0,0,0,3460,3472,3472,3472,3472,3475,0,0,0,0,0,0,0,0,0,0,0,0,0,0,0,0,0,0,0,0,0,0,0,0,0,0,0,0,0,0,0,0,0,0,0,0,0,0,0,0,0,0,0,0,0,0,0,0,0,0,0,0,0,0,0,0,0,0,0,0,0,0,0,0,0,0,0,0,0,0,0,0,0,5485,5515,0,0,0,0,0,0,0,0,0,0,0,0,0,0,0,0,0,0,0,5485,6091,0,0,0,0,0,0,0,0,0,0,0,0,0,0,0,0,0,0,0,0,0,0,0,0,0,0,0,0,0,0,0,0,0,0,0,0,0,0,0,0,0,0,0,0,0,0,0,3460,3472,3472,3472,3472,3472,3472,3475,0,0,0,0,0,0,0,0,0,0,0,0,0,0,0,0,0,0,0,0,0,0,0,0,0,0,0,0,0,0,0,0,0,0,0,0,0,0,0,0,0,0,0,0,0,0,0,0,0,0,0,0,0,0,0,0,0,0,0,0,0,0,0,0,0,5483,5503,5507,0,0,0,0,0,0,0,0,0,0,0,0,0,0,0,0,0,0,0,5485,6091,0,0,0,0,0,0,0,0,0,0,0,0,0,0,0,0,0,0,0,0,0,0,0,0,0,0,0,0,0,0,0,0,0,0,0,0,0,0,0,0,0,0,0,0,0,0,0,0,0,0,0,0,0,0,5044,5056,5056,5056,5055,0,0,0,0,0,0,0,0,3503,0,0,0,0,0,0,0,0,0,0,0,0,0,0,0,0,0,0,0,0,0,0,0,0,0,0,0,0,0,0,0,0,0,0,0,0,0,0,0,0,0,0,0,0,0,0,0,0,0,0,0,0,5485,5515,0,0,0,0,0,0,0,0,0,0,0,0,0,0,0,0,0,0,0,0,5485,6091,0,0,0,0,0,0,0,0,0,0,0,0,0,0,0,0,0,0,0,0,0,0,0,0,0,0,0,0,0,0,0,0,0,0,0,0,0,0,0,0,0,0,0,0,0,0,0,0,0,0,0,0,0,0,0,0,0,0,0,0,0,0,0,0,0,0,3503,3503,3503,0,0,0,0,0,0,0,0,0,0,0,0,0,0,0,0,0,0,0,0,0,0,0,0,0,0,0,0,0,0,0,0,0,0,0,0,0,0,0,0,0,0,0,0,0,0,0,0,0,0,0,5485,5515,0,0,0,0,0,0,0,0,0,0,0,0,0,0,0,0,0,0,0,0,5485,6091,0,0,0,0,0,0,3462,0,0,0,0,0,0,0,0,0,0,0,0,0,0,0,0,0,0,0,0,0,0,0,0,0,0,0,0,0,0,0,0,0,0,0,0,0,0,0,0,0,0,0,0,0,0,0,0,0,0,0,0,0,0,0,0,0,3503,3503,3503,3503,0,0,0,0,0,0,0,0,0,0,0,0,0,0,0,0,0,0,0,0,0,0,0,0,0,0,0,0,0,0,0,0,0,0,0,0,0,0,0,0,0,0,0,0,0,0,0,0,0,0,0,0,5485,5515,0,0,0,0,0,0,0,0,0,0,0,0,0,0,0,0,0,0,0,0,5477,6089,6075,0,0,0,0,0,3463,0,0,0,0,0,0,0,0,0,0,0,0,0,0,0,0,0,0,0,0,0,0,0,0,0,0,0,0,0,0,0,0,0,0,0,0,0,0,0,0,0,0,0,0,0,0,0,0,0,0,0,0,0,0,0,5053,3503,3503,3503,0,0,0,0,0,0,0,0,0,0,0,0,0,0,0,0,0,0,0,0,0,0,0,0,0,0,0,0,0,0,0,0,0,0,0,0,0,0,0,0,0,0,0,0,0,0,0,0,0,0,0,0,0,5483,5503,5507,0,0,0,0,0,0,0,0,0,0,0,0,0,0,0,0,0,0,0,0,0,5485,6091,0,0,0,0,6056,3471,0,0,0,0,0,0,0,0,0,0,0,0,0,0,0,0,0,0,0,0,0,0,0,0,0,0,0,0,0,0,0,0,0,0,0,0,0,0,0,0,0,0,0,0,0,0,0,0,0,0,0,0,0,0,5051,5074,3501,0,0,0,0,0,0,0,0,0,0,0,0,0,0,0,0,0,0,0,0,0,0,0,0,0,0,0,0,0,0,0,0,0,0,0,0,0,0,0,0,0,0,0,0,0,0,0,0,0,0,0,0,0,0,5483,5503,5507,0,0,0,0,0,0,0,0,0,0,0,0,0,0,0,0,0,0,0,0,0,0,5485,6091,0,0,0,0,6055,0,0,0,0,0,0,0,0,0,0,0,0,0,0,0,0,0,0,0,0,0,0,0,0,0,0,0,0,0,0,0,0,0,0,0,0,0,0,0,0,0,0,0,0,0,0,0,0,0,0,0,0,0,5051,3485,3474,3493,0,0,0,0,0,0,0,0,0,0,0,0,0,0,0,0,0,0,0,0,0,0,0,0,0,0,0,0,0,0,0,0,0,0,0,0,0,0,0,0,0,0,0,0,0,0,0,0,0,0,0,0,0,0,5480,5490,5507,0,0,0,0,0,0,0,0,0,0,0,0,0,0,0,0,0,0,0,0,0,0,0,5485,6091,0,0,0,0,6055,0,0,0,0,0,0,0,0,0,0,0,0,0,0,0,0,0,0,0,0,0,0,0,0,0,0,0,0,0,0,0,0,0,0,0,0,0,0,0,0,0,0,0,0,0,0,0,0,0,0,0,0,5195,5215,3491,0,0,0,0,0,0,0,0,0,0,0,0,0,0,0,0,0,0,0,0,0,0,0,0,0,0,0,0,0,0,0,0,0,0,0,0,0,0,0,0,0,0,0,0,0,0,0,0,0,0,0,0,0,0,5483,5501,5487,0,0,0,0,0,0,0,0,0,0,0,0,0,0,0,0,0,0,0,0,0,0,0,0,0,5485,6091,0,0,0,0,3463,0,0,0,0,0,0,0,0,0,0,0,0,0,0,0,0,0,0,0,0,0,0,0,0,0,0,0,0,0,0,0,0,0,0,0,0,0,0,0,0,0,0,0,0,0,0,0,0,0,0,5195,5213,3474,3491,0,0,0,0,0,0,0,0,0,0,0,0,0,0,0,0,0,0,0,0,0,0,0,0,0,0,0,0,0,0,0,0,0,0,0,0,0,0,0,0,0,0,0,0,0,0,0,0,0,0,0,0,0,0,5483,5503,5507,0,0,0,0,0,0,0,0,0,0,0,0,0,0,0,0,0,0,0,0,0,0,0,0,0,0,5477,6089,6075,0,0,6056,3471,0,0,0,0,0,0,0,0,0,0,0,0,0,0,0,0,0,0,0,0,0,0,0,0,0,0,0,0,0,0,0,0,0,0,0,0,0,0,0,0,0,0,0,0,0,0,0,0,0,5195,5215,3491,0,0,0,0,0,0,0,0,0,0,0,0,0,0,0,0,0,0,0,0,0,0,0,0,0,0,0,0,0,0,0,0,0,0,0,0,3483,0,0,0,0,0,0,0,0,0,0,0,0,0,0,5483,5504,5504,5504,5504,5503,5507,0,0,0,0,0,0,0,0,0,0,0,0,0,0,0,0,0,0,0,0,0,0,0,0,0,0,0,0,5485,6091,0,0,6055,0,0,0,0,0,0,0,0,0,0,0,0,0,0,0,0,0,0,0,0,0,0,0,0,0,0,0,0,0,0,0,0,0,0,0,0,0,0,0,0,0,0,0,0,0,0,0,0,5195,5216,5215,3491,0,0,0,0,0,0,0,0,0,0,0,0,0,0,0,0,0,0,0,0,0,0,0,0,0,0,0,0,0,0,0,0,0,0,0,0,0,3502,3488,3488,3488,3488,3488,3488,3488,3488,5504,5504,5504,5504,5504,5504,5503,5509,5509,5509,5509,5507,0,0,0,0,0,0,0,0,0,0,0,0,0,0,0,0,0,0,0,0,0,0,0,0,0,0,0,0,0,5485,3499,0,0,3463,0,0,0,0,0,0,0,0,0,0,0,0,0,0,0,0,0,0,0,0,0,0,0,0,0,0,0,0,0,0,0,0,0,0,0,0,0,0,0,0,0,0,0,0,0,0,0,5195,5791,5797,5795,0,0,0,0,0,0,0,0,0,0,0,0,0,0,0,0,0,0,0,0,0,0,0,0,0,0,0,0,0,0,0,0,0,0,0,0,0,0,3493,3493,3493,3493,3493,3493,3493,3493,3493,3493,3496,3493,3493,3493,3493,5507,0,0,0,0,0,0,0,0,0,0,0,0,0,0,0,0,0,0,0,0,0,0,0,0,0,0,0,0,0,0,0,0,0,0,5485,3499,0,0,3458,0,0,0,0,0,0,0,0,0,0,0,0,0,0,0,0,0,0,0,0,0,0,0,0,0,0,0,0,0,0,0,0,0,0,0,0,0,0,0,0,0,0,0,0,0,0,5771,5791,5795,0,0,0,0,0,0,0,0,0,0,0,0,0,0,0,0,0,0,0,0,0,0,0,0,0,0,0,0,0,0,0,0,0,0,0,0,0,0,0,0,0,0,0,0,0,0,0,0,0,0,3458,0,0,0,0,0,0,0,0,0,0,0,0,0,0,0,0,0,0,0,0,0,0,0,0,0,0,0,0,0,0,0,0,0,0,0,0,0,0,0,5485,3499,0,3462,0,0,0,0,0,0,0,0,0,0,0,0,0,0,0,0,0,0,0,0,0,0,0,0,0,0,0,0,0,0,0,0,0,0,0,0,0,0,0,0,0,0,0,0,0,5771,5792,5791,5795,0,0,0,0,0,0,0,0,0,0,0,0,0,0,0,0,0,0,0,0,0,0,0,0,0,0,0,0,0,0,0,0,0,0,0,0,0,0,0,0,0,0,0,0,0,0,0,0,0,0,0,0,0,0,0,0,0,0,0,0,0,0,0,0,0,0,0,0,0,0,0,0,0,0,0,0,0,0,0,0,0,0,0,0,0,0,0,0,0,0,0,5477,5513,3488,3484,0,0,0,0,0,0,0,0,0,0,0,0,0,0,0,0,0,0,0,0,0,0,0,0,0,0,0,0,0,0,0,0,0,0,0,0,0,0,0,0,0,0,0,0,5771,5791,3493,3491,0,0,0,0,0,0,0,0,0,0,0,0,0,0,0,0,0,0,0,0,0,0,0,0,0,0,0,0,0,0,0,0,0,0,0,0,0,0,0,0,0,0,0,0,0,0,0,0,0,0,0,0,0,0,0,0,0,0,0,0,0,0,0,0,0,0,0,0,0,0,0,0,0,0,0,0,0,0,0,0,0,0,0,0,0,0,0,0,0,0,0,0,0,5485,3503,3499,0,0,0,0,0,0,0,0,0,0,0,0,0,0,0,0,0,0,0,0,0,0,0,0,0,0,0,0,0,0,0,0,0,0,0,0,0,0,0,0,0,0,0,3467,3487,3491,0,0,0,0,0,0,0,0,0,0,0,0,0,0,0,0,0,0,0,0,0,0,0,0,0,0,0,0,0,0,0,0,0,0,0,0,0,0,0,0,0,0,0,0,0,0,0,0,0,0,0,0,0,0,0,0,0,0,0,0,0,0,0,0,0,0,0,0,0,0,0,0,0,0,0,0,0,0,0,0,0,0,0,0,0,0,0,0,0,0,0,0,0,0,0,5485,3501,3491,0,0,0,0,0,0,0,0,0,0,0,0,0,0,0,0,0,0,0,0,0,0,0,0,0,0,0,0,0,0,0,0,0,0,0,0,0,0,0,0,0,0,3467,3487,3491,0,0,0,0,0,0,0,0,0,0,0,0,0,0,0,0,0,0,0,0,0,0,0,0,0,0,0,0,0,0,0,0,0,0,0,0,0,0,0,0,0,0,0,0,0,0,0,0,0,0,0,0,0,0,0,0,0,0,0,0,0,0,0,0,0,0,0,0,0,0,0,0,0,0,0,0,0,0,0,0,0,0,0,0,0,0,0,0,0,0,0,0,0,0,0,0,5485,5371,0,0,0,0,0,0,0,0,0,0,0,0,0,0,0,0,0,0,0,0,0,0,0,0,0,0,0,0,0,0,0,0,0,0,0,0,0,0,0,0,0,5339,3485,3474,3491,0,0,0,0,0,0,0,0,0,0,0,0,0,0,0,0,0,0,0,0,0,0,0,0,0,0,0,0,0,0,0,0,0,0,0,0,0,0,0,0,0,0,0,0,0,0,0,0,0,0,0,0,0,0,0,0,0,0,0,0,0,0,0,0,0,0,0,0,0,0,0,0,0,0,0,0,0,0,0,0,0,0,0,0,0,0,0,0,0,0,0,0,0,0,0,0,0,5341,5371,0,0,0,0,0,0,0,0,0,0,0,0,0,0,0,0,0,0,0,0,0,0,0,0,0,0,0,0,0,0,0,0,0,0,0,0,0,0,0,0,5339,5359,3491,0,0,0,0,0,0,0,0,0,0,0,0,0,0,0,0,0,0,0,0,0,0,0,0,0,0,0,0,0,0,0,0,0,0,0,0,0,0,0,0,0,0,0,0,0,0,0,0,0,0,0,0,0,0,0,0,0,0,0,0,0,0,0,0,5329,0,0,0,0,0,0,0,0,0,0,0,0,0,0,0,0,0,0,0,0,0,0,0,0,0,0,0,0,0,0,0,0,0,0,5341,5374,5355,0,0,0,0,0,0,0,0,0,0,0,0,0,0,0,0,0,0,0,0,0,0,0,0,0,0,0,0,0,0,0,0,0,0,0,0,0,0,3467,3487,3491,0,0,0,0,0,0,0,0,0,0,0,0,0,0,0,0,0,0,0,0,0,0,0,0,0,0,0,0,0,0,0,0,0,0,0,0,0,0,0,0,0,0,0,0,0,0,0,0,0,0,0,0,0,0,0,0,0,0,0,0,0,0,0,0,0,0,5329,0,0,0,0,0,0,0,0,0,0,0,0,0,0,0,0,0,0,0,0,0,0,0,0,0,0,0,0,0,0,0,0,0,5341,3503,5371,0,0,0,0,0,0,0,0,0,0,0,0,0,0,0,0,0,0,0,0,0,0,0,0,0,0,0,0,0,0,0,0,0,0,0,0,0,3467,3487,3491,0,0,0,0,0,0,0,0,0,0,0,0,0,0,0,0,0,0,0,0,0,0,0,0,0,0,0,0,0,0,0,0,0,0,0,0,0,0,0,0,0,0,0,0,0,0,0,0,0,0,0,0,0,0,0,0,0,0,0,0,0,0,0,0,0,0,0,0,5331,5347,0,0,0,0,0,0,0,0,0,0,0,0,0,0,0,0,0,0,0,0,0,0,0,0,0,0,0,0,0,0,0,5341,3503,5371,0,0,0,0,0,0,0,0,0,0,0,0,0,0,0,0,0,0,0,0,0,0,0,0,0,0,0,0,0,0,0,0,0,0,0,3467,3485,3474,3491,0,0,0,0,0,0,0,0,0,0,0,0,0,0,0,0,0,0,0,0,0,0,0,0,0,0,0,0,0,0,0,0,0,0,0,0,0,0,0,0,0,0,0,0,0,0,0,0,0,0,0,0,0,0,0,0,0,0,0,0,0,0,0,0,0,0,0,0,0,0,5332,5342,0,0,0,0,0,0,0,0,0,0,0,0,0,0,0,0,0,0,0,0,0,0,0,0,0,0,0,0,0,0,5341,3503,5371,0,0,0,0,0,0,0,0,0,0,0,0,0,0,0,0,0,0,0,0,0,0,0,0,0,0,0,0,0,0,0,0,0,0,3467,5791,5795,0,0,0,0,0,0,0,0,0,0,0,0,0,0,0,0,0,0,0,0,0,0,0,0,0,0,0,0,0,0,0,0,0,0,0,0,0,0,0,0,0,0,0,0,0,0,0,0,0,0,0,0,0,0,0,0,0,0,0,0,0,0,0,0,0,0,0,0,0,0,0,0,0,0,5329,0,0,0,0,0,0,0,0,0,0,0,0,0,0,0,0,0,0,0,0,0,0,0,0,0,0,0,0,0,5341,3503,3499,0,0,0,0,0,0,0,0,0,0,0,0,0,0,0,0,0,0,0,0,0,0,0,0,0,0,0,0,0,0,0,0,3467,3488,5791,5795,0,0,0,0,0,0,0,0,0,0,0,0,0,0,0,0,0,0,0,0,0,0,0,0,0,0,0,0,0,0,0,0,0,0,0,0,0,0,0,0,0,0,0,0,0,0,0,0,0,0,0,0,0,0,0,0,0,0,0,0,0,0,0,0,0,0,0,0,0,0,0,0,0,0,0,0,5329,0,0,0,0,0,0,0,0,0,0,0,0,0,0,0,0,0,0,0,0,0,0,0,0,0,0,0,0,5341,3503,3499,0,0,0,0,0,0,0,0,0,0,0,0,0,0,0,0,0,0,0,0,0,0,0,0,0,0,0,0,0,3467,3488,3485,5778,5797,5795,0,0,0,0,0,0,0,0,0,0,0,0,0,0,0,0,0,0,0,0,0,0,0,0,0,0,0,0,0,0,0,0,0,0,0,0,0,0,0,0,0,0,0,0,0,0,0,0,0,0,0,0,0,0,0,0,0,0,0,0,0,0,0,0,0,0,0,0,0,0,0,0,0,0,0,0,0,0,5331,5347,0,0,0,0,0,0,0,0,0,0,0,0,0,0,0,0,0,0,0,0,0,0,0,0,0,0,3469,3503,3499,0,0,0,0,0,0,0,0,0,0,0,0,0,0,0,0,0,0,0,0,0,0,0,0,0,0,0,3467,3488,5791,5797,5795,0,0,0,0,0,0,0,0,0,0,0,0,0,0,0,0,0,0,0,0,0,0,0,0,0,0,0,0,0,0,0,0,0,0,0,0,0,0,0,0,0,0,0,0,0,0,0,0,0,0,0,0,0,0,0,0,0,0,0,0,0,0,0,0,0,0,0,0,0,0,0,0,0,0,0,0,0,0,0,0,0,0,3460,5347,0,0,0,0,0,0,0,0,0,0,0,0,0,0,0,0,0,0,0,0,0,0,0,0,0,3469,3503,3499,0,0,0,0,0,0,0,0,0,0,0,0,0,0,0,0,0,0,0,0,0,0,0,0,3467,3488,3485,3474,3493,3491,0,0,0,0,0,0,0,0,0,0,0,0,0,0,0,5766,0,0,0,0,0,0,0,0,0,0,0,0,0,0,0,0,0,0,0,0,0,0,0,0,0,0,0,0,0,0,0,0,0,0,0,0,0,0,0,0,0,0,0,0,0,0,0,0,0,0,0,0,0,0,0,0,0,0,0,0,0,0,0,0,0,0,0,0,0,5764,3470,0,0,0,0,0,0,0,0,0,0,0,0,0,0,0,0,0,0,0,0,0,0,3464,3472,3474,3498,3502,3488,3483,0,0,0,0,0,0,0,0,0,0,0,0,0,0,0,0,0,3467,3488,3488,3488,3488,3487,3493,3491,0,0,0,0,0,0,0,0,0,0,0,0,0,0,0,0,0,0,3463,0,0,0,0,0,0,0,0,0,0,0,0,0,0,0,0,0,0,0,0,0,0,0,0,0,0,0,0,0,0,0,0,0,0,0,0,0,0,0,0,0,0,0,0,0,0,0,0,0,0,3464,5344,5344,5344,5344,5344,5344,5344,5344,5344,5344,3472,3475,0,0,0,0,0,0,0,0,5766,0,0,0,0,0,0,0,0,0,0,0,0,0,3464,3472,3472,3472,3472,3472,3472,3472,3471,0,0,3461,3493,3493,3497,3488,3488,3488,3488,3488,3488,3488,3488,3488,3488,3488,3488,3488,3488,3488,3488,6368,5791,5797,5797,5800,5797,5795,0,0,0,0,0,0,0,0,0,0,0,0,0,0,0,0,0,0,0,0,3463,0,0,0,0,0,0,0,0,0,0,0,0,0,0,0,0,0,0,0,0,0,0,0,0,0,0,0,0,0,0,0,0,0,0,0,0,0,0,0,0,0,0,0,0,3472,3472,3472,3472,5344,5344,5343,0,0,0,0,0,0,0,0,0,0,0,5332,5776,5776,5776,5776,5776,5776,5776,5776,5777,5776,5776,5776,6352,5776,6352,6352,5776,5776,5776,3472,3472,6352,6351,0,0,0,0,0,0,0,0,0,0,0,0,0,3466,3493,3493,3498,3503,3503,3503,3503,3503,3503,3503,3503,3503,5805,5797,5797,5797,5797,5795,0,0,5767,0,0,0,0,0,0,0,0,0,0,0,0,0,0,0,0,0,0,0,0,0,0,3460,3475,0,0,0,0,0,0,0,0,0,0,0,0,0,0,0,0,0,0,0,0,0,0,0,0,0,0,0,0,0,0,0,0,0,0,0,0,0,0,0,0,0,0,0,0,0,0,0,0,0,0,0,0,0,0,0,0,0,0,0,0,0,0,0,0,0,0,0,0,0,0,0,0,0,0,0,0,0,0,0,0,0,0,0,0,0,0,0,0,0,0,0,0,0,0,0,0,0,0,3463,0,0,3461,3493,3493,3493,3493,3493,5797,5797,5797,5797,5795,0,0,0,0,0,0,0,5767,0,0,0,0,0,0,0,0,0,0,0,0,0,0,0,0,0,0,0,0,0,0,0,3463,0,0,0,0,0,0,0,0,0,0,0,0,0,0,0,0,0,0,0,0,0,0,0,0,0,0,0,0,0,0,0,0,0,0,0,0,0,0,0,0,0,0,0,0,0,0,0,0,0,0,0,0,0,0,0,0,0,0,0,0,0,0,0,0,0,0,0,0,0,0,0,0,0,0,0,0,0,0,0,0,0,0,0,0,0,0,0,0,0,0,0,0,0,0,0,0,0,0,3458,0,0,0,0,0,0,0,0,0,0,0,0,0,0,0,0,0,0,0,0,6343,0,0,0,0,0,0,0,0,0,0,0,0,0,0,0,0,0,0,0,0,0,0,0,3463,0,0,0,0,0,0,0,0,0,0,0,0,0,0,0,0,0,0,0,0,0,0,0,0,0,0,0,0,0,0,0,0,0,0,0,0,0,0,0,0,0,0,0,0,0,0,0,0,0,0,0,0,0,0,0,0,0,0,0,0,0,0,0,0,0,0,0,0,0,0,0,0,0,0,0,0,0,0,0,0,0,0,0,0,0,0,0,0,0,0,0,0,0,0,0,0,0,0,0,3462,0,0,0,0,0,0,0,0,0,0,0,0,0,0,0,0,0,0,0,6343,0,0,0,0,0,0,0,0,0,0,0,0,0,0,0,0,0,0,0,0,0,0,0,3463,0,0,0,0,0,0,0,0,0,0,0,0,0,0,0,0,0,0,0,0,0,0,0,0,0,0,0,0,0,0,0,0,0,0,0,0,0,0,0,0,0,0,0,0,0,0,0,0,0,0,0,0,0,0,0,0,0,0,0,0,0,0,0,0,0,0,0,0,0,0,0,0,0,0,0,0,0,0,0,0,0,0,0,0,0,0,0,0,0,0,0,0,0,0,0,0,0,0,0,3463,0,0,0,0,0,0,0,0,0,0,0,0,0,0,0,0,0,0,0,5767,0,0,0,0,0,0,0,0,0,0,0,0,0,0,0,0,0,0,0,0,0,0,0,3458,0,0,0,0,0,0,0,0,0,0,0,0,0,0,0,0,0,0,0,0,0,0,0,0,0,0,0,0,0,0,0,0,0,0,0,0,0,0,0,0,0,0,0,0,0,0,0,0,0,0,0,0,0,0,0,0,0,0,0,0,0,0,0,0,0,0,0,0,0,0,0,0,0,0,0,0,0,0,0,0,0,0,0,0,0,0,0,0,0,0,0,0,0,0,0,0,0,0,0,3460,6355,0,0,0,0,0,0,0,0,0,0,0,0,0,0,0,0,0,0,5767,0,0,0,0,0,0,0,0,0,0,0,0,0,0,0,0,0,0,0,0,0,0,3462,0,0,0,0,0,0,0,0,0,0,0,0,0,0,0,0,0,0,0,0,0,0,0,0,0,0,0,0,0,0,0,0,0,0,0,0,0,0,0,0,0,0,0,0,0,0,0,0,0,0,0,0,0,0,0,0,0,0,0,0,0,0,0,0,0,0,0,0,0,0,0,0,0,0,0,0,0,0,0,0,0,0,0,0,0,0,0,0,0,0,0,0,0,0,0,0,0,0,0,0,0,6343,0,0,0,0,0,0,0,0,0,0,0,0,0,0,0,0,0,0,5762,0,0,0,0,0,0,0,0,0,0,0,0,0,0,0,0,0,0,0,0,0,0,3458,0,0,0,0,0,0,0,0,0,0,0,0,0,0,0,0,0,0,0,0,0,0,0,0,0,0,0,0,0,0,0,0,0,0,0,0,0,0,0,0,0,0,0,0,0,0,0,0,0,0,0,0,0,0,0,0,0,0,0,0,0,0,0,0,0,0,0,0,0,0,0,0,0,0,0,0,0,0,0,0,0,0,0,0,0,0,0,0,0,0,0,0,0,0,0,0,0,0,0,0,0,3460,3475,0,0,0,0,0,0,0,0,0,0,0,0,0,0,0,0,0,0,5766,0,0,0,0,0,0,0,0,0,0,0,0,0,0,0,0,0,0,0,0,3462,0,0,0,0,0,0,0,0,0,0,0,0,0,0,0,0,0,0,0,0,0,0,0,0,0,0,0,0,0,0,0,0,0,0,0,0,0,0,0,0,0,0,0,0,0,0,0,0,0,0,0,0,0,0,0,0,0,0,0,0,0,0,0,0,0,0,0,0,0,0,0,0,0,0,0,0,0,0,0,0,0,0,0,0,0,0,0,0,0,0,0,0,0,0,0,0,0,0,0,0,0,0,0,3458,0,0,0,0,0,0,0,0,0,0,0,0,0,0,0,0,0,0,3458,0,0,0,0,0,0,0,0,0,0,0,0,0,0,0,0,0,0,0,0,3458,0,0,0,0,0,0,0,0,0,0,0,0,0,0,0,0,0,0,0,0,0,0,0,0,0,0,0,0,0,0,0,0,0,0,0,0,0,0,0,0,0,0,0,0,0,0,0,0,0,0,0,0,0,0,0,0,0,0,0,0,0,0,0,0,0,0,0,0,0,0,0,0,0,0,0,0,0,0,0,0,0,0,0,0,0,0,0,0,0,0,0,0,0,0,0,0,0,0,0,0,0,0,0,0,0,0,0,0,0,0,0,0,0,0,0,0,0,0,0,0,0,0,0,3457,0,0,0,0,0,0,0,0,0,0,0,0,0,0,0,0,0,0,3462,0,0,0,0,0,0,0,0,0,0,0,0,0,0,0,0,0,0,0,0,0,0,0,0,0,0,0,0,0,0,0,0,0,0,0,0,0,0,0,0,0,0,0,0,0,0,0,0,0,0,0,0,0,0,0,0,0,0,0,0,0,0,0,0,0,0,0,0,0,0,0,0,0,0,0,0,0,0,0,0,0,0,0,0,0,0,0,0,0,0,0,0,0,0,0,0,0,0,0,0,0,0,0,0,0,0,0,0,0,0,0,0,0,0,0,0,0,0,0,0,0,0,0,0,0,3462,0,0,0,0,0,0,0,0,0,0,0,0,0,0,0,0,0,3463,0,0,0,0,0,0,0,0,0,3464,3472,5056,5056,5056,5056,5056,5056,5056,3472,3475,0,0,0,0,0,0,0,0,0,0,0,0,0,0,0,0,0,0,0,0,0,0,0,0,0,0,0,0,0,0,0,0,0,0,0,0,0,0,0,0,0,0,0,0,0,0,0,0,0,0,0,0,0,0,0,0,0,0,0,0,0,0,0,0,0,0,0,0,0,0,0,0,0,0,0,0,0,0,0,0,0,0,0,0,0,0,0,0,0,0,0,0,0,0,0,0,0,0,0,0,0,0,0,0,0,3463,0,0,0,0,0,0,0,3464,3472,3472,3472,3472,3472,3472,3472,3472,3472,3473,3472,3472,3472,3472,3472,3472,3472,3472,3472,5055,0,0,0,0,0,0,0,0,0,5044,5056,5056,5056,3472,3470,0,0,0,0,0,0,0,0,0,0,0,0,0,0,0,0,0,0,0,0,0,0,0,0,0,0,0,0,0,0,0,0,0,0,0,0,0,0,0,0,0,0,0,0,0,0,0,0,0,0,0,0,0,0,0,0,0,0,0,0,0,0,0,0,0,0,0,0,0,0,0,0,0,0,0,0,0,0,0,0,0,0,0,0,0,0,0,0,0,0,0,0,0,3459,3472,3472,3472,3472,3472,3472,3473,3472,3472,3472,3472,3472,3472,3472,3471,0,0,0,0,0,0,0,0,0,0,0,0,0,0,0,0,0,0,0,0,0,0,0,0,0,0,0,0,0,0,0,0,0,0,0,0,0,0,0,0,0,0,0,0,0,0,0,0,0,0,0,0,0,0,0,0,0,0,0,0,0,0,0,0,0,0,0,0,0,0,0,0,0,0,0,0,0,0,0,0,0,0,0,0,0,0,0,0,0,0,0,0,0,0,0,0,0,0,0,0,0,0,0,0,0,0,0,0,0,0,0,0,0,0,0,0,0,0,0,0,0,0,0,0,0,0,0,0,0,0,0,0,0,0,0,0,0,0,0,0,0,0,0,0,0,0,0,0,0,0,0,0,0,0,0,0,0,0,0,0,0,0,0,0,0,0,0,0,0,0,0,0,0,0,0,0,0,0,0,0,0,0,0,0,0,0,0,0,0,0,0,0,0,0,0,0,0,0,0,0,0,0,0,0,0,0,0,0,0,0,0,0,0,0,0,0,0,0,0,0,0,0,0,0,0,0,0,0,0,0,3459,3475,0,0,0,0,0,0,0,0,0,0,0,0,0,0,0,0,0,0,0,0,0,0,0,0,0,0,0,0,0,0,0,0,0,0,0,0,0,0,0,0,0,0,0,0,0,0,0,0,0,0,0,0,0,0,0,0,0,0,0,0,0,0,0,0,0,0,0,0,0,0,0,0,0,0,0,0,0,0,0,0,0,0,0,0,0,0,0,0,0,0,0,0,0,0,0,0,0,0,0,0,0,0,0,0,0,0,0,0,0,0,0,0,0,0,0,0,0,0,0,0,0,0,0,0,0,0,0,0,0,0,0,0,0,0,0,0,0,0,0,0,0,0,0,3460,3472,3475,0,0,0,0,0,0,0,0,0,0,0,0,0,0,0,0,0,0,0,0,0,0,0,0,0,0,0,0,0,0,0,0,0,0,0,0,0,0,0,0,0,0,0,0,0,0,0,0,0,0,0,0,0,0,0,0,0,0,0,0,0,0,0,0,0,0,0,0,0,0,0,0,0,0,0,0,0,0,0,0,0,0,0,0,0,0,0,0,0,0,0,0,0,3490,0,0,0,0,0,0,0,0,0,0,0,0,0,0,0,0,0,0,0,0,0,0,0,0,0,0,0,0,0,0,0,0,0,0,0,0,0,0,0,0,0,0,0,0,0,0,0,0,0,3460,3472,3475,0,0,0,0,0,0,0,0,0,0,0,0,0,0,0,0,0,0,0,0,0,0,0,0,0,0,0,0,0,0,0,0,0,0,0,0,0,0,0,0,0,0,0,0,0,0,0,0,0,0,0,0,0,0,0,0,0,0,0,0,0,0,0,0,0,0,0,0,0,0,0,0,0,0,0,0,0,0,0,0,0,0,0,0,0,0,0,0,5051,5074,3503,3503,3503,0,0,0,0,0,0,0,0,0,0,0,0,0,0,0,0,0,0,0,0,0,0,0,0,0,0,0,0,0,0,0,0,0,0,0,0,0,0,0,0,0,0,0,0,0,0,0,0,0,0,3460,3472,3475,0,0,0,0,0,0,0,0,0,0,0,0,0,0,0,0,0,0,0,0,0,0,0,0,0,0,0,0,0,0,0,0,0,0,0,0,0,0,0,0,0,0,0,0,0,0,0,0,0,0,0,0,0,0,0,0,0,0,0,0,0,0,0,0,0,0,0,0,0,0,0,0,0,0,0,0,0,0,0,0,0,0,5051,5072,5072,5072,5074,3503,3503,3503,0,0,0,0,0,0,0,0,0,0,0,0,0,0,0,0,0,0,0,0,0,0,0,0,0,0,0,0,0,0,3462,0,0,0,0,0,0,0,0,0,0,0,0,0,0,0,0,0,0,0,0,0,0,3460,3472,3475,0,0,0,0,0,0,0,0,0,0,0,0,0,0,0,0,0,0,0,0,0,0,0,0,0,0,0,0,0,0,0,0,0,0,0,0,0,0,0,0,0,0,0,0,0,0,0,0,0,0,0,0,0,0,0,0,0,0,0,0,0,0,0,0,0,0,0,0,0,0,0,0,0,0,0,0,5051,5072,5072,5072,5071,3493,3493,3493,0,0,0,0,0,0,0,0,0,0,0,0,0,0,0,0,0,0,0,0,0,0,0,0,0,0,0,0,0,0,0,0,0,0,3460,3475,0,0,0,0,0,0,0,0,0,0,0,0,0,0,0,0,0,0,0,0,0,0,0,3460,3472,3475,0,0,0,0,0,0,0,0,0,0,0,0,0,0,0,0,0,0,0,0,0,0,0,0,0,0,0,0,0,0,0,0,0,0,0,0,0,0,0,0,0,0,0,0,0,0,0,0,0,0,0,0,0,0,0,0,0,0,0,0,0,0,0,0,0,0,0,0,0,0,5195,5216,5216,5216,3487,3493,3493,3493,3491,0,0,0,0,0,0,0,0,0,0,0,0,0,0,0,0,0,0,0,0,0,0,0,0,0,0,0,0,0,0,0,0,0,0,0,0,0,0,3463,0,0,0,0,0,0,0,0,0,0,0,0,0,0,0,0,0,0,0,0,0,0,0,0,0,3460,3472,3475,0,0,0,0,0,0,0,0,0,0,0,0,0,0,0,0,0,0,0,0,0,0,0,0,0,0,0,0,0,0,0,0,0,0,0,0,0,0,0,0,0,0,0,0,0,0,0,0,0,0,0,0,0,0,0,0,0,0,0,0,0,0,0,0,5195,5216,5216,5216,5215,5221,5221,3493,3491,0,0,0,0,0,0,0,0,0,0,0,0,0,0,0,0,0,0,0,0,0,0,0,0,0,0,0,0,0,0,0,0,0,0,0,0,0,0,0,0,0,0,3460,3475,0,0,0,0,0,0,0,0,0,0,0,0,0,0,0,0,0,0,0,0,0,0,0,0,0,0,3460,3472,3475,0,0,0,0,0,0,0,0,0,0,0,0,0,0,0,0,0,0,0,0,0,0,0,0,0,0,0,0,0,0,0,0,0,0,0,0,0,0,0,0,0,0,0,0,0,0,0,0,0,0,0,0,0,0,0,0,0,0,5195,5216,5216,5216,6367,6373,6373,6373,6371,0,0,0,0,0,0,0,0,0,0,0,0,0,0,0,0,0,0,0,0,0,0,0,0,0,0,0,0,0,0,0,0,0,0,0,0,0,0,0,0,0,0,0,0,0,0,0,3463,0,0,0,0,0,0,0,0,0,0,0,0,0,0,0,0,0,0,0,0,0,0,0,0,0,0,0,0,3460,3472,3475,0,0,0,0,0,0,0,0,0,0,0,0,0,0,0,0,0,0,0,0,0,0,0,0,0,0,0,0,0,0,0,0,0,0,0,0,0,0,0,0,0,0,0,0,0,0,0,0,0,0,0,5195,5216,5216,5216,5216,6367,6373,6373,6373,6371,0,0,0,0,0,0,0,0,0,0,0,0,0,0,0,0,0,0,0,0,0,0,0,0,0,0,0,0,0,0,0,0,0,0,0,0,0,0,0,0,0,0,0,0,0,0,0,0,0,0,0,5764,5779,0,0,0,0,0,0,0,0,0,0,0,0,0,0,0,0,0,0,0,0,0,0,0,0,0,0,0,0,0,3460,3472,3470,0,0,0,0,0,0,0,0,0,0,0,0,0,0,0,0,0,0,0,0,0,0,0,0,0,0,0,0,0,0,0,0,0,0,0,0,0,0,0,0,0,0,0,0,5195,5216,5216,5216,5216,6367,6373,6373,6373,5221,5219,0,0,0,0,0,0,0,0,0,0,0,0,0,0,0,0,0,0,0,0,0,0,0,0,0,0,0,0,0,0,0,0,0,0,0,0,0,0,0,0,0,0,0,0,0,0,0,0,0,0,0,0,0,0,0,0,5767,0,0,0,0,0,0,0,0,0,0,0,0,0,0,0,0,0,0,0,0,0,0,0,0,0,0,0,0,0,0,0,0,5187,5198,0,0,0,0,0,0,0,0,0,0,0,0,0,0,0,0,0,0,0,0,0,0,0,0,0,0,0,0,0,0,0,0,5195,5216,5216,5216,5216,5216,5216,5216,5216,5216,5215,6373,6373,6373,6373,6371,0,0,0,0,0,0,0,0,0,0,0,0,0,0,0,0,0,0,0,0,0,0,0,0,0,0,0,0,0,0,0,0,0,0,0,0,0,0,0,0,0,0,0,0,0,0,0,0,0,0,0,0,0,0,0,0,0,0,0,0,0,5764,5779,0,0,0,0,0,0,0,0,0,0,0,0,0,0,0,0,0,0,0,0,0,0,0,0,0,0,0,0,0,0,0,0,0,5187,5200,5198,0,0,0,0,0,0,0,0,0,0,0,0,0,0,0,0,0,0,0,5195,5216,5216,5216,5216,5216,5216,5216,5216,5216,5215,5221,5221,5221,5221,5221,5221,5221,3493,3493,3491,0,0,0,0,0,0,0,0,0,0,0,0,0,0,0,0,0,0,0,0,0,0,0,0,0,0,0,0,0,0,0,0,0,0,0,0,0,0,0,0,0,0,0,0,0,0,0,0,0,0,0,0,0,0,0,0,0,0,0,0,0,0,0,0,0,0,0,5767,0,0,0,0,0,0,0,0,0,0,0,0,0,0,0,0,0,0,0,0,0,0,0,0,0,0,0,0,0,0,0,0,0,0,0,0,5187,5198,0,0,0,0,0,0,0,0,0,0,0,0,5195,5216,5216,5216,5216,5215,5221,5221,5221,5221,5221,5221,5221,5221,5221,5219,0,0,0,0,0,0,0,0,0,0,0,0,0,0,0,0,0,0,0,0,0,0,0,0,0,0,0,0,0,0,0,0,0,0,0,0,0,0,0,0,0,0,0,0,0,0,0,0,0,0,0,0,0,0,0,0,0,0,0,0,0,0,0,0,0,0,0,0,0,0,0,0,0,0,0,0,0,5764,5779,0,0,0,0,0,0,0,0,0,0,0,0,0,0,0,0,0,0,0,0,0,0,0,0,0,0,0,0,0,0,0,0,0,0,0,0,0,5187,5198,0,0,0,0,0,5195,5216,5216,5216,5216,5215,5221,5221,5221,5221,5219,0,0,0,0,0,0,0,0,0,0,0,0,0,0,0,0,0,0,0,0,0,0,0,0,0,0,0,0,0,0,0,0,0,0,0,0,0,0,0,0,0,0,0,0,0,0,0,0,0,0,0,0,0,0,0,0,0,0,0,0,0,0,0,0,0,0,0,0,0,0,0,0,0,0,0,0,0,0,0,0,0,0,0,0,0,0,0,0,5767,0,0,0,0,0,0,0,0,0,0,0,0,0,0,0,0,0,0,0,0,0,0,0,0,0,0,0,0,0,0,0,0,0,0,0,0,0,0,0,0,5195,5216,5216,5216,5215,5221,5221,5221,5221,5219,0,0,0,0,0,0,0,0,0,0,0,0,0,0,0,0,0,0,0,0,0,0,0,0,0,0,0,0,0,0,0,0,0,0,0,0,0,0,0,0,0,0,0,0,0,0,0,0,0,0,0,0,0,0,0,0,0,0,0,0,0,0,0,0,0,0,0,0,0,0,0,0,0,0,0,0,0,0,0,0,0,0,3462,0,0,0,0,0,0,0,0,0,0,3460,3475,0,0,0,0,0,0,0,0,0,0,0,0,0,0,0,0,0,0,0,0,0,0,0,0,0,0,0,0,0,0,0,0,0,0,0,5195,5216,5216,5216,5215,5221,5221,5221,5219,0,0,0,0,0,0,0,0,0,0,0,0,0,0,0,0,0,0,0,0,0,0,0,0,0,0,0,0,0,0,0,0,0,0,0,0,0,0,0,0,0,0,0,0,0,0,0,0,0,0,0,0,0,0,0,0,0,0,0,0,0,0,0,0,0,0,0,0,0,0,0,0,0,0,0,0,0,0,0,0,0,0,0,0,0,0,6195,6217,3488,3488,3488,3483,0,0,0,0,0,0,0,3458,0,0,0,0,0,0,0,0,0,0,0,0,0,0,0,0,0,0,0,0,0,0,0,0,0,0,0,0,0,0,5195,5216,5216,5216,5216,5215,5221,5221,5221,5219,0,0,0,0,0,0,0,0,0,0,0,0,0,0,0,0,0,0,0,0,0,0,0,0,0,0,0,0,0,0,0,0,0,0,0,0,0,0,0,0,0,0,0,0,0,0,0,0,0,0,0,0,0,0,0,0,0,0,0,0,0,0,0,0,0,0,0,0,0,0,0,0,0,0,0,0,0,0,0,0,0,0,0,0,0,0,0,0,0,0,0,6197,3493,3493,3493,3497,3488,3488,3488,3483,0,0,0,0,0,0,0,0,0,0,0,0,0,0,0,0,0,0,0,0,0,0,0,0,0,0,0,0,0,5195,5216,5216,5216,5216,5215,5221,5221,5221,5221,5219,0,0,0,0,0,0,0,0,0,0,0,0,0,0,0,0,0,0,0,0,0,0,0,0,0,0,0,0,0,0,0,0,0,0,0,0,0,0,0,0,0,0,0,0,0,0,0,0,0,0,0,0,0,0,0,0,0,0,0,0,0,0,0,0,0,0,0,0,0,0,0,0,0,0,0,0,0,0,0,0,0,0,0,0,0,0,0,0,0,0,0,0,0,0,0,0,0,0,0,3461,3493,3493,3493,3497,3488,3488,3488,3488,3483,0,0,0,0,0,0,0,0,0,0,0,0,0,0,5195,5216,5216,5216,5216,5216,5216,5216,5216,5216,5215,5221,5221,5221,5221,5219,0,0,0,0,0,0,0,0,0,0,0,0,0,0,0,0,0,0,0,0,0,0,0,0,0,0,0,0,0,0,0,0,0,0,0,0,0,0,0,0,0,0,0,0,0,0,0,0,0,0,0,0,0,0,0,0,0,0,0,0,0,0,0,0,0,0,0,0,0,0,0,0,0,0,0,0,0,0,0,0,0,0,0,0,0,0,0,0,0,0,0,0,0,0,0,0,0,0,0,0,0,0,0,0,0,0,0,0,3461,3493,3493,3493,3493,3497,3488,3488,5216,5216,5216,5216,5216,5216,5216,5216,5216,5216,5216,5216,5215,5221,5221,5221,5221,5221,5221,5221,5221,5221,5219,0,0,0,0,0,0,0,0,0,0,0,0,0,0,0,0,0,0,0,0,0,0,0,0,0,0,0,0,0,0,0,0,0,0,0,0,0,0,0,0,0,0,0,0,0,0,0,0,0,0,0,0,0,0,0,0,0,0,0,0,0,0,0,0,0,0,0,0,0,0,0,0,0,0,0,0,0,0,0,0,0,0,0,0,0,0,0,0,0,0,0,0,0,0,0,0,0,0,0,0,0,0,0,0,0,0,0,0,0,0,0,0,0,0,0,0,0,0,5909,5941,5941,5941,5941,5944,5941,5941,5941,5941,3493,3493,3493,3493,3493,3491,0,0,0,0,0,0,0,0,0,0,0,0,0,0,0,0,0,0,0,0,0,0,0,0,0,0,0,0,0,0,0,0,0,0,0,0,0,0,0,0,0,0,0,0,0,0,0,0,0,0,0,0,0,0,0,0,0,0,0,0,0,0,0,0,0,0,0,0,0,0,0,0,0,0,0,0,0,0,0,0,0,0,0,0,0,0,0,0,0,0,0,0,0,0,0,0,0,0,0,0,0,0,0,0,0,0,0,0,0,0,0,0,0,0,0,0,0,0,0,0,0,0,0,0,0,0,0,0,0,0,0,0,0,5906,0,0,0,0,0,0,0,0,0,0,0,0,0,0,0,0,0,0,0,0,0,0,0,0,0,0,0,0,0,0,0,0,0,0,0,0,0,0,0,0,0,0,0,0,0,0,0,0,0,0,0,0,0,0,0,0,0,0,0,0,0,0,0,0,0,0,0,0,0,0,0,0,0,0,0,0,0,0,0,0,0,0,0,0,0,0,0,0,0,0,0,0,0,0,0,0,0,0,0,0,0,0,0,0,0,0,0,0,0,0,0,0,0,0,0,0,0,0,0,0,0,0,0,0,0,0,0,0,0,0,0,0,0,0,0,0,0,0,0,0,0,0,0,0,0,0,0,0,0,0,0,0,0,0,0,0,0,0,0,0,0,0,0,0,0,0,0,0,0,0,0,0,0,0,0,0,0,0,0,0,0,0,0,0,0,0,0,0,0,0,0,0,0,0,0,0,0,0,0,0,0,0,0,0,0,0,0,0,0,0,0,0,0,0,0,0,0,0,0,0,0,0,0,0,0,0,0,0,0,0,0,0,0,0,0,0,0,0,0,0,0,0,0,0,0,0,0,0,0,0,0,0,0,0,0,0,0,0,0,0,0,0,0,0,0,0,0,0,0,0,0,0,0,0,0,0,0,0,0,0,0,0,0,0,0,0,0,0,0,0,0,0,0,0,0,0,0,0,0,0,0,0,0,0,0,0,0,0,0,0,0,0,0,0,0,0,0,0,0,0,0,0,0,0,0,0,0,0,0,0,0,0,0,0,0,0,0,0,0,0,0,0,0,0,0,0,0,0,0,0,0,0,0,0,0,0,0,0,0,0,0,0,0,0,0,0,0,0,0,0,0,0,0,0,0,0,0,0,0,0,0,0,0,0,0,0,0,0,0,0,0,0,0,0,0,0,0,0,0,0,0,0,0,0,0,0,0,0,0,0,0,0,0,0,0,0,0,0,0,0,0,0,0,0,0,0,0,0,0,0,0,0,0,0,0,0,0,0,0,0,0,0,0,0,0,0,0,0,0,0,0,0,0,0,0,0,0,0,0,0,0,0,0,0,0,0,0,0,0,0,0,0,0,0,0,0,0,0,0,0,0,0,0,0,0,0,0,0,0,0,0,0,0,0,0,0,0,0,0,0,0,0,0,0,0,0,0,0,0,0,0,0,0,0,0,0,0,0,0,0,0,0,0,0,0,0,0,0,0,0,0,0,0,0,0,0,0,0,0,0,0,0,0,0,0,0,0,0,0,0,0,0,0,0,0,0,0,0,0,0,0,0,0,0,0,0,0,0,0,0,0,0,0,0,0,0,0,0,0,0,0,0,0,0,0,0,0,0,0,0,0,0,0,0,0,0,0,0,0,0,0,0,0,0,0,0,0,0,0,0,0,0,0,0,0,0,0,0,0,0,0,0,0,0,0,0,0,0,0,0,0,0,0,0,0,0,0,0,0,0,0,0,0,0,0,0,0,0,0,0,0,0,0,0,0,0,0,0,0,0,0,0,0,0,0,0,0,0,0,0,0,0,0,0,0,0,0,0,0,0,0,0,0,0,0,0,0,0,0,0,0,0,0,0,0,0,0,0,0,0,0,0,0,0,0,0,0,0,0,0,0,0,0,0,0,0,0,0,0,0,0,0,0,0,0,0,0,0,0,0,0,0,0,0,0,0,0,0,0,0,0,0,0,0,0,0,0,0,0,0,0,0,0,0,0,0,0,0,0,0,0,0,0,0,0,0,0,0,0,0,0,0,0,0,0,0,0,0,0,0,0,0,0,0,0,0,0,0,0,0,0,0,0,0,0,0,0,0,0,0,0,0,0,0,0,0,0,0,0,0,0,0,0,0,0,0,0,0,0,0,0,0,0,0,0,0,0,0,0,0,0,0,0,0,0,0,0,0,0,0,0,0,0,0,0,0,0,0,0,0,0,0,0,0,0,0,0,0,0,0,0,0,0,0,0,0,0,0,0,0,0,0,0,0,0,0,0,0,0,0,0,0,0,0,0,0,0,0,0,0,0,0,0,0,0,0,0,0,0,0,0,0,0,0,0,0,0,0,0,0,0,0,0,0,0,0,0,0,0,0,0,0,0,0,0,0,0,0,0,0,0,0,0,0,0,0,0,0,0,0,0,0,0,0,0,0,0,0,0,0,0,0,0,0,0,0,0,0,0,0,0,0,0,0,0,0,0,0,0,0,0,0,0,0,0,0,0,0,0,0,0,0,0,0,0,0,0,0,0,0,0,0,0,0,0,0,0,0,0,0,0,0,0,0,0,0,0,0,0,0,0,0,0,0,0,0,0,0,0,0,0,0,0,0,0,0,0,0,0,0,0,0,0,0,0,0,0,0,0,0,0,0,0,0,0,0,0,0,0,0,0,0,0,0,0,0,0,0,0,0,0,0,0,0,0,0,0,0,0,0,0,0,0,0,0,0,0,0,0,0,0,0,0,0,0,0,0,0,0,0,0,0,0,0,0,0,0,0,0,0,0,0,0,0,0,0,0,0,0,0,0,0,0,0,0,0,0,0,0,0,0,0,0,0,0,0,0,0,0,0,0,0,0,0,0,0,0,0,0,0,0,0,0,0,0,0,0,0,0,0,0,0,0,0,0,0,0,0,0,0,0,0,0,0,0,0,0,0,0,0,0,0,0,0,0,0,0,0,0,0,0,0,0,0,0,0,0,0,0,0,0,0,0,0,0,0,0,0,0,0,0,0,0,0,0,0,0,0,0,0,0,0,0,0,0,0,0,0,0,0,0,0,0,0,0,0,0,0,0,0,0,0,0,0,0,0,0,0,0,0,0,0,0,0,0,0,0,0,0,0,0,0,0,0,0,0,0,0,0,0,0,0,0,0,0,0,0,0,0,0,0,0,0,0,0,0,0,0,0,0,0,0,0,0,0,0,0,0,0,0,0,0,0,0,0,0,0,0,0,0,0,0,0,0,0,0,0,0,0,0,0,0,0,0,0,0,0,0,0,0,0,0,0,0,0,0,0,0,0,0,0,0,0,0,0,0,0,0,0,0,0,0,0,0,0,0,0,0,0,0,0,0,0,0,0,0,0,0,0,0,0,0,0,0,0,0,0,0,0,0,0,0,0,0,0,0,0,0,0,0,0,0,0,0,0,0,0,0,0,0,0,0,0,0,0,0,0,0,0,0,0,0,0,0,0,0,0,0,0,0,0,0,0,0,0,0,0,0,0,0,0,0,0,0,0,0,0,0,0,0,0,0,0,0,0,0,0,0,0,0,0,0,0,0,0,0,0,0,0,0,0,0,0,0,0,0,0,0,0,0,0,0,0,0,0,0,0,0,0,0,0,0,0,0,0,0,0,0,0,0,0,0,0,0,0,0,0,0,0,0,0,0,0,0,0,0,0,0,0,0,0,0,0,0,0,0,0,0,0,0,0,0,0,0,0,0,0,0,0,0,0,0,0,0,0,0,0,0,0,0,0,0,0,0,0,0,0,0,0,0,0,0,0,0,0,0,0,0,0,0,0,0,0,0,0,0,0,0,0,0,0,0,0,0,0,0,0,0,0,0,0,0,0,0,0,0,0,0,0,0,0,0,0,0,0,0,0,0,0,0,0,0,0,0,0,0,0,0,0,0,0,0,0,0,0,0,0,0,0,0,0,0,0,0,0,0,0,0,0,0,0,0,0,0,0,0,0,0,0,0,0,0,0,0,0,0,0,0,0,0,0,0,0,0,0,0,0,0,0,0,0,0,0,0,0,0,0,0,0,0,0,0,0,0,0,0,0,0,0,0,0,0,0,0,0,0,0,0,0,0,0,0,0,0,0,0,0,0,0,0,0,0,0,0,0,0,0,0,0,0,0,0,0,0,0,0,0,0,0,0,0,0,0,0,0,0,0,0,0,0,0,0,0,0,0,0,0,0,0,0,0,0,0,0,0,0,0,0,0,0,0,0,0,0,0,0,0,0,0,0,0,0,0,0,0,0,0,0,0,0,0,0,0,0,0,0,0,0,0,0,0,0,0,0,0,0,0,0,0,0,0,0,0,0,0,0,0,0,0,0,0,0,0,0,0,0,0,0,0,0,0,0,0,0,0,0,0,0,0,0,0,0,0,0,0,0,0,0,0,0,0,0,0,0,0,0,0,0,0,0,0,0,0,0,0,0,0,0,0,0,0,0,0,0,0,0,0,0,0,0,0,0,0,0,0,0,0,0,0,0,0,0,0,0,0,0,0,0,0,0,0,0,0,0,0,0,0,0,0,0,0,0,0,0,0,0,0,0,0,0,0,0,0,0,0,0,0,0,0,0,0,0,0,0,0,0,0,0,0,0,0,0,0,0,0,0,0,0,0,0,0,0,0,0,0,0,0,0,0,0,0,0,0,0,0,0,0,0,0,0,0,0,0,0,0,0,0,0,0,0,0,0,0,0,0,0,0,0,0,0,0,0,0,0,0,0,0,0,0,0,0,0,0,0,0,0,0,0,0,0,0,0,0,0,0,0,0,0,0,0,0,0,0,0,0,0,0,0,0,0,0,0,0,0,0,0,0,0,0,0,0,0,0,0,0,0,0,0,0,0,0,0,0,0,0,0,0,0,0,0,0,0,0,0,0,0,0,0,0,0,0,0,0,0,0,0,0,0,0,0,0,0,0,0,0,0,0,0,0,0,0,0,0,0,0,0,0,0,0,0,0,0,0,0,0,0,0,0,0,0,0,0,0,0,0,0,0,0,0,0,0,0,0,0,0,0,0,0,0,0,0,0,0,0,0,0,0,0,0,0,0,0,0,0,0,0,0,0,0,0,0,0,0,0,0,0,0,0,0,0,0,0,0,0,0,0,0,0,0,0,0,0,0,0,0,0,0,0,0,0,0,0,0,0,0,0,0,0,0,0,0,0,0,0,0,0,0,0,0,0,0,0,0,0,0,0,0,0,0,0,0,0,0,0,0,0,0,0,0,0,0,0,0,0,0,0,0,0,0,0,0,0,0,0,0,0,0,0,0,0,0,0,0,0,0,0,0,0,0,0,0,0,0,0,0,0,0,0,0,0,0,0,0,0,0,0,0,0,0,0,0,0,0,0,0,0,0,0,0,0,0,0,0,0,0,0,0,0,0,0,0,0,0,0,0,0,0,0,0,0,0,0,0,0,0,0,0,0,0,0,0,0,0,0,0,0,0,0,0,0,0,0,0,0,0,0,0,0,0,0,0,0,0,0,0,0,0,0,0,0,0,0,0,0,0,0,0,0,0,0,0,0,0,0,0,0,0,0,0,0,0,0,0,0,0,0,0,0,0,0,0,0,0,0,0,0,0,0,0,0,0,0,0,0,0,0,0,0,0,0,0,0,0,0,0,0,0,0,0,0,0,0,0,0,0,0,0,0,0,0,0,0,0,0,0,0,0,0,0,0,0,0,0,0,0,0,0,0,0,0,0,0,0,0,0,0,0,0,0,0,0,0,0,0,0,0,0,0,0,0,0]},{"id":19,"name":"sea","type":"tilelayer","x":0,"y":0,"opacity":1,"visible":true,"width":144,"height":96,"data":[0,0,0,0,0,0,0,0,0,0,0,0,0,0,0,0,0,0,0,0,0,0,0,0,0,0,0,0,0,0,0,0,0,0,0,0,0,0,0,0,0,0,0,0,0,0,0,0,0,0,0,0,0,0,0,0,0,0,0,0,0,0,0,0,0,0,0,0,0,0,0,0,0,0,0,0,0,0,0,0,0,0,0,0,0,0,0,0,0,0,0,0,0,0,0,0,0,0,0,0,0,0,0,0,0,0,0,0,0,0,0,0,0,0,0,0,0,0,0,0,0,0,0,0,0,0,0,0,0,0,0,0,0,0,0,0,0,0,0,0,0,3605,3637,3642,0,0,0,0,0,0,0,0,0,0,0,0,0,0,0,0,0,0,0,0,0,0,0,0,0,0,0,0,0,0,0,0,0,0,0,0,0,0,0,0,0,0,0,0,0,0,0,0,0,0,0,0,0,0,0,0,0,0,0,0,0,0,0,0,0,0,0,0,0,0,0,0,0,0,0,0,0,0,0,0,0,0,0,0,0,0,0,0,0,0,0,0,0,0,0,0,0,0,0,0,0,0,0,0,0,0,0,0,0,0,0,0,0,0,0,0,0,0,0,0,0,0,0,0,0,0,0,0,0,0,0,0,0,0,0,0,0,0,0,0,0,0,0,3605,0,0,0,0,0,0,0,0,0,0,0,0,0,0,0,0,0,0,0,0,0,0,0,0,0,0,0,0,0,0,0,0,0,0,0,0,0,0,0,0,0,0,0,0,0,0,0,0,0,0,0,0,0,0,0,0,0,0,0,0,0,0,0,0,0,0,0,0,0,0,0,0,0,0,0,0,0,0,0,0,0,0,0,0,0,0,0,0,0,0,0,0,0,0,0,0,0,0,0,0,0,0,0,0,0,0,0,0,0,0,0,0,0,0,0,0,0,0,0,0,0,0,0,0,0,0,0,0,0,0,0,0,0,0,0,0,0,0,0,0,0,0,0,0,0,0,0,0,0,0,0,0,0,0,0,0,0,0,0,0,0,0,0,0,0,0,0,0,0,0,0,0,0,0,0,0,0,0,0,0,0,0,0,0,0,0,0,0,0,0,0,0,0,0,0,0,0,0,0,0,0,0,0,0,0,0,0,0,0,0,0,0,0,0,0,0,0,0,0,0,0,0,0,0,0,0,0,0,0,0,0,0,0,0,0,0,0,0,0,0,0,0,0,0,0,0,0,0,0,0,0,0,0,0,0,0,0,0,0,0,0,0,0,0,0,0,0,0,0,0,0,0,0,0,0,0,0,0,0,0,0,0,0,0,0,0,0,0,0,0,0,0,0,0,0,0,0,0,0,0,0,0,0,0,0,0,0,0,0,0,0,0,0,0,0,0,0,0,0,0,0,0,0,0,0,0,0,0,0,0,0,0,0,0,0,0,0,0,0,0,0,0,0,0,0,0,0,0,0,0,0,0,0,0,0,0,0,0,0,0,0,0,0,0,0,0,0,0,0,0,0,0,0,0,0,0,0,0,0,0,0,0,0,0,0,0,0,0,0,0,0,0,0,0,0,0,0,0,0,0,0,0,0,0,0,0,0,0,0,0,0,0,0,0,0,0,0,0,0,0,0,0,0,0,0,0,0,0,0,0,0,0,0,0,0,0,0,0,0,0,0,0,0,0,0,0,0,0,0,0,0,0,0,0,0,0,0,0,0,0,0,0,0,0,0,0,0,0,0,0,0,0,0,0,0,0,0,0,0,0,0,0,0,0,0,0,0,0,0,0,0,0,0,0,0,0,0,0,0,0,0,0,0,0,0,0,0,0,0,0,0,0,0,0,0,0,0,0,0,0,0,0,0,0,0,0,0,0,0,0,0,0,0,0,0,0,0,0,0,0,0,0,0,0,0,0,0,0,0,0,0,0,0,0,0,0,0,0,0,0,0,0,0,0,0,0,0,0,0,0,0,0,0,0,0,0,0,0,0,0,0,0,0,0,0,0,0,0,0,0,0,0,0,0,0,0,0,0,0,0,0,0,0,0,0,0,0,0,0,0,0,0,0,0,0,0,0,0,0,0,0,0,0,0,0,0,0,0,0,0,0,0,0,0,0,0,0,0,0,0,0,0,0,0,0,0,0,0,0,0,0,0,0,0,0,0,0,0,0,0,0,0,0,0,0,0,0,0,0,0,0,0,0,0,0,0,0,0,0,0,0,0,0,0,0,0,0,0,0,0,0,0,0,0,0,0,0,0,0,0,0,0,0,0,0,0,0,0,0,0,0,0,0,0,0,0,0,0,0,6635,0,0,0,0,0,0,0,0,0,0,0,0,0,0,0,0,0,0,0,0,0,0,0,0,0,0,0,0,0,0,0,0,0,0,0,0,0,0,0,0,0,0,0,0,0,0,0,0,0,0,0,0,0,0,0,0,0,0,0,0,0,0,0,0,0,0,0,0,0,0,0,0,0,0,0,0,0,0,0,0,0,0,0,0,0,0,0,0,0,0,0,0,0,0,0,0,0,0,0,0,0,0,0,0,0,0,0,0,0,0,0,0,0,0,0,3611,3632,3632,3632,3632,3632,3632,3627,0,0,0,3606,0,0,0,0,0,0,0,0,0,0,0,0,0,0,0,0,6637,0,0,0,0,0,0,0,0,0,0,0,0,0,0,0,0,0,0,0,0,0,0,0,0,0,0,0,0,0,0,0,0,0,0,0,0,0,0,0,0,0,0,0,0,0,0,0,0,0,0,0,0,0,0,0,0,0,0,0,0,0,0,0,0,0,0,0,0,0,0,0,0,0,0,0,0,0,0,0,0,0,0,0,0,0,0,0,0,0,0,0,0,0,0,0,0,0,0,0,0,0,0,0,0,0,0,0,0,0,0,0,0,0,3611,3632,3634,3647,3647,3647,3647,3647,3647,3646,3632,3627,0,3612,3632,3632,3627,0,0,0,0,0,0,0,0,0,0,0,0,6635,6658,0,0,0,0,0,0,0,0,0,0,0,0,0,0,0,0,0,0,0,0,0,0,0,0,0,0,0,0,0,0,0,0,0,0,0,0,0,0,0,0,0,0,0,0,0,0,0,0,0,0,0,0,0,0,0,0,0,0,0,0,0,0,0,0,0,0,0,0,0,0,0,0,0,0,0,0,0,0,0,0,0,0,0,0,0,0,0,0,0,0,0,0,0,0,0,0,0,0,0,0,0,0,0,0,0,0,0,0,0,0,0,3611,3632,3634,3647,3647,3647,3647,3647,3647,3647,3647,3647,3647,3646,3632,3634,3647,3647,3646,3632,3632,6656,6651,0,0,0,0,0,0,6635,6656,6658,3647,0,0,0,0,0,0,0,0,0,0,0,0,0,0,0,0,0,0,0,0,0,0,0,0,0,0,0,0,0,0,0,0,0,0,0,0,0,0,0,0,0,0,0,0,0,0,0,0,0,0,0,0,0,0,0,0,0,0,0,0,0,0,0,0,0,0,0,0,0,0,0,0,0,0,0,0,0,0,0,0,0,0,0,0,0,0,0,0,0,0,0,0,0,0,0,0,0,0,0,0,0,0,0,0,0,0,0,0,0,0,3611,3634,3647,3647,3647,3647,3647,3647,3647,3647,3647,3647,3647,3647,3647,3647,3647,3647,3647,3647,3647,3647,3647,6670,6656,6656,6656,6656,6656,6656,6658,3647,3647,3647,0,0,0,0,0,0,0,0,0,0,0,0,0,0,0,0,0,0,0,0,0,0,0,0,0,0,0,0,0,0,0,0,0,0,0,0,0,0,0,0,0,0,0,0,0,0,0,0,0,0,0,0,0,0,0,0,0,0,0,0,0,0,0,0,0,0,0,0,0,0,0,0,0,0,0,0,0,0,0,0,0,0,0,0,0,0,0,0,0,0,0,0,0,0,0,0,0,0,0,0,0,0,0,0,0,0,0,0,0,3611,3634,3647,3647,3647,3647,3647,3647,3647,3647,3647,3647,3647,3647,3647,3647,3647,3647,3647,3647,3647,3647,3647,3647,3647,3647,3647,3647,3647,3647,3647,3647,3647,3647,3647,0,0,0,0,0,0,0,0,0,0,0,0,0,0,0,0,0,0,0,0,0,0,0,0,0,0,0,0,0,0,0,0,0,0,0,0,0,0,0,0,0,0,0,0,0,0,0,0,0,0,0,0,0,0,0,0,0,0,0,0,0,0,0,0,0,0,0,0,0,0,0,0,0,0,0,0,0,0,0,0,0,0,0,0,0,0,0,0,0,0,0,0,0,0,0,0,0,0,0,0,0,0,0,0,0,0,0,0,0,3613,3647,3647,3647,3647,3647,3647,3647,3647,3647,3647,3647,3647,3647,3647,3647,3647,3647,3647,3647,3647,3647,3647,3647,3647,3647,3647,3647,3647,3647,3647,3647,3647,3647,3647,0,0,0,0,0,0,0,0,0,0,0,0,0,0,0,0,0,0,0,0,0,0,0,0,0,0,0,0,0,0,0,0,0,0,0,0,0,0,0,0,0,0,0,0,0,0,0,0,0,0,0,0,0,0,0,0,0,0,0,0,0,0,0,0,0,0,0,0,0,0,0,0,0,0,0,0,0,0,0,0,0,0,0,0,0,0,0,0,0,0,0,0,0,0,0,0,0,0,0,0,0,0,0,0,0,0,0,0,3611,3634,3647,3647,3647,3647,3647,3647,3647,3647,3647,3647,3647,3647,3647,3647,3647,3647,3647,3647,3647,3647,3647,3647,3647,3647,3647,3647,3647,3647,3647,3647,3647,3647,3647,3647,0,0,0,0,0,0,0,0,0,0,0,0,0,0,0,0,0,0,0,0,0,0,0,0,0,0,0,0,0,0,0,0,0,0,0,0,0,0,0,0,0,0,0,0,0,0,0,0,0,0,0,0,0,0,0,0,0,0,0,0,0,0,0,0,0,0,0,0,0,0,0,0,0,0,0,0,0,0,0,0,0,0,0,0,0,0,0,0,0,0,0,0,0,0,0,0,0,0,0,0,0,0,0,0,0,0,0,0,3613,3647,3647,3647,3647,3647,3647,3647,3647,3647,3647,3647,3647,3647,3647,3647,3647,3647,3647,3647,3647,3647,3647,3647,3647,3647,3647,3647,3647,3647,3647,3647,3647,3647,3647,3647,0,0,0,0,0,0,0,0,0,0,0,0,0,0,0,0,0,0,0,0,0,0,0,0,0,0,0,0,0,0,0,0,0,0,0,0,0,0,0,0,0,0,0,0,0,0,0,0,0,0,0,0,0,0,0,0,0,0,0,0,0,0,0,0,0,0,0,0,0,0,0,0,0,0,0,0,0,0,0,0,0,0,0,0,0,0,0,0,0,0,0,0,0,0,0,0,0,0,0,0,0,0,0,0,0,0,0,0,6773,6810,3647,3647,3647,3647,3647,3647,6813,6805,6810,3647,3647,3647,3647,3647,3647,3647,3647,3647,3647,3647,3647,3647,3647,3647,3647,3647,3647,3647,3647,3647,3647,3647,3647,3647,0,0,0,0,0,0,0,0,0,0,0,0,0,0,0,0,0,0,0,0,0,0,0,0,0,0,0,0,0,0,0,0,0,0,0,0,0,0,0,0,0,0,0,0,0,0,0,0,0,0,0,0,0,0,0,0,0,0,0,0,0,0,0,0,0,0,0,0,0,0,0,0,0,0,0,0,0,0,0,0,0,0,0,0,0,0,0,0,0,0,0,0,0,0,0,0,0,0,0,0,0,0,0,0,0,0,0,0,0,6485,6522,3647,3647,3647,3647,6813,6803,0,6773,6810,3647,3647,3647,3647,3647,3647,3647,3647,3647,3647,3647,3647,3647,3647,3647,3647,3647,3647,3647,3647,3647,3647,3647,3647,0,0,0,0,0,0,0,0,0,0,0,0,0,0,0,0,0,0,0,0,0,0,0,0,0,0,0,0,0,0,0,0,0,0,0,0,0,0,0,0,0,0,0,0,0,0,0,0,0,0,0,0,0,0,0,0,0,0,0,0,0,0,0,0,0,0,0,0,0,0,0,0,0,0,0,0,0,0,0,0,0,0,0,0,0,0,0,0,0,0,0,0,0,0,0,0,0,0,0,0,0,0,0,0,0,0,0,0,0,0,6485,6517,6522,6813,6805,6803,0,0,0,6781,3647,3647,3647,3647,3647,3647,3647,3647,3647,3647,3647,3647,3647,3647,3647,3647,3647,3647,3647,3647,3647,3647,3647,3647,0,0,0,0,0,0,0,0,0,0,0,0,0,0,0,0,0,0,0,0,0,0,0,0,0,0,0,0,0,0,0,0,0,0,0,0,0,0,0,0,0,0,0,0,0,0,0,0,0,0,0,0,0,0,0,0,0,0,0,0,0,0,0,0,0,0,0,0,0,0,0,0,0,0,0,0,0,0,0,0,0,0,0,0,0,0,0,0,0,0,0,0,0,0,0,0,0,0,0,0,0,0,0,0,0,0,0,0,0,0,0,0,6773,6803,0,0,0,0,6779,6802,3647,3647,3647,3647,3647,3647,3647,3647,3647,3647,3647,3647,3647,3647,3647,3647,3647,3647,3647,3647,3647,3647,3647,3647,0,0,0,0,0,0,0,0,0,0,0,0,0,0,0,0,0,0,0,0,0,0,0,0,0,0,0,0,0,0,0,0,0,0,0,0,0,0,0,0,0,0,0,0,0,0,0,0,0,0,0,0,0,0,0,0,0,0,0,0,0,0,0,0,0,0,0,0,0,0,0,0,0,0,0,0,0,0,0,0,0,0,0,0,0,0,0,0,0,0,0,0,0,0,0,0,0,0,0,0,0,0,0,0,0,0,0,0,0,0,0,0,0,0,0,0,6779,6800,6802,3647,3647,3647,3647,3647,3647,3647,3647,3647,3647,3647,3647,3647,3647,3647,3647,3647,3647,3647,3647,3647,3647,3647,3647,3647,0,0,0,0,0,0,0,0,0,0,0,0,0,0,0,0,0,0,0,0,0,0,0,0,0,0,0,0,0,0,0,0,0,0,0,0,0,0,0,0,0,0,0,0,0,0,0,0,0,0,0,0,0,0,0,0,0,0,0,0,0,0,0,0,0,0,0,0,0,0,0,0,0,0,0,0,0,0,0,0,0,0,0,0,0,0,0,0,0,0,0,0,0,0,0,0,0,0,0,0,0,0,0,0,0,0,0,0,0,0,0,0,0,0,6779,6800,6802,3647,3647,3647,3647,3647,3647,3647,3645,3637,3642,3647,3647,3647,3647,3647,3647,3647,3647,3647,3647,3647,3647,3647,3647,3647,3647,3647,0,0,0,0,0,0,0,0,0,0,0,0,0,0,0,0,0,0,0,0,0,0,0,0,0,0,0,0,0,0,0,0,0,0,0,0,0,0,0,0,0,0,0,0,0,0,0,0,0,0,0,0,0,0,0,0,0,0,0,0,0,0,0,0,0,0,0,0,0,0,0,0,0,0,0,0,0,0,0,0,0,0,0,0,0,0,0,0,0,0,0,0,0,0,0,0,0,0,0,0,0,0,0,0,0,0,0,0,0,0,0,0,0,6771,3618,3642,3647,3647,3647,3647,3647,3647,3645,3637,3635,0,3613,3647,3647,3647,3647,3647,3647,3647,3647,3647,3647,3647,3647,3647,3647,3647,3647,3647,0,0,0,0,0,0,0,0,0,0,0,0,0,0,0,0,0,0,0,0,0,0,0,0,0,0,0,0,0,0,0,0,0,0,0,0,0,0,0,0,0,0,0,0,0,0,0,0,0,0,0,0,0,0,0,0,0,0,0,0,0,0,0,0,0,0,0,0,0,0,0,0,0,0,0,0,0,0,0,0,0,0,0,0,0,0,0,0,0,0,0,0,0,0,0,0,0,0,0,0,0,0,0,0,0,0,0,0,0,0,0,0,0,0,0,3605,3637,3637,3637,3637,3637,3637,3635,0,0,0,3613,3647,3647,3647,3647,3647,3647,3647,3647,3647,3647,3647,3647,3647,3647,3647,3647,3647,0,0,0,0,0,0,0,0,0,0,0,0,0,0,0,0,0,0,0,0,0,0,0,0,0,0,0,0,0,0,0,0,0,0,0,0,0,0,0,0,0,0,0,0,0,0,0,0,0,0,0,0,0,0,0,0,0,0,0,0,0,0,0,0,0,0,0,0,0,0,0,0,0,0,0,0,0,0,0,0,0,0,0,0,0,0,0,0,0,0,0,0,0,0,0,0,0,0,0,0,0,0,0,0,0,0,0,0,0,0,0,0,0,0,0,0,0,0,0,0,0,0,0,0,0,0,3613,3647,3647,3647,3647,3647,3647,3647,3647,3647,3647,3647,3647,3647,3647,3647,3647,3647,0,0,0,0,0,0,0,0,0,0,0,0,0,0,0,0,0,0,0,0,0,0,0,0,0,0,0,0,0,0,0,0,0,0,0,0,0,0,0,0,0,0,0,0,0,0,0,0,0,0,0,0,0,0,0,0,0,0,0,0,0,0,0,0,0,0,0,0,0,0,0,0,0,0,0,0,0,0,0,0,0,0,0,0,0,0,0,0,0,0,0,0,0,0,0,0,0,0,0,0,0,0,0,0,0,0,0,0,0,0,0,0,0,0,0,0,0,0,0,0,0,0,0,0,0,0,3613,3647,3647,3647,3647,3647,3647,3647,3647,3647,3647,3647,3647,3647,3647,3647,3647,3647,0,0,0,0,0,0,0,0,0,0,0,0,0,0,0,0,0,0,0,0,0,0,0,0,0,0,0,0,0,0,0,0,0,0,0,0,0,0,0,0,0,0,0,0,0,0,0,0,0,0,0,0,0,0,0,0,0,0,0,0,0,0,0,0,0,0,0,0,0,0,0,0,0,0,0,0,0,0,0,0,0,0,0,0,0,0,0,0,0,0,0,0,0,0,0,0,0,0,0,0,0,0,0,0,0,0,0,0,0,0,0,0,0,0,0,0,0,0,0,0,0,0,0,0,0,0,3613,3647,3647,3647,3647,3647,3647,3647,3647,3647,3647,3647,3647,3647,3647,3647,3647,3647,0,0,0,0,0,0,0,0,0,0,0,0,0,0,0,0,0,0,0,0,0,0,0,0,0,0,0,0,0,0,0,0,0,0,0,0,0,0,0,0,0,0,0,0,0,0,0,0,0,0,0,0,0,0,0,0,0,0,0,0,0,0,0,0,0,0,0,0,0,0,0,0,0,0,0,0,0,0,0,0,0,0,0,0,0,0,0,0,0,0,0,0,0,0,0,0,0,0,0,0,0,0,0,0,0,0,0,0,0,0,0,0,0,0,0,0,0,0,0,0,0,0,0,0,0,0,3613,3647,3647,3647,3647,3647,3647,3647,3647,3647,3647,3647,3647,3647,3647,3647,3647,3647,0,0,0,0,0,0,0,0,0,0,0,0,0,0,0,0,0,0,0,0,0,0,0,0,0,0,0,0,0,0,0,0,0,0,0,0,0,0,0,0,0,0,0,0,0,0,0,0,0,0,0,0,0,0,0,0,0,0,0,0,0,0,0,0,0,0,0,0,0,0,0,0,0,0,0,0,0,0,0,0,0,0,0,0,0,0,0,0,0,0,0,0,0,0,0,0,0,0,0,0,0,0,0,0,0,0,0,0,0,0,0,0,0,0,0,0,0,0,0,0,0,0,0,0,0,0,3613,3645,3637,3637,3637,3637,3637,3637,3642,3647,3647,3647,3647,3647,3647,3647,3647,3647,0,0,0,0,0,0,0,0,0,0,0,0,0,0,0,0,0,0,0,0,0,0,0,0,0,0,0,0,0,0,0,0,0,0,0,0,0,0,0,0,0,0,0,0,0,0,0,0,0,0,0,0,0,0,0,0,0,0,0,0,0,0,0,0,0,0,0,0,0,0,0,0,0,0,0,0,0,0,0,0,0,0,0,0,0,0,0,0,0,0,0,0,0,0,0,0,0,0,0,0,0,0,0,0,0,0,0,0,0,0,0,0,0,0,0,0,0,0,0,0,0,0,0,0,0,0,3605,3635,0,0,0,0,0,0,3605,3637,3637,3642,3647,3647,3647,3647,3647,3647,0,0,0,0,0,0,0,0,0,0,0,0,0,0,0,0,0,0,0,0,0,0,0,0,0,0,0,0,0,0,0,0,0,0,0,0,0,0,0,0,0,0,0,0,0,0,0,0,0,0,0,0,0,0,0,0,0,0,0,0,0,0,0,0,0,0,0,0,0,0,0,0,0,0,0,0,0,0,0,0,0,0,0,0,0,0,0,0,0,0,0,0,0,0,0,0,0,0,0,0,0,0,0,0,0,0,0,0,0,0,0,0,0,0,0,0,0,0,0,0,0,0,0,0,0,0,0,0,0,0,0,0,0,0,0,0,0,3605,3642,3647,3647,3647,3647,3647,0,0,0,0,0,0,0,0,0,0,0,0,0,0,0,0,0,0,0,0,0,0,0,0,0,0,0,0,0,0,0,0,0,0,0,0,0,0,0,0,0,0,0,0,0,0,0,0,0,0,0,0,0,0,0,0,0,0,0,0,0,0,0,0,0,0,0,0,0,0,0,0,0,0,0,0,0,0,0,0,0,0,0,0,0,0,0,0,0,0,0,0,0,0,0,0,0,0,0,0,0,0,0,0,0,0,0,0,0,0,0,0,0,0,0,0,0,0,0,0,0,0,0,0,0,0,0,0,0,0,0,0,0,0,0,0,0,0,3605,3642,3647,3647,3647,3647,0,0,0,0,0,0,0,0,0,0,0,0,0,0,0,0,0,0,0,0,0,0,0,0,0,0,0,0,0,0,0,0,0,0,0,0,0,0,0,0,0,0,0,0,0,0,0,0,0,0,0,0,0,0,0,0,0,0,0,0,0,0,0,0,0,0,0,0,0,0,0,0,0,0,0,0,0,0,0,0,0,0,0,0,0,0,0,0,0,0,0,0,0,0,0,0,0,0,0,0,0,0,0,0,0,0,0,0,0,0,0,0,0,0,0,0,0,0,0,0,0,0,0,0,0,0,0,0,0,0,0,0,0,0,0,0,0,0,0,3613,3647,3647,3647,3647,0,0,0,0,0,0,0,0,0,0,0,0,0,0,0,0,0,0,0,0,0,0,0,0,0,0,0,0,0,0,0,0,0,0,0,0,0,0,0,0,0,0,0,0,0,0,0,0,0,0,0,0,0,0,0,0,0,0,0,0,0,0,0,0,0,0,0,0,0,0,0,0,0,0,0,0,0,0,0,0,0,0,0,0,0,0,0,0,0,0,0,0,0,0,0,0,0,0,0,0,0,0,0,0,0,0,0,0,0,0,0,0,0,0,0,0,0,0,0,0,0,0,0,0,0,0,0,0,0,0,0,0,0,0,0,0,0,0,0,3613,3647,3647,3647,3647,0,0,0,0,0,0,0,0,0,0,0,0,0,0,0,0,0,0,0,0,0,0,0,0,0,0,0,0,0,0,0,0,0,0,0,0,0,0,0,0,0,0,0,0,0,0,0,0,0,0,0,0,0,0,0,0,0,0,0,0,0,0,0,0,0,0,0,0,0,0,0,0,0,0,0,0,0,0,0,0,0,0,0,0,0,0,0,0,0,0,0,0,0,0,0,0,0,0,0,0,0,0,0,0,0,0,0,0,0,0,0,0,0,0,0,0,0,0,0,0,0,0,0,0,0,0,0,0,0,0,0,0,0,0,0,0,0,0,0,3613,3647,3647,3647,3647,0,0,0,0,0,0,0,0,0,0,0,0,0,0,0,0,0,0,0,0,0,0,0,0,0,0,0,0,0,0,0,0,0,0,0,0,0,0,0,0,0,0,0,0,0,0,0,0,0,0,0,0,0,0,0,0,0,0,0,0,0,0,0,0,0,0,0,0,0,0,0,0,0,0,0,0,0,0,0,0,0,0,0,0,0,0,0,0,0,0,0,0,0,0,0,0,0,0,0,0,0,0,0,0,0,0,0,0,0,0,0,0,0,0,0,0,0,0,0,0,0,0,0,0,0,0,0,0,0,0,0,0,0,0,0,0,0,0,0,3613,3647,3647,3647,3647,0,0,0,0,0,0,0,0,0,0,0,0,0,0,0,0,0,0,0,0,0,0,0,0,0,0,0,0,0,0,0,0,0,0,0,0,0,0,0,0,0,0,0,0,0,0,0,0,0,0,0,0,0,0,0,0,0,0,0,0,0,0,0,0,0,0,0,0,0,0,0,0,0,0,0,0,0,0,0,0,0,0,0,0,0,0,0,0,0,0,0,0,0,0,0,0,0,0,0,0,0,0,0,0,0,0,0,0,0,0,0,0,0,0,0,0,0,0,0,0,0,0,0,0,0,0,0,0,0,0,0,0,0,0,0,0,0,0,3611,3634,3647,3647,3647,3647,0,0,0,0,0,0,0,0,0,0,0,0,0,0,0,0,0,0,0,0,0,0,0,0,0,0,0,0,0,0,0,0,0,0,0,0,0,0,0,0,0,0,0,0,0,0,0,0,0,0,0,0,0,0,0,0,0,0,0,0,0,0,0,0,0,0,0,0,0,0,0,0,0,0,0,0,0,0,0,0,0,0,0,0,0,0,0,0,0,0,0,0,0,0,0,0,0,0,0,0,0,0,0,0,0,0,0,0,0,0,0,0,0,0,0,0,0,0,0,0,0,0,0,0,0,0,0,0,0,0,0,0,0,0,0,0,0,3611,3634,3647,3647,3647,3647,3647,0,0,0,0,0,0,0,0,0,0,0,0,0,0,0,0,0,0,0,0,0,0,0,0,0,0,0,0,0,0,0,0,0,0,0,0,0,0,0,0,0,0,0,0,0,0,0,0,0,0,0,0,0,0,0,0,0,0,0,0,0,0,0,0,0,0,0,0,0,0,0,0,0,0,0,0,0,0,0,0,0,0,0,0,0,0,0,0,0,0,0,0,0,0,0,0,0,0,0,0,0,0,0,0,0,0,0,0,0,0,0,0,0,0,0,0,0,0,0,0,0,0,0,0,0,0,3611,3627,0,0,0,0,0,0,3611,3632,3632,3634,3647,3647,3647,3647,3647,3647,0,0,0,0,0,0,0,0,0,0,0,0,0,0,0,0,0,0,0,0,0,0,0,0,0,0,0,0,0,0,0,0,0,0,0,0,0,0,0,0,0,0,0,0,0,0,0,0,0,0,0,0,0,0,0,0,0,0,0,0,0,0,0,0,0,0,0,0,0,0,0,0,0,0,0,0,0,0,0,0,0,0,0,0,0,0,0,0,0,0,0,0,0,0,0,0,0,0,0,0,0,0,0,0,0,0,0,0,0,0,0,0,0,0,0,0,0,0,0,0,0,0,0,0,0,0,3613,3646,3632,3632,3632,3632,3632,3632,3634,3647,3647,3647,3647,3647,3647,3647,3647,3647,0,0,0,0,0,0,0,0,0,0,0,0,0,0,0,0,0,0,0,0,0,0,0,0,0,0,0,0,0,0,0,0,0,0,0,0,0,0,0,0,0,0,0,0,0,0,0,0,0,0,0,0,0,0,0,0,0,0,0,0,0,0,0,0,0,0,0,0,0,0,0,0,0,0,0,0,0,0,0,0,0,0,0,0,0,0,0,0,0,0,0,0,0,0,0,0,0,0,0,0,0,0,0,0,0,0,0,0,0,0,0,0,0,0,0,0,0,0,0,0,0,0,0,0,0,0,3613,3647,3647,3647,3647,3647,3647,3647,3647,3647,3647,3647,3647,3647,3647,3647,3647,3647,0,0,0,0,0,0,0,0,0,0,0,0,0,0,0,0,0,0,0,0,0,0,0,0,0,0,0,0,0,0,0,0,0,0,0,0,0,0,0,0,0,0,0,0,0,0,0,0,0,0,0,0,0,0,0,0,0,0,0,0,0,0,0,0,0,0,0,0,0,0,0,0,0,0,0,0,0,0,0,0,0,0,0,0,0,0,0,0,0,0,0,0,0,0,0,0,0,0,0,0,0,0,0,0,0,0,0,0,0,0,0,0,0,0,0,0,0,0,0,0,0,0,0,0,0,0,3613,3647,3647,3647,3647,3647,3647,3647,3647,3647,3647,3647,3647,3647,3647,3647,3647,3647,0,0,0,0,0,0,0,0,0,0,0,0,0,0,0,0,0,0,0,0,0,0,0,0,0,0,0,0,0,0,0,0,0,0,0,0,0,0,0,0,0,0,0,0,0,0,0,0,0,0,0,0,0,0,0,0,0,0,0,0,0,0,0,0,0,0,0,0,0,0,0,0,0,0,0,0,0,0,0,0,0,0,0,0,0,0,0,0,0,0,0,0,0,0,0,0,0,0,0,0,0,0,0,0,0,0,0,0,0,0,0,0,0,0,0,0,0,0,0,0,0,0,0,0,0,0,3613,3647,3647,3647,3647,3647,3647,3647,3647,3647,3647,3647,3647,3647,3647,3647,3647,3647,0,0,0,0,0,0,0,0,0,0,0,0,0,0,0,0,0,0,0,0,0,0,0,0,0,0,0,0,0,0,0,0,0,0,0,0,0,0,0,0,0,0,0,0,0,0,0,0,0,0,0,0,0,0,0,0,0,0,0,0,0,0,0,0,0,0,0,0,0,0,0,0,0,0,0,0,0,0,0,0,0,0,0,0,0,0,0,0,0,0,0,0,0,0,0,0,0,0,0,0,0,0,0,0,0,0,0,0,0,0,0,0,0,0,0,0,0,0,0,0,0,0,0,0,0,0,3613,3647,3647,3647,3647,3647,3647,3647,3647,3647,3647,3647,3647,3647,3647,3647,3647,3647,0,0,0,0,0,0,0,0,0,0,0,0,0,0,0,0,0,0,0,0,0,0,0,0,0,0,0,0,0,0,0,0,0,0,0,0,0,0,0,0,0,0,0,0,0,0,0,0,0,0,0,0,0,0,0,0,0,0,0,0,0,0,0,0,0,0,0,0,0,0,0,0,0,0,0,0,0,0,0,0,0,0,0,0,0,0,0,0,0,0,0,0,0,0,0,0,0,0,0,0,0,0,0,0,0,0,0,0,0,0,0,0,0,0,0,0,0,0,0,0,0,0,0,0,0,0,3613,3647,3647,3647,3647,3647,3647,3647,3647,3647,3647,3647,3647,3647,3647,3647,3647,3647,0,0,0,0,0,0,0,0,0,0,0,0,0,0,0,0,0,0,0,0,0,0,0,0,0,0,0,0,0,0,0,0,0,0,0,0,0,0,0,0,0,0,0,0,0,0,0,0,0,0,0,0,0,0,0,0,0,0,0,0,0,0,0,0,0,0,0,0,0,0,0,0,0,0,0,0,0,0,0,0,0,0,0,0,0,0,0,0,0,0,0,0,0,0,0,0,0,0,0,0,0,0,0,0,0,0,0,0,0,0,0,0,0,0,0,0,0,0,0,0,0,0,0,0,0,3611,3634,3647,3647,3647,3647,3647,3647,3647,3647,3647,3647,3647,3647,3647,3647,3647,3647,3647,0,0,0,0,0,0,0,0,0,0,0,0,0,0,0,0,0,0,0,0,0,0,0,0,0,0,0,0,0,0,0,0,0,0,0,0,0,0,0,0,0,0,0,0,0,0,0,0,0,0,0,0,0,0,0,0,0,0,0,0,0,0,0,0,0,0,0,0,0,0,0,0,0,0,0,0,0,0,0,0,0,0,0,0,0,0,0,0,0,0,0,0,0,0,0,0,0,0,0,0,0,0,0,0,0,0,0,0,0,0,0,0,0,0,0,0,0,0,0,0,0,0,0,0,3611,3634,3647,3647,3647,3647,3647,3647,3647,3647,3647,3647,3647,3647,3647,3647,3647,3647,3647,3647,0,0,0,0,0,0,0,0,0,0,0,0,0,0,0,0,0,0,0,0,0,0,0,0,0,0,0,0,0,0,0,0,0,0,0,0,0,0,0,0,0,0,0,0,0,0,0,0,0,0,0,0,0,0,0,0,0,0,0,0,0,0,0,0,0,0,0,0,0,0,0,0,0,0,0,0,0,0,0,0,0,0,0,0,0,0,0,0,0,0,0,0,0,0,0,0,0,0,0,0,0,0,0,0,0,0,0,0,0,0,0,0,0,0,0,0,0,0,0,0,0,0,0,0,3613,3647,3647,3647,3647,3647,3647,3647,3647,3647,3647,3647,3647,3647,3647,3647,3647,3647,3647,3647,0,0,0,0,0,0,0,0,0,0,0,0,0,0,0,0,0,0,0,0,0,0,0,0,0,0,0,0,0,0,0,0,0,0,0,0,0,0,0,0,0,0,0,0,0,0,0,0,0,0,0,0,0,0,0,0,0,0,0,0,0,0,0,0,0,0,0,0,0,0,0,0,0,0,0,0,0,0,0,0,0,0,0,0,0,0,0,0,0,0,0,0,0,0,0,0,0,0,0,0,0,0,0,0,0,0,0,0,0,0,0,0,0,0,0,0,0,0,0,0,0,0,0,0,3613,3647,3647,3647,3647,3647,3647,3647,3647,3647,3647,3647,3647,3647,3647,3647,3647,3647,3647,3647,0,0,0,0,0,0,0,0,0,0,0,0,0,0,0,0,0,0,0,0,0,0,0,0,0,0,0,0,0,0,0,0,0,0,0,0,0,0,0,0,0,0,0,0,0,0,0,0,0,0,0,0,0,0,0,0,0,0,0,0,0,0,0,0,0,0,0,0,0,0,0,0,0,0,0,0,0,0,0,0,0,0,0,0,0,0,0,0,0,0,0,0,0,0,0,0,0,0,0,0,0,0,0,0,0,0,0,0,0,0,0,0,0,0,0,0,0,0,0,0,0,0,0,0,3605,3642,3647,3647,3647,3647,3647,3647,3647,3647,3647,3647,3647,3647,3647,3647,3647,3647,3647,3647,0,0,0,0,0,0,0,0,0,0,0,0,0,0,0,0,0,0,0,0,0,0,0,0,0,0,0,0,0,0,0,0,0,0,0,0,0,0,0,0,0,0,0,0,0,0,0,0,0,0,0,0,0,0,0,0,0,0,0,0,0,0,0,0,0,0,0,0,0,0,0,0,0,0,0,0,0,0,0,0,0,0,0,0,0,0,0,0,0,0,0,0,0,0,0,0,0,0,0,0,0,0,0,0,0,0,0,0,0,0,0,0,0,0,0,0,0,0,0,0,0,0,0,0,0,3605,3642,3647,3647,3647,3647,3647,3647,3647,3647,3647,3647,3647,3647,3647,3647,3647,3647,3647,0,0,0,0,0,0,0,0,0,0,0,0,0,0,0,0,0,0,0,0,0,0,0,0,0,0,0,0,0,0,0,0,0,0,0,0,0,0,0,0,0,0,0,0,0,0,0,0,0,0,0,0,0,0,0,0,0,0,0,0,0,0,0,0,0,0,0,0,0,0,0,0,0,0,0,0,0,0,0,0,0,0,0,0,0,0,0,0,0,0,0,0,0,0,0,0,0,0,0,0,0,0,0,0,0,0,0,0,0,0,0,0,0,0,0,0,0,0,0,0,0,0,0,0,0,0,3613,3647,3647,3647,3647,3647,3647,3647,3647,3647,3647,3647,3647,3647,3647,3647,3647,3647,0,0,0,0,0,0,0,0,0,0,0,0,0,0,0,0,0,0,0,0,0,0,0,0,0,0,0,0,0,0,0,0,0,0,0,0,0,0,0,0,0,0,0,0,0,0,0,0,0,0,0,0,0,0,0,0,0,0,0,0,0,0,0,0,0,0,0,0,0,0,0,0,0,0,0,0,0,0,0,0,0,0,0,0,0,0,0,0,0,0,0,0,0,0,0,0,0,0,0,0,0,0,0,0,0,0,0,0,0,0,0,0,0,0,0,0,0,0,0,0,0,0,0,0,0,0,3613,3647,3647,3647,3647,3647,3647,3647,3647,3647,3647,3647,3647,3647,3647,3647,3647,3647,0,0,0,0,0,0,0,0,0,0,0,0,0,0,0,0,0,0,0,0,0,0,0,0,0,0,0,0,0,0,0,0,0,0,0,0,0,0,0,0,0,0,0,0,0,0,0,0,0,0,0,0,0,0,0,0,0,0,0,0,0,0,0,0,0,0,0,0,0,0,0,0,0,0,0,0,0,0,0,0,0,0,0,0,0,0,0,0,0,0,0,0,0,0,0,0,0,0,0,0,0,0,0,0,0,0,0,0,0,0,0,0,0,0,0,0,0,0,0,0,0,0,0,0,0,0,3613,3647,3647,3647,3647,3647,3647,3647,3647,3647,3647,3647,3647,3647,3647,3647,3647,3647,0,0,0,0,0,0,0,0,0,0,0,0,0,0,0,0,0,0,0,0,0,0,0,0,0,0,0,0,0,0,0,0,0,0,0,0,0,0,0,0,0,0,0,0,0,0,0,0,0,0,0,0,0,0,0,0,0,0,0,0,0,0,0,0,0,0,0,0,0,0,0,0,0,0,0,0,0,0,0,0,0,0,0,0,0,0,0,0,0,0,0,0,0,0,0,0,0,0,0,0,0,0,0,0,0,0,0,0,0,0,0,0,0,0,0,0,0,0,0,0,0,0,0,0,0,0,3613,3647,3647,3647,3647,3647,3647,3647,3647,3647,3647,3647,3647,3647,3647,3647,3647,3647,0,0,0,0,0,0,0,0,0,0,0,0,0,0,0,0,0,0,0,0,0,0,0,0,0,0,0,0,0,0,0,0,0,0,0,0,0,0,0,0,0,0,0,0,0,0,0,0,0,0,0,0,0,0,0,0,0,0,0,0,0,0,0,0,0,0,0,0,0,0,0,0,0,0,0,0,0,0,0,0,0,0,0,0,0,0,0,0,0,0,0,0,0,0,0,0,0,0,0,0,0,0,0,0,0,0,0,0,0,0,0,0,0,0,0,0,0,0,0,0,0,0,0,0,0,0,3613,3647,3647,3647,3647,3647,3647,3647,3647,3647,3647,3647,3647,3647,3647,3647,3647,3647,0,0,0,0,0,0,0,0,0,0,0,0,0,0,0,0,0,0,0,0,0,0,0,0,0,0,0,0,0,0,0,0,0,0,0,0,0,0,0,0,0,0,0,0,0,0,0,0,0,0,0,0,0,0,0,0,0,0,0,0,0,0,0,0,0,0,0,0,0,0,0,0,0,0,0,0,0,0,0,0,0,0,0,0,0,0,0,0,0,0,0,0,0,0,0,0,0,0,0,0,0,0,0,0,0,0,0,0,0,0,0,0,0,0,0,0,0,0,0,0,0,0,0,0,0,0,3613,3647,3647,3647,3647,3647,3647,3647,3647,3647,3647,3647,3647,3647,3647,3647,3647,3647,0,0,0,0,0,0,0,0,0,0,0,0,0,0,0,0,0,0,0,0,0,0,0,0,0,0,0,0,0,0,0,0,0,0,0,0,0,0,0,0,0,0,0,0,0,0,0,0,0,0,0,0,0,0,0,0,0,0,0,0,0,0,0,0,0,0,0,0,0,0,0,0,0,0,0,0,0,0,0,0,0,0,0,0,0,0,0,0,0,0,0,0,0,0,0,0,0,0,0,0,0,0,0,0,0,0,0,0,0,0,0,0,0,0,0,0,0,0,0,0,0,0,0,0,0,0,3613,3647,3647,3647,3647,3647,3647,3647,3647,3647,3647,3647,3647,3647,3647,3647,3647,3647,0,0,0,0,0,0,0,0,0,0,0,0,0,0,0,0,0,0,0,0,0,0,0,0,0,0,0,0,0,0,0,0,0,0,0,0,0,0,0,0,0,0,0,0,0,0,0,0,0,0,0,0,0,0,0,0,0,0,0,0,0,0,0,0,0,0,0,0,0,0,0,0,0,0,0,0,0,0,0,0,0,0,0,0,0,0,0,0,0,0,0,0,0,0,0,0,0,0,0,0,0,0,0,0,0,0,0,0,0,0,0,0,0,0,0,0,0,0,0,0,0,0,0,0,0,0,3613,3647,3647,3647,3647,3647,3647,3647,3647,3647,3647,3647,3647,3647,3647,3647,3647,3647,0,0,0,0,0,0,0,0,0,0,0,0,0,0,0,0,0,0,0,0,0,0,0,0,0,0,0,0,0,0,0,0,0,0,0,0,0,0,0,0,0,0,0,0,0,0,0,0,0,0,0,0,0,0,0,0,0,0,0,0,0,0,0,0,0,0,0,0,0,0,0,0,0,0,0,0,0,0,0,0,0,0,0,0,0,0,0,0,0,0,0,0,0,0,0,0,0,0,0,0,0,0,0,0,0,0,0,0,0,0,0,0,0,0,0,0,0,0,0,0,0,0,0,0,0,0,3610,6805,6810,3647,3647,3647,3647,3647,3647,3647,3647,3647,3647,3647,3647,3647,3647,3647,0,0,0,0,0,0,0,0,0,0,0,0,0,0,0,0,0,0,0,0,0,0,0,0,0,0,0,0,0,0,0,0,0,0,0,0,0,0,0,0,0,0,0,0,0,0,0,0,0,0,0,0,0,0,0,0,0,0,0,0,0,0,0,0,0,0,0,0,0,0,0,0,0,0,0,0,0,0,0,0,0,0,0,0,0,0,0,0,0,0,0,0,0,0,0,0,0,0,0,0,0,0,0,0,0,0,0,0,0,0,0,0,0,0,0,0,0,0,0,0,0,0,0,0,0,6771,6783,0,6773,6810,3647,3647,3647,3647,3647,3647,3647,3647,3647,3647,3647,3647,3647,3647,0,0,0,0,0,0,0,0,0,0,0,0,0,0,0,0,0,0,0,0,0,0,0,0,0,0,0,0,0,0,0,0,0,0,0,0,0,0,0,0,0,0,0,0,0,0,0,0,0,0,0,0,0,0,0,0,0,0,0,0,0,0,0,0,0,0,0,0,0,0,0,0,0,0,0,0,0,0,0,0,0,0,0,0,0,0,0,0,0,0,0,0,0,0,0,0,0,0,0,0,0,0,0,0,0,0,0,0,0,0,0,0,0,0,0,0,0,0,0,0,0,0,0,0,0,0,0,0,0,6781,3647,3647,3647,3647,3647,3647,3647,3647,3647,3647,3647,3647,3647,3647,0,0,0,0,0,0,0,0,0,0,0,0,0,0,0,0,0,0,0,0,0,0,0,0,0,0,0,0,0,0,0,0,0,0,0,0,0,0,0,0,0,0,0,0,0,0,0,0,0,0,0,0,0,0,0,0,0,0,0,0,0,0,0,0,0,0,0,0,0,0,0,0,0,0,0,0,0,0,0,0,0,0,0,0,0,0,0,0,0,0,0,0,0,0,0,0,0,0,0,0,0,0,0,0,0,0,0,0,0,0,0,0,0,0,0,0,0,0,0,0,0,0,0,0,0,0,0,0,6779,6802,3647,3647,3647,3647,3647,3647,3647,3647,3647,3647,3647,3647,3647,3647,0,0,0,0,0,0,0,0,0,0,0,0,0,0,0,0,0,0,0,0,0,0,0,0,0,0,0,0,0,0,0,0,0,0,0,0,0,0,0,0,0,0,0,0,0,0,0,0,0,0,0,0,0,0,0,0,0,0,0,0,0,0,0,0,0,0,0,0,0,0,0,0,0,0,0,0,0,0,0,0,0,0,0,0,0,0,0,0,0,0,0,0,0,0,0,0,0,0,0,0,0,0,0,0,0,0,0,0,0,0,0,0,0,0,0,0,0,0,0,0,0,0,0,0,6779,6800,6800,6800,6802,3647,3647,3647,3647,3647,3647,3647,3647,3647,3647,3647,3647,3647,3647,3647,0,0,0,0,0,0,0,0,0,0,0,0,0,0,0,0,0,0,0,0,0,0,0,0,0,0,0,0,0,0,0,0,0,0,0,0,0,0,0,0,0,0,0,0,0,0,0,0,0,0,0,0,0,0,0,0,0,0,0,0,0,0,0,0,0,0,0,0,0,0,0,0,0,0,0,0,0,0,0,0,0,0,0,0,0,0,0,0,0,0,0,0,0,0,0,0,0,0,0,0,0,0,0,0,0,0,0,0,0,0,0,0,0,0,0,0,0,0,0,0,0,0,0,3603,6794,3647,3647,3647,3647,3647,3647,3647,3647,3647,3647,3647,3647,3647,3647,3647,3647,3647,3647,3647,0,0,0,0,0,0,0,0,0,0,0,0,0,0,0,0,0,0,0,0,0,0,0,0,0,0,0,0,0,0,0,0,0,0,0,0,0,0,0,0,0,0,0,0,0,0,0,0,0,0,0,0,0,0,0,0,0,0,0,0,0,0,0,0,0,0,0,0,0,0,0,0,0,0,0,0,0,0,0,0,0,0,0,0,0,0,0,0,0,0,0,0,0,0,0,0,0,0,0,0,0,0,0,0,0,0,0,0,0,0,0,0,0,0,0,0,0,0,0,0,0,0,0,0,3605,3637,3642,3647,3647,3647,3647,3647,3647,3647,3647,3647,3647,3647,3647,3647,3647,3647,3647,3647,0,0,0,0,0,0,0,0,0,0,0,0,0,0,0,0,0,0,0,0,0,0,0,0,0,0,0,0,0,0,0,0,0,0,0,0,0,0,0,0,0,0,0,0,0,0,0,0,0,0,0,0,0,0,0,0,0,0,0,0,0,0,0,0,0,0,0,0,0,0,0,0,0,0,0,0,0,0,0,0,0,0,0,0,0,0,0,0,0,0,0,0,0,0,0,0,0,0,0,0,0,0,0,0,0,0,0,0,0,0,0,0,0,0,0,0,0,0,0,0,0,0,0,0,0,0,3613,3647,3647,3647,3647,3647,3647,3647,3647,3647,3647,3647,3647,3647,3647,3647,3647,3647,0,0,0,0,0,0,0,0,0,0,0,0,0,0,0,0,0,0,0,0,0,0,0,0,0,0,0,0,0,0,0,0,0,0,0,0,0,0,0,0,0,0,0,0,0,0,0,0,0,0,0,0,0,0,0,0,0,0,0,0,0,0,0,0,0,0,0,0,0,0,0,0,0,0,0,0,0,0,0,0,0,0,0,0,0,0,0,0,0,0,0,0,0,0,0,0,0,0,0,0,0,0,0,0,0,0,0,0,0,0,0,0,0,0,0,0,0,0,0,0,0,0,0,0,0,0,3613,3647,3647,3647,3647,3647,3647,3647,3647,3647,3647,3647,3647,3647,3647,3647,3647,3647,0,0,0,0,0,0,0,0,0,0,0,0,0,0,0,0,0,0,0,0,0,0,0,0,0,0,0,0,0,0,0,0,0,0,0,0,0,0,0,0,0,0,0,0,0,0,0,0,0,0,0,0,0,0,0,0,0,0,0,0,0,0,0,0,0,0,0,0,0,0,0,0,0,0,0,0,0,0,0,0,0,0,0,0,0,0,0,0,0,0,0,0,0,0,0,0,0,0,0,0,0,0,0,0,0,0,0,0,0,0,0,0,0,0,0,0,0,0,0,0,0,0,0,0,0,0,3613,3647,3647,3647,3647,3647,3647,3647,3647,3647,3647,3647,3647,3647,3647,3647,3647,3647,0,0,0,0,0,0,0,0,0,0,0,0,0,0,0,0,0,0,0,0,0,0,0,0,0,0,0,0,0,0,0,0,0,0,0,0,0,0,0,0,0,0,0,0,0,0,0,0,0,0,0,0,0,0,0,0,0,0,0,0,0,0,0,0,0,0,0,0,0,0,0,0,0,0,0,0,0,0,0,0,0,0,0,0,0,0,0,0,0,0,0,0,0,0,0,0,0,0,0,0,0,0,0,0,0,0,0,0,0,0,0,0,0,0,0,0,0,0,0,0,0,0,0,0,0,0,3613,3647,3647,3647,3647,3647,3647,3647,3647,3647,3647,3647,3647,3647,3647,3647,3647,3647,0,0,0,0,0,0,0,0,0,0,0,0,0,0,0,0,0,0,0,0,0,0,0,0,0,0,0,0,0,0,0,0,0,0,0,0,0,0,0,0,0,0,0,0,0,0,0,0,0,0,0,0,0,0,0,0,0,0,0,0,0,0,0,0,0,0,0,0,0,0,0,0,0,0,0,0,0,0,0,0,0,0,0,0,0,0,0,0,0,0,0,0,0,0,0,0,0,0,0,0,0,0,0,0,0,0,0,0,0,0,0,0,0,0,0,0,0,0,0,0,0,0,0,0,0,0,3613,3647,3647,3647,3647,3647,3647,3647,3647,3647,3647,3647,3647,3647,3647,3647,3647,3647,0,0,0,0,0,0,0,0,0,0,0,0,0,0,0,0,0,0,0,0,0,0,0,0,0,0,0,0,0,0,0,0,0,0,0,0,0,0,0,0,0,0,0,0,0,0,0,0,0,0,0,0,0,0,0,0,0,0,0,0,0,0,0,0,0,0,0,0,0,0,0,0,0,0,0,0,0,0,0,0,0,0,0,0,0,0,0,0,0,0,0,0,0,0,0,0,0,0,0,0,0,0,0,0,0,0,0,0,0,0,0,0,0,0,0,0,0,0,0,0,0,0,0,0,3611,3632,3634,3647,3647,3647,3647,3647,3647,3647,3647,3647,3647,3647,3647,3647,3647,3647,3647,3647,0,0,0,0,0,0,0,0,0,0,0,0,0,0,0,0,0,0,0,0,0,0,0,0,0,0,0,0,0,0,0,0,0,0,0,0,0,0,0,0,0,0,0,0,0,0,0,0,0,0,0,0,0,0,0,0,0,0,0,0,0,0,0,0,0,0,0,0,0,0,0,0,0,0,0,0,0,0,0,0,0,0,0,0,0,0,0,0,0,0,0,0,0,0,0,0,0,0,0,0,0,0,0,0,0,0,0,0,0,0,0,0,0,0,0,0,0,0,0,0,0,0,0,3611,3634,3647,3647,3647,3647,3647,3647,3647,3647,3647,3647,3647,3647,3647,3647,3647,3647,3647,3647,3647,0,0,0,0,0,0,0,0,0,0,0,0,0,0,0,0,0,0,0,0,0,0,0,0,0,0,0,0,0,0,0,0,0,0,0,0,0,0,0,0,0,0,0,0,0,0,0,0,0,0,0,0,0,0,0,0,0,0,0,0,0,0,0,0,0,0,0,0,0,0,0,0,0,0,0,0,0,0,0,0,0,0,0,0,0,0,0,0,0,0,0,0,0,0,0,0,0,0,0,0,0,0,0,0,0,0,0,0,0,0,0,0,0,0,0,0,0,0,0,0,0,0,0,3605,3642,3647,3647,3647,3647,3647,3647,3647,3647,3647,3647,3647,3647,3647,3647,3647,3647,3647,3647,3647,0,0,0,0,0,0,0,0,0,0,0,0,0,0,0,0,0,0,0,0,0,0,0,0,0,0,0,0,0,0,0,0,0,0,0,0,0,0,0,0,0,0,0,0,0,0,0,0,0,0,0,0,0,0,0,0,0,0,0,0,0,0,0,0,0,0,0,0,0,0,0,0,0,0,0,0,0,0,0,0,0,0,0,0,0,0,0,0,0,0,0,0,0,0,0,0,0,0,0,0,0,0,0,0,0,0,0,0,0,0,0,0,0,0,0,0,0,0,0,0,0,0,0,0,3605,3637,3642,3647,3647,3647,3647,3647,3647,3647,3647,3647,3647,3647,3647,3647,3647,3647,3647,3647,0,0,0,0,0,0,0,0,0,0,0,0,0,0,0,0,0,0,0,0,0,0,0,0,0,0,0,0,0,0,0,0,0,0,0,0,0,0,0,0,0,0,0,0,0,0,0,0,0,0,0,0,0,0,0,0,0,0,0,0,0,0,0,0,0,0,0,0,0,0,0,0,0,0,0,0,0,0,0,0,0,0,0,0,0,0,0,0,0,0,0,0,0,0,0,0,0,0,0,0,0,0,0,0,0,0,0,0,0,0,0,0,0,0,0,0,0,0,0,0,0,0,0,0,0,0,3613,3647,3647,3647,3647,3647,3647,3647,3647,3647,3647,3647,3647,3647,3647,3647,3647,3647,0,0,0,0,0,0,0,0,0,0,0,0,0,0,0,0,0,0,0,0,0,0,0,0,0,0,0,0,0,0,0,0,0,0,0,0,0,0,0,0,0,0,0,0,0,0,0,0,0,0,0,0,0,0,0,0,0,0,0,0,0,0,0,0,0,0,0,0,0,0,0,0,0,0,0,0,0,0,0,0,0,0,0,0,0,0,0,0,0,0,0,0,0,0,0,0,0,0,0,0,0,0,0,0,0,0,0,0,0,0,0,0,0,0,0,0,0,0,0,0,0,0,0,0,0,0,3613,3647,3647,3647,3647,3647,3647,3647,3647,3647,3647,3647,3647,3647,3647,3647,3647,3647,0,0,0,0,0,0,0,0,0,0,0,0,0,0,0,0,0,0,0,0,0,0,0,0,0,0,0,0,0,0,0,0,0,0,0,0,0,0,0,0,0,0,0,0,0,0,0,0,0,0,0,0,0,0,0,0,0,0,0,0,0,0,0,0,0,0,0,0,0,0,0,0,0,0,0,0,0,0,0,0,0,0,0,0,0,0,0,0,0,0,0,0,0,0,0,0,0,0,0,0,0,0,0,0,0,0,0,0,0,0,0,0,0,0,0,0,0,0,0,0,0,0,0,0,0,0,3613,3647,3647,3647,3647,3647,3647,3647,3647,3647,3647,3647,3647,3647,3647,3647,3647,3647,0,0,0,0,0,0,0,0,0,0,0,0,0,0,0,0,0,0,0,0,0,0,0,0,0,0,0,0,0,0,0,0,0,0,0,0,0,0,0,0,0,0,0,0,0,0,0,0,0,0,0,0,0,0,0,0,0,0,0,0,0,0,0,0,0,0,0,0,0,0,0,0,0,0,0,0,0,0,0,0,0,0,0,0,0,0,0,0,0,0,0,0,0,0,0,0,0,0,0,0,0,0,0,0,0,0,0,0,0,0,0,0,0,0,0,0,0,0,0,0,0,0,0,0,0,0,3613,3647,3647,3647,3647,3647,3647,3647,3647,3647,3647,3647,3647,3647,3647,3647,3647,3647,0,0,0,0,0,0,0,0,0,0,0,0,0,0,0,0,0,0,0,0,0,0,0,0,0,0,0,0,0,0,0,0,0,0,0,0,0,0,0,0,0,0,0,0,0,0,0,0,0,0,0,0,0,0,0,0,0,0,0,0,0,0,0,0,0,0,0,0,0,0,0,0,0,0,0,0,0,0,0,0,0,0,0,0,0,0,0,0,0,0,0,0,0,0,0,0,0,0,0,0,0,0,0,0,0,0,0,0,0,0,0,0,0,0,0,0,0,0,0,0,0,0,0,0,0,0,3613,3647,3647,3647,3647,3647,3647,3647,3647,3647,3647,3647,3647,3647,3647,3647,3647,3647,0,0,0,0,0,0,0,0,0,0,0,0,0,0,0,0,0,0,0,0,0,0,0,0,0,0,0,0,0,0,0,0,0,0,0,0,0,0,0,0,0,0,0,0,0,0,0,0,0,0,0,0,0,0,0,0,0,0,0,0,0,0,0,0,0,0,0,0,0,0,0,0,0,0,0,0,0,0,0,0,0,0,0,0,0,0,0,0,0,0,0,0,0,0,0,0,0,0,0,0,0,0,0,0,0,0,0,0,0,0,0,0,0,0,0,0,0,0,0,0,0,0,0,0,0,0,3613,3647,3647,3647,3647,3647,3647,3647,3647,3647,3647,3647,3647,3647,3647,3647,3647,3647,0,0,0,0,0,0,0,0,0,0,0,0,0,0,0,0,0,0,0,0,0,0,0,0,0,0,0,0,0,0,0,0,0,0,0,0,0,0,0,0,0,0,0,0,0,0,0,0,0,0,0,0,0,0,0,0,0,0,0,0,0,0,0,0,0,0,0,0,0,0,0,0,0,0,0,0,0,0,0,0,0,0,0,0,0,0,0,0,0,0,0,0,0,0,0,0,0,0,0,0,0,0,0,0,0,0,0,0,0,0,0,0,0,0,0,0,0,0,0,0,0,0,0,0,0,0,3613,3647,3647,3647,3647,3647,3647,3647,3647,3647,3647,3647,3647,3647,3647,3647,3647,3647,0,0,0,0,0,0,0,0,0,0,0,0,0,0,0,0,0,0,0,0,0,0,0,0,0,0,0,0,0,0,0,0,0,0,0,0,0,0,0,0,0,0,0,0,0,0,0,0,0,0,0,0,0,0,0,0,0,0,0,0,0,0,0,0,0,0,0,0,0,0,0,0,0,0,0,0,0,0,0,0,0,0,0,0,0,0,0,0,0,0,0,0,0,0,0,0,0,0,0,0,0,0,0,0,0,0,0,0,0,0,0,0,0,0,0,0,0,0,0,0,0,0,0,0,0,0,3613,3647,3647,3647,3647,3647,3647,3647,3647,3647,3647,3647,3647,3647,3647,3647,3647,3647,0,0,0,0,0,0,0,0,0,0,0,0,0,0,0,0,0,0,0,0,0,0,0,0,0,0,0,0,0,0,0,0,0,0,0,0,0,0,0,0,0,0,0,0,0,0,0,0,0,0,0,0,0,0,0,0,0,0,0,0,0,0,0,0,0,0,0,0,0,0,0,0,0,0,0,0,0,0,0,0,0,0,0,0,0,0,0,0,0,0,0,0,0,0,0,0,0,0,0,0,0,0,0,0,0,0,0,0,0,0,0,0,0,0,0,0,0,0,0,0,0,0,0,0,0,0,3613,3647,3647,3647,3647,3647,3647,3647,3647,3647,3647,3647,3647,3647,3647,3647,3647,3647,0,0,0,0,0,0,0,0,0,0,0,0,0,0,0,0,0,0,0,0,0,0,0,0,0,0,0,0,0,0,0,0,0,0,0,0,0,0,0,0,0,0,0,0,0,0,0,0,0,0,0,0,0,0,0,0,0,0,0,0,0,0,0,0,0,0,0,0,0,0,0,0,0,0,0,0,0,0,0,0,0,0,0,0,0,0,0,0,0,0,0,0,0,0,0,0,0,0,0,0,0,0,0,0,0,0,0,0,0,0,0,0,0,0,0,0,0,0,0,0,0,0,0,0,0,0,3613,3647,3647,3647,3647,3647,3647,3647,3647,3647,3647,3647,3647,3647,3647,3647,3647,3647,0,0,0,0,0,0,0,0,0,0,0,0,0,0,0,0,0,0,0,0,0,0,0,0,0,0,0,0,0,0,0,0,0,0,0,0,0,0,0,0,0,0,0,0,0,0,0,0,0,0,0,0,0,0,0,0,0,0,0,0,0,0,0,0,0,0,0,0,0,0,0,0,0,0,0,0,0,0,0,0,0,0,0,0,0,0,0,0,0,0,0,0,0,0,0,0,0,0,0,0,0,0,0,0,0,0,0,0,0,0,0,0,0,0,0,0,0,0,0,0,0,0,0,0,0,0,3613,3647,3647,3647,3647,3647,3647,3647,3647,3647,3647,3647,3647,3647,3647,3647,3647,3647,0,0,0,0,0,0,0,0,0,0,0,0,0,0,0,0,0,0,0,0,0,0,0,0,0,0,0,0,0,0,0,0,0,0,0,0,0,0,0,0,0,0,0,0,0,0,0,0,0,0,0,0,0,0,0,0,0,0,0,0,0,0,0,0,0,0,0,0,0,0,0,0,0,0,0,0,0,0,0,0,0,0,0,0,0,0,0,0,0,0,0,0,0,0,0,0,0,0,0,0,0,0,0,0,0,0,0,0,0,0,0,0,0,0,0,0,0,0,0,0,0,0,0,0,0,0,3613,3647,3647,3647,3647,3647,3647,3647,3647,3647,3647,3647,3647,3647,3647,3647,3647,3647,0,0,0,0,0,0,0,0,0,0,0,0,0,0,0,0,0,0,0,0,0,0,0,0,0,0,0,0,0,0,0,0,0,0,0,0,0,0,0,0,0,0,0,0,0,0,0,0,0,0,0,0,0,0,0,0,0,0,0,0,0,0,0,0,0,0,0,0,0,0,0,0,0,0,0,0,0,0,0,0,0,0,0,0,0,0,0,0,0,0,0,0,0,0,0,0,0,0,0,0,0,0,0,0,0,0,0,0,0,0,0,0,0,0,0,0,0,0,0,0,0,0,0,0,0,0,3613,3647,3647,3647,3647,3647,3647,3647,3647,3647,3647,3647,3647,3647,3647,3647,3647,3647,0,0,0,0,0,0,0,0,0,0,0,0,0,0,0,0,0,0,0,0,0,0,0,0,0,0,0,0,0,0,0,0,0,0,0,0,0,0,0,0,0,0,0,0,0,0,0,0,0,0,0,0,0,0,0,0,0,0,0,0,0,0,0,0,0,0,0,0,0,0,0,0,0,0,0,0,0,0,0,0,0,0,0,0,0,0,0,0,0,0,0,0,0,0,0,0,0,0,0,0,0,0,0,0,0,0,0,0,0,0,0,0,0,0,0,0,0,0,0,0,0,0,0,0,0,0,3613,3647,3647,3647,3647,3647,3647,3647,3647,3647,3647,3647,3647,3647,3647,3647,3647,3647,0,0,0,0,0,0,0,0,0,0,0,0,0,0,0,0,0,0,0,0,0,0,0,0,0,0,0,0,0,0,0,0,0,0,0,0,0,0,0,0,0,0,0,0,0,0,0,0,0,0,0,0,0,0,0,0,0,0,0,0,0,0,0,0,0,0,0,0,0,0,0,0,0,0,0,0,0,0,0,0,0,0,0,0,0,0,0,0,0,0,0,0,0,0,0,0,0,0,0,0,0,0,0,0,0,0,0,0,0,0,0,0,0,0,0,0,0,0,0,0,0,0,0,0,0,0,3613,3647,3647,3647,3647,3647,3647,3647,3647,3647,3647,3647,3647,3647,3647,3647,3647,3647,0,0,0,0,0,0,0,0,0,0,0,0,0,0,0,0,0,0,0,0,0,0,0,0,0,0,0,0,0,0,0,0,0,0,0,0,0,0,0,0,0,0,0,0,0,0,0,0,0,0,0,0,0,0,0,0,0,0,0,0,0,0,0,0,0,0,0,0,0,0,0,0,0,0,0,0,0,0,0,0,0,0,0,0,0,0,0,0,0,0,0,0,0,0,0,0,0,0,0,0,0,0,0,0,0,0,0,0,0,0,0,0,0,0,0,0,0,0,0,0,0,0,0,0,0,0,3613,3647,3647,3647,3647,3647,3647,3647,3647,3647,3647,3647,3647,3647,3647,3647,3647,3647,0,0,0,0,0,0,0,0,0,0,0,0,0,0,0,0,0,0,0,0,0,0,0,0,0,0,0,0,0,0,0,0,0,0,0,0,0,0,0,0,0,0,0,0,0,0,0,0,0,0,0,0,0,0,0,0,0,0,0,0,0,0,0,0,0,0,0,0,0,0,0,0,0,0,0,0,0,0,0,0,0,0,0,0,0,0,0,0,0,0,0,0,0,0,0,0,0,0,0,0,0,0,0,0,0,0,0,0,0,0,0,0,0,0,0,0,0,0,0,0,0,0,0,0,0,0,3613,3647,3647,3647,3647,3647,3647,3647,3647,3647,3647,3647,3647,3647,3647,3647,3647,3647,0,0,0,0,0,0,0,0,0,0,0,0,0,0,0,0,0,0,0,0,0,0,0,0,0,0,0,0,0,0,0,0,0,0,0,0,0,0,0,0,0,0,0,0,0,0,0,0,0,0,0,0,0,0,0,0,0,0,0,0,0,0,0,0,0,0,0,0,0,0,0,0,0,0,0,0,0,0,0,0,0,0,0,0,0,0,0,0,0,0,0,0,0,0,0,0,0,0,0,0,0,0,0,0,0,0,0,0,0,0,0,0,0,0,0,0,0,0,0,0,0,0,0,0,0,0,3613,3647,3647,3647,3647,3647,3647,3647,3647,3647,3647,3647,3647,3647,3647,3647,3647,3647,0,0,0,0,0,0,0,0,0,0,0,0,0,0,0,0,0,0,0,0,0,0,0,0,0,0,0,0,0,0,0,0,0,0,0,0,0,0,0,0,0,0,0,0,0,0,0,0,0,0,0,0,0,0,0,0,0,0,0,0,0,0,0,0,0,0,0,0,0,0,0,0,0,0,0,0,0,0,0,0,0,0,0,0,0,0,0,0,0,0,0,0,0,0,0,0,0,0,0,0,0,0,0,0,0,0,0,0,0,0,0,0,0,0,0,0,0,0,0,0,0,0,0,0,0,0,3613,3647,3647,3647,3647,3647,3647,3647,3647,3647,3647,3647,3647,3647,3647,3647,3647,3647,0,0,0,0,0,0,0,0,0,0,0,0,0,0,0,0,0,0,0,0,0,0,0,0,0,0,0,0,0,0,0,0,0,0,0,0,0,0,0,0,0,0,0,0,0,0,0,0,0,0,0,0,0,0,0,0,0,0,0,0,0,0,0,0,0,0,0,0,0,0,0,0,0,0,0,0,0,0,0,0,0,0,0,0,0,0,0,0,0,0,0,0,0,0,0,0,0,0,0,0,0,0,0,0,0,0,0,0,0,0,0,0,0,0,0,0,0,0,0,0,0,0,0,0,0,0,3613,3647,3647,3647,3647,3647,3647,3647,3647,3647,3647,3647,3647,3647,3647,3647,3647,3647,0,0,0,0,0,0,0,0,0,0,0,0,0,0,0,0,0,0,0,0,0,0,0,0,0,0,0,0,0,0,0,0,0,0,0,0,0,0,0,0,0,0,0,0,0,0,0,0,0,0,0,0,0,0,0,0,0,0,0,0,0,0,0,0,0,0,0,0,0,0,0,0,0,0,0,0,0,0,0,0,0,0,0,0,0,0,0,0,0,0,0,0,0,0,0,0,0,0,0,0,0,0,0,0,0,0,0,0,0,0,0,0,0,0,0,0,0,0,0,0,0,0,0,0,0,0,3613,3647,3647,3647,3647,3647,3647,3647,3647,3647,3647,3647,3647,3647,3647,3647,3647,3647,0,0,0,0,0,0,0,0,0,0,0,0,0,0,0,0,0,0,0,0,0,0,0,0,0,0,0,0,0,0,0,0,0,0,0,0,0,0,0,0,0,0,0,0,0,0,0,0,0,0,0,0,0,0,0,0,0,0,0,0,0,0,0,0,0,0,0,0,0,0,0,0,0,0,0,0,0,0,0,0,0,0,0,0,0,0,0,0,0,0,0,0,0,0,0,0,0,0,0,0,0,0,0,0,0,0,0,0,0,0,0,0,0,0,0,0,0,0,0,0,0,0,0,0,0,0,3613,3647,3647,3647,3647,3647,3647,3647,3647,3647,3647,3647,3647,3647,3647,3647,3647,3647]},{"id":20,"name":"decor","type":"objectgroup","draworder":"topdown","x":0,"y":0,"opacity":1,"visible":true,"objects":[{"id":1,"name":"decor-1","type":"decor.horses","x":1232,"y":112,"width":0,"height":0,"rotation":0,"visible":true,"point":true},{"id":2,"name":"decor-2","type":"decor.horses","x":1808,"y":80,"width":0,"height":0,"rotation":0,"visible":true,"point":true},{"id":3,"name":"decor-3","type":"decor.beacon","x":1040,"y":240,"width":0,"height":0,"rotation":0,"visible":true,"point":true},{"id":4,"name":"decor-4","type":"decor.beacon","x":1616,"y":208,"width":0,"height":0,"rotation":0,"visible":true,"point":true},{"id":5,"name":"decor-5","type":"decor.beacon","x":2704,"y":272,"width":0,"height":0,"rotation":0,"visible":true,"point":true},{"id":6,"name":"decor-6","type":"decor.tumulus","x":848,"y":1296,"width":0,"height":0,"rotation":0,"visible":true,"point":true},{"id":7,"name":"decor-7","type":"decor.tumulus","x":2512,"y":528,"width":0,"height":0,"rotation":0,"visible":true,"point":true},{"id":8,"name":"decor-8","type":"decor.tumulus","x":3152,"y":1168,"width":0,"height":0,"rotation":0,"visible":true,"point":true},{"id":9,"name":"decor-9","type":"decor.stele","x":3184,"y":1072,"width":0,"height":0,"rotation":0,"visible":true,"point":true},{"id":10,"name":"decor-10","type":"decor.stele","x":3952,"y":2448,"width":0,"height":0,"rotation":0,"visible":true,"point":true},{"id":11,"name":"decor-11","type":"decor.pine","x":400,"y":1808,"width":0,"height":0,"rotation":0,"visible":true,"point":true},{"id":12,"name":"decor-12","type":"decor.pine","x":1424,"y":1776,"width":0,"height":0,"rotation":0,"visible":true,"point":true},{"id":13,"name":"decor-13","type":"decor.pine","x":1936,"y":1072,"width":0,"height":0,"rotation":0,"visible":true,"point":true},{"id":14,"name":"decor-14","type":"decor.pine","x":3024,"y":656,"width":0,"height":0,"rotation":0,"visible":true,"point":true},{"id":15,"name":"decor-15","type":"decor.bamboo","x":3408,"y":2512,"width":0,"height":0,"rotation":0,"visible":true,"point":true},{"id":16,"name":"decor-16","type":"decor.bamboo","x":848,"y":2672,"width":0,"height":0,"rotation":0,"visible":true,"point":true},{"id":17,"name":"decor-17","type":"decor.bamboo","x":2032,"y":2768,"width":0,"height":0,"rotation":0,"visible":true,"point":true},{"id":18,"name":"decor-18","type":"decor.grove","x":1104,"y":1520,"width":0,"height":0,"rotation":0,"visible":true,"point":true},{"id":19,"name":"decor-19","type":"decor.grove","x":2576,"y":1520,"width":0,"height":0,"rotation":0,"visible":true,"point":true},{"id":20,"name":"decor-20","type":"decor.grove","x":688,"y":2288,"width":0,"height":0,"rotation":0,"visible":true,"point":true},{"id":21,"name":"decor-21","type":"decor.grove","x":3280,"y":880,"width":0,"height":0,"rotation":0,"visible":true,"point":true},{"id":22,"name":"decor-22","type":"decor.boat","x":4176,"y":1424,"width":0,"height":0,"rotation":0,"visible":true,"point":true},{"id":23,"name":"decor-23","type":"decor.boat","x":3760,"y":464,"width":0,"height":0,"rotation":0,"visible":true,"point":true},{"id":24,"name":"decor-24","type":"decor.boat","x":3984,"y":1968,"width":0,"height":0,"rotation":0,"visible":true,"point":true},{"id":25,"name":"decor-25","type":"decor.rocks","x":1488,"y":976,"width":0,"height":0,"rotation":0,"visible":true,"point":true},{"id":26,"name":"decor-26","type":"decor.rocks","x":2896,"y":1936,"width":0,"height":0,"rotation":0,"visible":true,"point":true},{"id":27,"name":"decor-27","type":"decor.rocks","x":336,"y":976,"width":0,"height":0,"rotation":0,"visible":true,"point":true}]},{"id":21,"name":"places","type":"objectgroup","draworder":"topdown","x":0,"y":0,"opacity":1,"visible":true,"objects":[{"id":28,"name":"xianyang","type":"court","x":976,"y":1360,"width":0,"height":0,"rotation":0,"visible":true,"point":true,"properties":[{"name":"state","type":"string","value":"qin"}]},{"id":29,"name":"qin","type":"region","x":528,"y":1296,"width":0,"height":0,"rotation":0,"visible":true,"point":true},{"id":30,"name":"guanzhong","type":"region","x":1168,"y":1488,"width":0,"height":0,"rotation":0,"visible":true,"point":true},{"id":31,"name":"jing","type":"ford","x":720,"y":1264,"width":0,"height":0,"rotation":0,"visible":true,"point":true},{"id":32,"name":"hangu","type":"pass","x":1616,"y":1488,"width":0,"height":0,"rotation":0,"visible":true,"point":true},{"id":33,"name":"hanzhong","type":"region","x":976,"y":1840,"width":0,"height":0,"rotation":0,"visible":true,"point":true},{"id":34,"name":"chengdu","type":"court","x":624,"y":2224,"width":0,"height":0,"rotation":0,"visible":true,"point":true,"properties":[{"name":"state","type":"string","value":"shu"}]},{"id":35,"name":"shu","type":"region","x":432,"y":2352,"width":0,"height":0,"rotation":0,"visible":true,"point":true},{"id":36,"name":"clan","type":"town","x":976,"y":1008,"width":0,"height":0,"rotation":0,"visible":true,"point":true,"properties":[{"name":"state","type":"string","value":"qin"}]},{"id":37,"name":"zhou","type":"altar","x":1872,"y":1488,"width":0,"height":0,"rotation":0,"visible":true,"point":true,"properties":[{"name":"state","type":"string","value":"zhou"}]},{"id":38,"name":"luo","type":"ford","x":1808,"y":1552,"width":0,"height":0,"rotation":0,"visible":true,"point":true},{"id":39,"name":"yiyang","type":"court","x":1744,"y":1648,"width":0,"height":0,"rotation":0,"visible":true,"point":true,"properties":[{"name":"state","type":"string","value":"han"}]},{"id":40,"name":"han","type":"region","x":1840,"y":1744,"width":0,"height":0,"rotation":0,"visible":true,"point":true},{"id":41,"name":"yangcheng","type":"town","x":2000,"y":1680,"width":0,"height":0,"rotation":0,"visible":true,"point":true},{"id":42,"name":"daliang","type":"court","x":2256,"y":1520,"width":0,"height":0,"rotation":0,"visible":true,"point":true,"properties":[{"name":"state","type":"string","value":"wei"}]},{"id":43,"name":"wei","type":"region","x":2128,"y":1424,"width":0,"height":0,"rotation":0,"visible":true,"point":true},{"id":44,"name":"ye","type":"town","x":2384,"y":1072,"width":0,"height":0,"rotation":0,"visible":true,"point":true},{"id":45,"name":"ditch","type":"weir","x":2448,"y":1616,"width":0,"height":0,"rotation":0,"visible":true,"point":true},{"id":46,"name":"council","type":"hall","x":2128,"y":1584,"width":0,"height":0,"rotation":0,"visible":true,"point":true},{"id":47,"name":"handan","type":"court","x":2384,"y":880,"width":0,"height":0,"rotation":0,"visible":true,"point":true,"properties":[{"name":"state","type":"string","value":"zhao"}]},{"id":48,"name":"zhao","type":"region","x":2256,"y":720,"width":0,"height":0,"rotation":0,"visible":true,"point":true},{"id":49,"name":"jinyang","type":"town","x":1840,"y":528,"width":0,"height":0,"rotation":0,"visible":true,"point":true},{"id":50,"name":"shangdang","type":"region","x":1936,"y":976,"width":0,"height":0,"rotation":0,"visible":true,"point":true},{"id":51,"name":"changping","type":"camp","x":2064,"y":848,"width":0,"height":0,"rotation":0,"visible":true,"point":true},{"id":52,"name":"taihang","type":"pass","x":2032,"y":688,"width":0,"height":0,"rotation":0,"visible":true,"point":true},{"id":53,"name":"dai","type":"court","x":2192,"y":208,"width":0,"height":0,"rotation":0,"visible":true,"point":true,"properties":[{"name":"state","type":"string","value":"dai"}]},{"id":54,"name":"zhongshan","type":"court","x":2512,"y":592,"width":0,"height":0,"rotation":0,"visible":true,"point":true,"properties":[{"name":"state","type":"string","value":"zhongshan"}]},{"id":55,"name":"hu","type":"camp","x":1488,"y":144,"width":0,"height":0,"rotation":0,"visible":true,"point":true},{"id":56,"name":"ji","type":"court","x":2896,"y":336,"width":0,"height":0,"rotation":0,"visible":true,"point":true,"properties":[{"name":"state","type":"string","value":"yan"}]},{"id":57,"name":"yan","type":"region","x":3088,"y":368,"width":0,"height":0,"rotation":0,"visible":true,"point":true},{"id":58,"name":"liaodong","type":"region","x":4240,"y":176,"width":0,"height":0,"rotation":0,"visible":true,"point":true},{"id":59,"name":"yi","type":"ford","x":2960,"y":432,"width":0,"height":0,"rotation":0,"visible":true,"point":true},{"id":60,"name":"linzi","type":"court","x":3312,"y":976,"width":0,"height":0,"rotation":0,"visible":true,"point":true,"properties":[{"name":"state","type":"string","value":"qi"}]},{"id":61,"name":"qi","type":"region","x":3440,"y":1008,"width":0,"height":0,"rotation":0,"visible":true,"point":true},{"id":62,"name":"jixia","type":"academy","x":3216,"y":1008,"width":0,"height":0,"rotation":0,"visible":true,"point":true},{"id":63,"name":"langya","type":"town","x":3920,"y":1424,"width":0,"height":0,"rotation":0,"visible":true,"point":true},{"id":64,"name":"quzhan","type":"saltern","x":3472,"y":720,"width":0,"height":0,"rotation":0,"visible":true,"point":true},{"id":65,"name":"gulf","type":"harbour","x":3664,"y":592,"width":0,"height":0,"rotation":0,"visible":true,"point":true},{"id":66,"name":"lu","type":"court","x":3088,"y":1424,"width":0,"height":0,"rotation":0,"visible":true,"point":true,"properties":[{"name":"state","type":"string","value":"lu"}]},{"id":67,"name":"song","type":"court","x":2832,"y":1616,"width":0,"height":0,"rotation":0,"visible":true,"point":true,"properties":[{"name":"state","type":"string","value":"song"}]},{"id":68,"name":"puyang","type":"court","x":2576,"y":1296,"width":0,"height":0,"rotation":0,"visible":true,"point":true,"properties":[{"name":"state","type":"string","value":"wey"}]},{"id":69,"name":"wey","type":"region","x":2512,"y":1360,"width":0,"height":0,"rotation":0,"visible":true,"point":true},{"id":70,"name":"tao","type":"court","x":2704,"y":1488,"width":0,"height":0,"rotation":0,"visible":true,"point":true,"properties":[{"name":"state","type":"string","value":"tao"}]},{"id":71,"name":"merchant","type":"market","x":2768,"y":1456,"width":0,"height":0,"rotation":0,"visible":true,"point":true},{"id":72,"name":"dukang","type":"region","x":2896,"y":1680,"width":0,"height":0,"rotation":0,"visible":true,"point":true},{"id":73,"name":"mohists","type":"hall","x":2768,"y":1872,"width":0,"height":0,"rotation":0,"visible":true,"point":true},{"id":74,"name":"ying","type":"court","x":1936,"y":2288,"width":0,"height":0,"rotation":0,"visible":true,"point":true,"properties":[{"name":"state","type":"string","value":"chu"}]},{"id":75,"name":"chu","type":"region","x":2320,"y":2064,"width":0,"height":0,"rotation":0,"visible":true,"point":true},{"id":76,"name":"jiang","type":"ford","x":2128,"y":2320,"width":0,"height":0,"rotation":0,"visible":true,"point":true},{"id":77,"name":"huai","type":"ford","x":2704,"y":1808,"width":0,"height":0,"rotation":0,"visible":true,"point":true},{"id":78,"name":"river","type":"ford","x":2192,"y":1392,"width":0,"height":0,"rotation":0,"visible":true,"point":true},{"id":79,"name":"gusu","type":"court","x":3664,"y":2128,"width":0,"height":0,"rotation":0,"visible":true,"point":true,"properties":[{"name":"state","type":"string","value":"wu"}]},{"id":80,"name":"wu","type":"region","x":3536,"y":2192,"width":0,"height":0,"rotation":0,"visible":true,"point":true},{"id":81,"name":"kuaiji","type":"court","x":3920,"y":2384,"width":0,"height":0,"rotation":0,"visible":true,"point":true,"properties":[{"name":"state","type":"string","value":"yue"}]},{"id":82,"name":"yue","type":"region","x":3792,"y":2512,"width":0,"height":0,"rotation":0,"visible":true,"point":true},{"id":83,"name":"yong","type":"town","x":752,"y":1360,"width":0,"height":0,"rotation":0,"visible":true,"point":true},{"id":84,"name":"yuyu","type":"pass","x":1808,"y":784,"width":0,"height":0,"rotation":0,"visible":true,"point":true},{"id":85,"name":"anyi","type":"court","x":1776,"y":1232,"width":0,"height":0,"rotation":0,"visible":true,"point":true},{"id":86,"name":"xihe","type":"region","x":1520,"y":1072,"width":0,"height":0,"rotation":0,"visible":true,"point":true},{"id":87,"name":"mianchi","type":"town","x":1744,"y":1424,"width":0,"height":0,"rotation":0,"visible":true,"point":true},{"id":88,"name":"yique","type":"pass","x":1840,"y":1616,"width":0,"height":0,"rotation":0,"visible":true,"point":true},{"id":89,"name":"xinzheng","type":"court","x":2128,"y":1712,"width":0,"height":0,"rotation":0,"visible":true,"point":true},{"id":90,"name":"guiling","type":"camp","x":2480,"y":1424,"width":0,"height":0,"rotation":0,"visible":true,"point":true},{"id":91,"name":"maling","type":"camp","x":2768,"y":1232,"width":0,"height":0,"rotation":0,"visible":true,"point":true},{"id":92,"name":"xuzhou","type":"altar","x":2960,"y":1520,"width":0,"height":0,"rotation":0,"visible":true,"point":true},{"id":93,"name":"ju","type":"town","x":3408,"y":1232,"width":0,"height":0,"rotation":0,"visible":true,"point":true},{"id":94,"name":"jimo","type":"town","x":3632,"y":1008,"width":0,"height":0,"rotation":0,"visible":true,"point":true},{"id":95,"name":"wuguan","type":"pass","x":1232,"y":1712,"width":0,"height":0,"rotation":0,"visible":true,"point":true},{"id":96,"name":"danyang","type":"camp","x":1424,"y":1968,"width":0,"height":0,"rotation":0,"visible":true,"point":true},{"id":97,"name":"chuisha","type":"camp","x":1680,"y":2128,"width":0,"height":0,"rotation":0,"visible":true,"point":true},{"id":98,"name":"yiling","type":"tomb","x":1744,"y":2352,"width":0,"height":0,"rotation":0,"visible":true,"point":true},{"id":99,"name":"chen","type":"court","x":2448,"y":1872,"width":0,"height":0,"rotation":0,"visible":true,"point":true},{"id":100,"name":"shouchun","type":"court","x":2960,"y":1872,"width":0,"height":0,"rotation":0,"visible":true,"point":true},{"id":101,"name":"dujiang","type":"weir","x":528,"y":2096,"width":0,"height":0,"rotation":0,"visible":true,"point":true},{"id":102,"name":"hukou","type":"falls","x":1648,"y":1040,"width":0,"height":0,"rotation":0,"visible":true,"point":true},{"id":103,"name":"longmen","type":"gorge","x":1680,"y":1168,"width":0,"height":0,"rotation":0,"visible":true,"point":true},{"id":104,"name":"sanmen","type":"gorge","x":1808,"y":1424,"width":0,"height":0,"rotation":0,"visible":true,"point":true},{"id":105,"name":"taishan","type":"peak","x":3280,"y":1136,"width":0,"height":0,"rotation":0,"visible":true,"point":true},{"id":106,"name":"huashan","type":"peak","x":1648,"y":1424,"width":0,"height":0,"rotation":0,"visible":true,"point":true},{"id":107,"name":"songshan","type":"peak","x":1936,"y":1584,"width":0,"height":0,"rotation":0,"visible":true,"point":true},{"id":108,"name":"jieshi","type":"peak","x":3472,"y":400,"width":0,"height":0,"rotation":0,"visible":true,"point":true},{"id":109,"name":"yanchi","type":"saltern","x":1776,"y":1296,"width":0,"height":0,"rotation":0,"visible":true,"point":true}]}]}